P3
400 225
255
171 194 0
176 197 0
178 201 0
179 202 0
176 200 0
180 202 0
173 199 0
178 201 0
178 201 0
184 204 0
181 203 0
182 203 0
184 204 0
181 203 0
178 197 0
178 201 0
179 202 0
177 200 0
179 202 0
170 192 0
182 203 0
181 203 0
167 190 0
180 202 0
182 203 0
181 203 0
178 201 0
180 202 0
178 201 0
177 197 0
181 202 0
181 203 0
180 202 0
182 203 0
182 203 0
180 202 0
175 197 0
181 202 0
180 202 0
181 203 0
185 205 0
174 199 0
178 201 0
180 202 0
175 195 0
170 193 0
183 204 0
180 202 0
182 203 0
178 201 0
180 202 0
173 199 0
180 202 0
188 206 0
182 203 0
186 205 0
171 194 0
180 202 0
181 203 0
181 202 0
185 205 0
177 201 0
176 197 0
184 204 0
182 203 0
179 202 0
176 200 0
179 202 0
180 202 0
173 195 0
178 201 0
167 188 0
171 194 0
184 204 0
178 201 0
182 203 0
181 203 0
182 203 0
184 205 0
182 203 0
180 202 0
176 200 0
179 201 0
177 200 0
179 202 0
182 203 0
180 199 0
180 202 0
184 204 0
176 200 0
177 201 0
177 200 0
174 195 0
184 204 0
185 205 0
179 199 0
182 203 0
177 201 0
176 200 0
183 204 0
190 207 0
183 204 0
183 204 0
176 196 0
177 201 0
178 198 0
179 202 0
179 202 0
181 203 0
175 196 0
163 187 89
120 146 158
70 107 168
69 107 178
70 108 186
73 110 186
72 109 186
69 107 178
72 109 186
71 108 178
72 109 186
71 108 186
69 107 186
68 107 186
69 107 186
71 109 186
71 108 186
69 107 186
71 109 186
70 108 186
69 107 186
69 107 186
70 107 186
70 107 186
70 108 186
70 108 186
70 108 186
70 107 186
69 107 186
70 108 186
71 109 186
73 110 186
71 108 186
69 107 186
69 107 186
70 108 186
69 107 186
70 108 186
70 108 186
69 107 186
70 107 186
70 108 186
72 109 186
70 108 186
69 107 186
69 107 186
71 108 186
70 107 186
69 107 186
69 107 186
70 108 186
70 108 186
69 107 186
70 108 186
70 107 186
70 108 186
70 108 186
69 107 186
69 107 186
69 107 186
70 108 186
73 110 186
69 107 186
69 107 186
70 108 186
71 108 186
69 107 186
71 108 186
72 109 186
70 107 186
71 108 186
70 107 186
71 108 186
69 107 186
69 107 186
71 109 186
70 108 186
69 107 186
70 107 186
72 109 186
70 107 186
70 107 186
72 109 186
70 108 186
71 109 186
70 108 186
68 103 178
70 108 186
70 108 186
70 108 186
71 108 186
70 108 186
71 108 186
71 108 186
72 109 186
69 107 186
70 108 186
70 108 186
71 108 186
70 107 178
71 108 186
70 108 186
69 107 186
70 108 186
73 110 186
71 108 186
70 107 186
71 107 179
71 108 186
70 108 186
72 109 186
70 107 178
71 108 186
67 104 179
72 109 186
113 136 150
159 179 89
180 202 0
181 203 0
176 196 0
180 202 0
182 203 0
179 202 0
178 201 0
175 196 0
183 204 0
176 197 0
171 194 0
181 202 0
183 204 0
178 199 0
182 203 0
182 203 0
179 201 0
186 206 0
170 192 0
140 135 59
135 130 81
138 133 71
152 147 81
171 166 97
173 167 97
156 149 81
140 136 73
171 165 89
143 142 81
135 135 76
132 127 71
118 116 72
127 124 82
86 90 65
144 143 99
131 129 85
134 132 93
159 159 111
142 143 104
124 121 82
131 130 93
144 144 101
118 121 88
125 127 93
146 147 98
155 151 104
134 139 103
140 136 97
144 143 95
136 138 101
157 161 117
134 141 99
154 154 111
117 116 89
147 144 101
106 107 79
150 152 111
147 150 104
128 134 99
121 129 98
135 138 89
130 139 107
149 148 97
151 156 111
144 148 108
145 150 111
136 141 104
162 166 120
141 147 108
134 142 108
129 134 103
76 88 76
137 139 101
145 150 108
144 149 111
142 148 111
141 146 108
148 151 111
130 135 101
102 114 95
134 138 96
136 141 106
147 144 101
149 155 114
144 148 108
153 157 114
142 146 106
160 164 118
157 160 115
130 132 97
158 164 120
176 175 123
152 156 112
157 164 120
151 160 118
175 175 123
151 155 111
157 167 123
153 156 112
148 156 115
163 170 123
158 154 108
163 166 114
162 162 115
172 174 123
150 150 106
168 172 123
166 170 117
148 152 104
172 173 117
173 174 123
181 178 123
149 164 123
163 170 123
166 171 123
179 177 123
169 173 123
159 164 117
164 170 123
175 175 123
158 168 123
173 174 123
173 174 123
167 171 123
160 168 123
180 177 123
168 168 117
158 168 123
170 173 123
177 176 123
149 164 123
169 168 117
164 166 117
179 177 123
169 173 123
159 168 123
176 176 123
163 165 117
179 177 123
172 174 123
163 160 111
172 169 117
135 143 104
162 165 117
161 164 117
177 176 123
142 151 111
158 163 117
171 173 123
177 176 123
161 164 117
164 166 117
167 167 117
156 157 111
152 155 111
165 166 117
164 161 111
173 174 123
162 165 117
172 169 117
149 149 104
152 150 104
134 137 97
176 171 117
150 155 111
174 175 123
171 168 111
181 177 117
161 160 111
169 167 111
159 158 104
146 147 97
155 157 111
181 203 0
181 203 0
187 206 0
185 205 0
185 205 0
181 200 0
182 203 0
184 204 0
179 201 0
181 203 0
177 201 0
187 206 0
179 202 0
181 203 0
182 203 0
179 202 0
176 200 0
173 195 0
185 205 0
181 203 0
181 200 0
178 201 0
175 200 0
179 201 0
169 190 0
177 201 0
181 202 0
179 202 0
182 203 0
178 201 0
180 202 0
173 195 0
182 203 0
181 200 0
185 205 0
181 203 0
181 202 0
181 202 0
182 203 0
180 200 0
184 204 0
179 201 0
178 201 0
181 203 0
180 202 0
177 197 0
180 202 0
180 202 0
175 195 0
177 200 0
176 195 0
177 200 0
180 202 0
180 202 0
180 202 0
180 202 0
182 203 0
176 200 0
180 202 0
181 203 0
174 199 0
182 203 0
179 202 0
171 194 0
183 204 0
179 202 0
181 203 0
179 202 0
183 204 0
180 202 0
179 201 0
177 201 0
182 203 0
176 200 0
181 203 0
183 204 0
180 202 0
180 202 0
181 203 0
175 200 0
172 194 0
167 188 0
176 197 0
183 204 0
178 201 0
182 203 0
181 203 0
171 193 0
178 201 0
177 201 0
182 203 0
173 191 0
178 201 0
181 203 0
178 201 0
178 201 0
179 202 0
182 203 0
184 201 0
175 196 0
175 199 0
186 205 0
178 201 0
179 202 0
163 186 0
186 205 0
174 194 0
178 201 0
172 195 65
141 164 123
72 109 178
70 107 178
72 109 178
72 109 186
68 106 178
68 107 186
69 107 186
70 108 186
71 108 186
70 108 186
70 108 186
70 108 186
71 108 186
70 108 186
72 109 186
70 108 186
71 109 186
71 109 186
70 108 186
69 107 186
70 108 186
70 108 186
70 108 186
71 108 186
70 108 186
73 110 186
71 109 186
70 108 186
73 110 186
71 108 186
69 107 186
69 107 186
69 107 186
69 107 186
70 108 186
69 107 186
69 107 186
69 107 186
70 107 186
69 107 186
69 107 186
70 108 186
70 108 186
70 108 186
70 108 186
69 107 186
70 107 186
70 108 186
70 108 186
70 108 186
69 107 186
70 108 186
68 106 186
71 108 186
70 107 186
69 107 186
71 109 186
71 109 186
70 107 186
68 106 186
71 108 186
70 108 186
72 109 186
69 107 186
68 107 186
70 108 186
70 107 186
69 107 186
69 107 186
70 107 186
71 108 186
70 108 186
70 107 186
70 107 186
70 108 186
70 107 186
71 109 186
69 107 186
70 108 186
71 109 186
68 106 186
70 108 186
71 108 186
70 107 186
70 108 186
71 108 186
72 109 186
73 110 186
68 106 186
72 109 186
71 108 186
69 107 186
70 108 186
71 108 186
70 108 186
70 108 186
69 107 186
70 108 186
71 108 186
70 105 172
69 107 186
71 109 186
73 110 186
71 107 179
68 104 178
70 108 186
69 107 186
71 108 186
67 103 178
70 106 179
68 104 170
72 109 186
69 107 186
73 110 186
71 107 179
68 106 186
88 121 178
136 162 136
174 196 65
187 206 0
174 195 0
183 204 0
181 203 0
172 193 0
177 197 0
179 202 0
174 194 0
176 195 0
182 203 0
171 194 0
172 189 0
179 202 0
179 201 0
171 193 0
182 203 0
158 159 43
150 145 71
167 160 97
131 125 59
122 117 71
174 164 104
158 153 81
136 133 59
134 128 71
135 132 81
115 115 68
113 113 43
123 120 78
134 132 93
135 132 88
144 141 93
145 141 85
58 62 37
132 130 90
144 147 101
140 137 81
114 118 89
119 118 65
100 105 73
155 151 97
134 136 94
149 150 101
116 123 96
143 140 91
129 129 90
107 109 83
123 126 91
108 111 82
135 139 101
139 139 93
145 151 111
157 158 111
132 134 95
159 160 114
134 138 106
117 118 86
132 139 105
146 150 109
77 90 77
117 125 98
130 132 96
140 143 106
141 147 109
77 85 65
136 140 103
158 164 120
146 151 112
121 123 91
152 157 114
140 142 101
146 154 114
126 129 95
137 142 104
118 127 97
148 152 111
177 171 117
158 160 111
131 130 95
147 151 111
130 143 109
178 176 123
171 173 123
139 141 103
155 162 117
165 171 123
159 159 114
124 130 99
145 148 101
156 162 117
126 128 90
173 170 117
153 156 113
167 162 101
164 163 117
150 155 112
159 158 106
167 171 123
153 156 111
162 165 117
157 163 118
163 165 118
169 172 123
169 168 118
149 156 115
159 164 118
167 172 123
156 158 114
159 168 123
156 162 117
164 170 123
175 175 123
167 172 123
151 159 111
159 164 117
176 175 123
174 175 123
163 170 123
171 173 123
169 173 123
168 172 123
164 166 117
161 169 123
166 171 123
176 175 123
171 173 123
171 173 123
168 172 123
166 171 123
169 168 117
164 165 117
163 165 117
159 168 123
151 150 104
143 146 104
177 176 123
182 178 123
160 164 117
167 167 117
168 167 117
158 163 117
162 160 111
165 166 117
185 180 123
172 174 123
173 170 117
181 178 123
154 161 117
172 174 123
177 176 123
174 175 123
140 139 97
155 157 111
153 156 111
161 159 111
158 157 104
169 172 123
173 170 117
143 152 111
157 162 117
137 144 104
161 160 111
159 158 104
152 150 104
176 175 123
132 128 81
166 166 117
189 182 123
140 144 97
154 155 104
165 166 117
169 193 0
185 205 0
183 204 0
177 201 0
181 202 0
181 203 0
184 204 0
183 204 0
182 203 0
179 202 0
182 203 0
181 203 0
175 200 0
181 203 0
179 202 0
179 202 0
180 202 0
178 201 0
180 202 0
176 200 0
183 204 0
181 203 0
177 201 0
177 201 0
176 200 0
177 201 0
180 202 0
181 203 0
181 203 0
179 202 0
184 204 0
179 202 0
181 202 0
184 204 0
181 203 0
175 194 0
178 201 0
170 194 0
178 198 0
178 201 0
173 195 0
173 195 0
178 201 0
182 203 0
179 202 0
185 205 0
180 202 0
174 199 0
183 204 0
184 204 0
176 200 0
172 195 0
182 203 0
183 204 0
178 201 0
181 203 0
178 201 0
179 202 0
178 201 0
178 201 0
173 195 0
181 203 0
183 204 0
178 199 0
180 202 0
169 193 0
180 202 0
178 198 0
180 199 0
185 205 0
180 202 0
179 202 0
180 202 0
182 203 0
183 204 0
181 203 0
183 204 0
180 202 0
181 203 0
183 204 0
179 202 0
180 202 0
177 198 0
178 201 0
175 196 0
152 170 0
179 202 0
161 184 0
170 190 0
182 203 0
179 201 0
179 202 0
178 201 0
177 198 0
169 192 0
171 194 0
178 201 0
181 203 0
174 199 0
185 205 0
175 200 0
181 203 0
182 203 0
179 202 0
174 192 0
178 201 0
182 203 0
149 171 89
90 122 178
73 110 186
72 109 178
70 108 186
71 109 186
68 107 186
71 108 186
72 108 178
73 110 186
71 109 186
70 107 186
70 108 186
69 107 186
69 107 186
70 108 186
68 106 186
71 108 186
69 107 186
68 107 186
70 108 178
68 106 186
70 108 186
69 107 186
71 108 186
70 108 186
71 109 186
70 108 186
69 107 186
69 107 186
71 109 186
71 109 186
68 106 186
73 110 186
71 109 186
70 108 186
69 107 186
70 108 186
69 107 186
69 107 186
71 108 186
69 107 186
70 108 186
69 107 186
69 107 186
71 108 186
71 108 186
69 107 186
70 108 186
70 108 186
68 107 186
69 107 186
70 107 186
71 108 186
68 107 186
70 107 186
71 109 186
71 108 186
69 107 186
69 107 186
70 107 186
69 107 186
70 108 186
69 107 186
71 108 186
70 107 186
68 106 186
70 108 186
68 107 186
69 107 186
69 107 186
69 107 186
72 109 186
71 109 186
69 107 186
71 109 186
69 107 186
70 108 186
71 108 186
69 107 186
71 108 186
70 108 186
68 107 186
71 108 186
69 107 186
70 108 186
71 107 179
70 108 186
69 107 178
72 107 179
69 107 186
71 109 186
71 108 186
69 107 186
69 105 179
71 108 186
69 107 186
72 108 178
70 108 186
71 109 186
70 107 186
70 108 186
68 107 186
71 108 186
70 108 186
69 105 179
71 108 186
70 108 186
70 108 186
73 110 186
68 104 178
70 108 186
70 108 186
69 107 186
72 109 186
70 108 186
70 107 178
70 106 178
68 105 179
69 107 186
69 106 179
67 103 178
156 179 93
177 197 0
180 202 0
180 202 0
174 195 0
167 187 0
176 200 0
180 199 0
173 190 0
179 201 0
184 204 0
178 201 0
181 203 0
176 200 0
183 204 0
181 203 0
123 128 59
131 123 81
123 120 43
107 106 43
142 139 71
168 164 89
108 105 59
151 145 93
136 131 89
137 129 84
154 151 93
120 119 77
152 146 101
110 108 59
95 90 65
136 134 93
119 121 89
165 165 111
106 105 74
131 132 94
76 80 68
146 144 103
132 132 95
148 145 101
141 142 91
120 121 77
106 104 68
124 129 94
149 148 97
136 141 101
152 152 108
108 118 92
132 133 91
109 116 91
142 141 104
120 125 94
133 134 99
120 123 93
120 124 94
130 133 97
145 145 104
141 146 111
140 143 104
171 169 118
142 146 106
99 112 95
110 117 94
139 143 107
129 131 89
161 161 114
115 125 99
133 139 105
155 159 115
152 149 108
129 134 103
123 138 109
142 144 105
140 142 106
135 135 99
150 152 111
148 146 104
141 151 111
123 124 90
159 168 123
112 120 95
106 113 91
117 126 101
150 147 106
111 120 93
117 124 93
144 154 114
143 144 106
130 136 101
156 162 118
156 157 106
145 147 101
154 154 111
148 154 108
163 163 117
149 156 115
164 162 114
162 169 123
147 158 117
183 179 123
146 158 118
160 161 115
161 169 123
168 171 117
153 154 112
172 174 123
158 163 117
173 172 111
176 175 123
162 169 123
172 174 123
172 174 123
144 154 114
172 174 123
168 166 111
176 175 123
164 169 117
165 171 123
183 179 123
172 174 123
161 159 111
180 177 123
176 175 123
158 158 111
167 171 123
144 141 97
162 169 123
181 178 123
170 173 123
160 168 123
173 174 123
174 170 117
177 176 123
166 167 117
174 175 123
181 178 123
167 167 117
176 175 123
173 170 117
153 161 117
175 170 117
158 158 111
176 176 123
164 161 111
174 174 123
155 162 117
164 166 117
150 149 104
165 171 123
165 171 123
172 174 123
164 170 123
163 160 111
153 156 111
172 169 117
160 159 111
159 159 111
157 157 104
165 166 117
169 168 117
151 149 97
169 170 111
153 156 111
179 176 117
169 167 111
152 150 104
169 168 117
162 162 104
168 168 117
149 142 89
162 159 104
178 201 0
180 202 0
180 202 0
173 195 0
179 202 0
180 202 0
177 201 0
180 202 0
181 203 0
183 204 0
179 202 0
185 205 0
180 202 0
178 201 0
182 203 0
177 198 0
178 198 0
181 203 0
180 202 0
175 200 0
176 197 0
178 201 0
179 202 0
178 201 0
178 201 0
180 202 0
179 202 0
179 202 0
181 203 0
180 202 0
181 203 0
179 202 0
179 202 0
181 203 0
181 203 0
184 204 0
180 202 0
180 202 0
182 203 0
182 203 0
180 202 0
185 205 0
178 201 0
171 192 0
177 201 0
174 199 0
180 202 0
177 201 0
173 195 0
182 203 0
178 201 0
170 192 0
180 202 0
183 204 0
184 204 0
178 201 0
181 203 0
179 197 0
182 203 0
169 193 0
167 191 0
178 201 0
181 203 0
184 204 0
172 195 0
179 201 0
181 203 0
184 204 0
180 202 0
179 202 0
179 202 0
179 202 0
163 186 0
182 203 0
183 204 0
179 202 0
179 202 0
177 201 0
181 203 0
183 204 0
175 196 0
165 186 0
183 204 0
182 203 0
176 196 0
182 203 0
169 193 0
185 205 0
175 199 0
172 196 0
179 201 0
179 202 0
179 202 0
169 191 0
181 203 0
181 203 0
178 201 0
179 202 0
179 202 0
182 203 0
177 201 0
177 197 0
176 197 0
176 197 0
180 202 0
181 203 0
147 172 123
72 109 186
71 108 186
69 106 178
71 109 186
70 107 178
71 108 186
70 108 186
71 108 186
70 107 186
71 108 186
72 109 186
72 109 186
71 108 186
71 108 186
72 109 186
73 110 186
71 108 186
69 107 186
72 109 186
71 108 186
70 108 186
70 108 186
70 108 186
74 111 186
70 107 186
70 108 186
69 107 186
72 109 186
72 109 186
71 108 186
69 107 186
70 108 186
70 107 186
72 109 186
70 108 186
71 109 186
70 107 178
72 109 186
73 110 186
71 109 186
69 107 186
70 108 186
70 108 186
69 107 186
71 108 186
70 108 186
71 108 186
71 108 186
68 106 186
71 108 186
71 109 186
70 108 186
70 108 186
71 108 186
70 108 186
70 108 186
70 108 186
71 108 186
69 107 186
69 107 186
71 108 186
71 109 186
69 107 186
68 106 186
70 108 186
69 107 186
70 108 186
72 109 186
67 106 186
70 108 186
70 108 186
69 107 186
72 109 186
69 107 186
69 107 186
69 107 186
68 106 186
69 107 186
70 107 186
70 107 186
72 109 186
71 109 186
68 106 186
69 107 186
69 107 186
70 108 186
70 107 186
71 108 186
70 108 186
71 108 186
72 109 186
69 107 186
69 107 186
71 108 186
70 108 186
70 108 186
71 108 186
70 108 186
71 108 186
71 108 186
70 108 186
68 106 186
71 108 186
69 107 186
70 108 186
69 107 186
69 106 179
71 108 186
71 109 186
66 102 172
67 103 178
69 107 186
70 107 186
69 107 186
65 101 178
70 108 186
71 108 186
69 107 186
73 108 179
67 103 178
70 106 179
69 105 179
69 107 178
140 164 136
169 193 65
181 200 0
176 195 0
181 200 0
176 196 0
183 204 0
180 202 0
181 203 0
181 203 0
182 203 0
184 204 0
179 199 0
182 203 0
180 199 0
116 111 43
50 51 0
74 73 0
135 130 81
115 112 59
135 130 81
126 123 59
152 147 81
127 123 85
102 102 44
104 104 68
132 128 65
120 118 81
121 118 81
68 71 52
124 123 89
159 156 90
128 127 85
156 152 104
86 89 57
137 138 83
151 151 108
161 156 104
132 132 93
122 123 93
116 116 81
147 145 103
128 132 100
118 125 91
105 109 78
89 99 76
121 126 97
113 118 84
150 151 108
112 118 89
151 149 97
133 140 104
129 132 95
124 132 101
149 155 108
108 113 87
135 134 97
102 106 79
135 139 101
131 134 101
123 124 85
123 132 103
142 144 101
117 120 89
117 126 101
153 151 104
124 130 99
109 116 91
143 144 106
112 117 89
140 148 111
152 161 117
123 130 99
141 145 109
154 157 112
149 152 112
149 155 112
145 144 104
136 141 106
128 130 97
149 150 106
124 130 101
137 146 111
129 137 104
106 111 87
165 171 123
133 143 108
141 139 99
160 168 123
165 166 117
140 144 109
153 158 114
157 160 115
171 169 117
168 172 123
165 166 117
172 170 118
174 172 120
164 166 118
179 176 117
162 169 123
178 176 123
162 165 118
175 175 123
163 169 117
154 156 108
180 178 123
167 167 118
170 173 123
151 160 117
172 173 117
171 173 123
159 164 117
164 170 123
161 169 123
166 171 123
155 160 104
169 168 117
179 177 123
175 175 123
171 169 117
172 174 123
163 170 123
169 172 123
167 167 117
139 150 111
140 150 111
168 172 123
172 174 123
181 178 123
172 174 123
166 171 123
160 164 117
177 176 123
172 174 123
163 170 123
146 153 111
171 173 123
175 175 123
153 161 117
178 177 123
170 173 123
169 172 123
167 171 123
164 166 117
161 164 117
177 176 123
176 176 123
179 177 123
179 177 123
148 154 111
159 163 117
162 165 117
166 166 117
156 162 117
170 167 111
162 165 117
151 155 111
159 159 111
159 159 111
173 170 117
159 163 117
152 148 89
158 162 111
157 153 104
162 164 111
172 169 117
147 153 111
169 168 117
176 171 117
181 203 0
178 201 0
181 203 0
180 202 0
184 204 0
177 197 0
176 197 0
181 202 0
180 202 0
162 186 0
180 202 0
180 202 0
185 205 0
183 204 0
181 202 0
179 202 0
182 203 0
182 203 0
180 202 0
179 202 0
180 202 0
182 203 0
176 200 0
170 192 0
181 203 0
172 194 0
177 201 0
170 193 0
181 203 0
175 200 0
183 203 0
181 202 0
174 199 0
174 195 0
177 201 0
178 201 0
171 193 0
177 200 0
180 202 0
180 202 0
178 201 0
182 203 0
184 204 0
170 192 0
180 202 0
173 195 0
180 202 0
179 202 0
170 192 0
176 200 0
178 201 0
178 201 0
181 203 0
183 204 0
178 201 0
181 203 0
168 192 0
184 204 0
179 202 0
181 203 0
182 203 0
180 202 0
178 201 0
178 201 0
184 205 0
179 202 0
178 201 0
181 203 0
180 202 0
178 201 0
182 203 0
184 204 0
175 200 0
178 201 0
178 201 0
163 187 0
182 203 0
176 200 0
182 203 0
182 203 0
182 203 0
179 202 0
179 202 0
178 201 0
181 203 0
177 200 0
179 202 0
181 203 0
170 193 0
180 202 0
182 203 0
180 202 0
184 204 0
182 203 0
180 199 0
184 204 0
174 199 0
180 202 0
182 203 0
181 199 0
177 201 0
172 193 0
178 201 0
178 201 0
166 188 65
99 127 158
72 109 186
68 106 178
70 107 178
72 109 186
72 109 186
69 107 186
70 107 178
70 107 178
71 108 186
69 107 186
71 108 186
71 109 186
71 108 186
71 109 186
70 108 186
69 107 186
71 108 186
69 107 186
70 107 186
71 108 186
71 109 186
69 107 186
69 107 186
70 107 186
70 108 186
70 108 186
70 108 186
69 107 186
71 108 186
69 107 186
69 107 186
71 108 186
73 110 186
69 107 186
69 107 186
70 108 186
69 107 186
70 108 186
70 108 186
69 107 186
69 107 186
70 108 186
69 107 186
69 107 186
70 108 186
69 107 186
70 108 186
70 108 186
69 107 186
69 107 186
70 108 186
70 108 186
69 107 186
70 108 186
72 109 186
69 107 186
71 108 186
72 109 186
70 108 186
70 108 186
72 109 186
69 107 186
72 109 186
71 109 186
70 107 186
70 108 186
69 107 186
69 107 186
71 108 186
71 108 186
69 107 186
69 107 186
71 109 186
70 108 186
68 106 186
70 108 186
71 108 186
72 109 186
68 106 186
71 109 186
71 108 186
69 107 186
69 107 186
70 107 186
69 105 179
68 106 186
72 109 186
72 109 186
70 107 186
69 107 186
69 107 186
71 109 186
70 108 186
71 108 186
70 108 186
69 107 186
70 107 186
71 108 186
69 107 186
72 107 179
69 107 186
70 108 186
73 110 186
70 108 186
71 108 186
71 109 186
72 109 186
71 108 186
67 103 178
72 109 186
71 108 186
70 108 186
73 110 186
71 108 186
72 109 186
70 107 186
70 107 186
71 107 178
71 108 186
68 105 179
69 105 170
68 106 186
71 108 186
70 106 179
68 102 164
92 122 178
179 202 0
175 194 0
182 200 0
179 202 0
176 196 0
185 205 0
179 202 0
177 201 0
179 202 0
180 202 0
180 202 0
181 203 0
168 171 59
107 102 59
120 117 0
161 153 97
130 127 81
160 156 89
128 124 59
122 119 43
168 159 89
146 145 93
140 136 73
137 131 76
122 120 59
130 127 73
131 130 85
148 142 85
164 160 104
136 132 89
31 41 43
148 143 99
127 129 91
145 143 98
119 123 81
81 87 62
109 114 86
132 130 92
148 149 106
109 110 83
140 143 101
107 113 91
89 94 72
120 120 85
151 153 111
126 131 99
163 166 118
109 116 93
126 129 95
147 148 106
116 120 91
145 143 101
144 151 114
118 124 97
141 140 93
153 154 111
118 124 97
138 139 103
118 125 99
141 146 111
134 142 108
120 123 90
132 141 108
139 141 101
139 145 104
154 159 117
148 154 112
132 135 100
124 129 99
158 160 114
104 118 97
145 154 115
123 126 97
129 140 109
121 126 98
149 151 109
122 128 98
143 148 108
147 148 106
133 140 106
163 165 117
140 147 111
155 157 108
148 150 109
144 149 108
158 168 123
147 155 114
154 157 114
156 159 114
162 165 117
145 148 101
144 152 112
150 155 112
158 158 112
123 132 97
139 150 111
163 161 114
165 167 120
157 163 118
176 175 123
163 170 123
155 161 117
167 172 123
162 168 117
169 164 112
174 175 123
165 170 117
175 175 123
174 175 123
176 175 123
167 167 117
156 162 117
175 171 117
182 178 123
183 178 117
169 172 123
172 174 123
175 171 117
178 176 123
164 170 123
153 161 117
161 164 117
171 173 123
173 174 123
158 163 117
173 174 123
163 170 123
158 163 117
181 178 123
176 176 123
175 175 123
174 175 123
171 173 123
159 168 123
169 168 117
162 170 123
162 165 117
159 163 117
167 167 117
164 166 117
169 168 117
176 171 117
161 154 104
157 162 117
159 164 117
171 173 123
145 147 104
165 166 117
171 173 123
173 170 117
175 175 123
162 164 111
170 168 117
180 177 123
160 164 117
160 163 111
157 161 111
147 148 104
167 171 123
165 166 117
174 175 123
163 163 104
165 161 111
150 149 104
178 172 117
157 158 111
173 169 111
148 148 97
182 203 0
180 202 0
175 200 0
177 201 0
180 202 0
182 203 0
176 196 0
181 203 0
181 203 0
182 203 0
178 201 0
181 203 0
178 201 0
183 204 0
167 187 0
180 202 0
166 190 0
176 200 0
182 203 0
181 203 0
180 202 0
177 201 0
185 205 0
184 204 0
182 203 0
179 202 0
181 203 0
184 204 0
178 201 0
184 204 0
179 202 0
182 203 0
179 201 0
178 201 0
180 202 0
177 201 0
182 203 0
180 202 0
179 202 0
178 201 0
177 201 0
183 204 0
178 201 0
177 201 0
178 201 0
179 199 0
175 200 0
177 201 0
178 201 0
175 199 0
183 204 0
182 203 0
180 202 0
181 203 0
179 202 0
172 194 0
181 202 0
183 204 0
176 200 0
183 204 0
177 201 0
183 204 0
178 201 0
180 202 0
178 201 0
176 200 0
174 195 0
177 200 0
177 197 0
184 204 0
186 205 0
179 202 0
175 197 0
179 202 0
182 203 0
182 203 0
180 202 0
181 203 0
182 203 0
185 205 0
180 202 0
182 203 0
184 204 0
180 202 0
186 205 0
181 202 0
179 199 0
180 202 0
179 202 0
177 201 0
178 201 0
182 203 0
181 203 0
180 202 0
181 203 0
185 205 0
167 188 0
181 203 0
181 203 0
177 201 0
183 204 0
179 202 0
178 201 0
139 163 108
71 108 186
71 108 186
68 106 178
69 107 186
71 108 186
69 107 178
70 107 178
72 108 178
71 108 186
72 109 186
71 108 186
71 109 186
69 107 186
71 108 186
71 108 186
72 109 186
71 108 186
70 108 186
70 108 186
71 108 186
70 107 178
69 107 186
70 107 186
71 108 186
69 107 186
70 107 186
71 108 186
69 107 186
72 109 186
70 108 186
70 108 186
71 109 186
69 107 186
70 108 186
71 108 186
71 109 186
70 108 186
69 107 186
69 107 186
69 107 186
69 107 186
70 108 186
69 107 186
70 107 186
70 108 186
70 107 186
70 108 186
69 107 186
69 107 186
72 109 186
69 107 186
70 108 186
69 107 186
71 108 186
69 107 186
70 107 186
70 108 186
69 107 186
70 108 186
70 108 186
71 108 186
69 107 186
71 108 186
70 108 186
69 107 186
70 108 186
70 108 186
69 107 186
69 107 186
69 107 186
71 108 186
71 108 186
70 107 186
69 107 186
71 108 186
70 108 186
69 107 186
70 108 186
70 108 186
71 108 186
70 107 186
70 107 186
71 108 186
69 107 186
69 107 186
70 108 186
70 107 186
69 107 186
71 108 186
70 107 186
71 109 186
70 108 186
69 107 186
71 108 186
70 107 186
70 108 186
70 107 186
71 108 186
72 109 186
69 107 186
71 109 186
70 108 186
71 108 186
72 109 186
70 108 186
70 108 186
69 107 186
70 108 186
71 108 186
71 107 179
69 107 186
69 107 186
70 107 178
72 109 186
72 109 186
68 106 186
70 108 186
69 106 179
69 107 186
71 108 186
71 108 186
71 109 186
70 108 186
70 108 186
73 110 186
70 108 186
69 107 186
69 104 172
67 99 156
129 153 138
181 203 0
175 200 0
165 190 0
170 192 0
182 203 0
184 204 0
180 202 0
181 203 0
170 192 0
169 190 0
144 138 71
145 139 81
105 101 59
133 129 81
120 116 71
144 138 81
186 177 120
143 141 59
148 144 93
107 107 43
145 141 89
103 104 31
144 143 99
149 146 101
135 131 89
83 86 59
155 154 111
143 141 99
128 122 82
124 128 89
117 118 85
125 125 87
106 109 76
135 133 87
115 124 97
135 135 97
116 119 86
118 121 90
144 142 94
127 127 85
126 131 97
136 134 95
114 121 90
136 138 99
118 124 92
91 100 79
91 94 77
150 156 114
115 119 86
118 120 88
146 145 104
138 141 103
156 153 107
138 138 97
129 130 89
105 110 85
141 143 104
128 135 99
151 152 111
114 119 89
128 131 96
125 130 98
155 155 111
125 134 101
137 145 108
167 168 114
137 143 108
116 125 101
135 142 109
132 137 100
137 139 95
114 122 97
152 155 111
142 146 106
91 94 70
155 159 115
173 170 118
107 117 90
117 126 97
153 153 109
145 154 114
153 158 115
141 149 111
139 142 102
114 122 97
138 136 99
162 160 111
158 163 117
146 150 109
154 157 114
137 142 103
160 165 120
173 173 117
171 170 120
162 166 120
160 160 114
146 153 112
163 165 117
163 170 123
133 143 106
154 158 115
173 173 117
180 178 123
170 169 118
172 169 117
169 172 123
174 174 123
172 172 111
173 174 123
167 172 123
179 177 123
168 172 123
177 174 111
172 174 123
165 171 123
162 165 117
168 167 117
166 171 123
182 178 123
173 174 123
167 171 123
172 174 123
178 177 123
164 166 117
179 177 123
180 173 117
170 173 123
163 165 117
175 175 123
164 170 123
156 162 117
171 173 123
167 167 117
167 167 117
164 166 117
163 165 117
165 166 117
176 176 123
191 182 123
176 175 123
171 173 123
166 167 117
159 159 111
167 167 117
142 140 97
166 167 117
164 165 117
178 172 117
147 153 111
174 170 117
180 172 111
165 166 117
159 163 117
173 173 117
174 170 117
173 174 123
166 162 111
169 167 111
121 117 71
162 158 104
164 160 104
163 164 111
145 145 97
155 157 111
178 175 111
176 173 104
178 201 0
184 204 0
175 200 0
180 202 0
165 190 0
178 198 0
180 202 0
177 201 0
179 201 0
180 202 0
178 201 0
178 201 0
181 203 0
179 202 0
177 198 0
178 201 0
182 203 0
179 201 0
183 204 0
184 204 0
173 193 0
185 205 0
182 203 0
182 203 0
179 201 0
181 203 0
181 203 0
181 203 0
181 203 0
178 201 0
183 204 0
183 204 0
178 201 0
179 202 0
179 202 0
183 204 0
179 202 0
176 196 0
180 202 0
177 201 0
183 204 0
184 204 0
169 192 0
183 204 0
180 202 0
172 190 0
184 204 0
182 200 0
178 201 0
183 204 0
180 202 0
183 204 0
174 196 0
179 202 0
183 204 0
182 203 0
181 203 0
182 203 0
178 201 0
182 203 0
181 203 0
176 196 0
177 198 0
180 199 0
182 203 0
181 203 0
181 203 0
180 202 0
182 203 0
173 196 0
171 194 0
169 193 0
173 196 0
182 203 0
184 204 0
176 197 0
180 202 0
188 206 0
180 202 0
176 195 0
181 200 0
183 204 0
181 203 0
180 202 0
181 203 0
168 191 0
184 204 0
182 203 0
183 201 0
182 203 0
178 201 0
179 202 0
178 201 0
171 194 0
182 203 0
186 205 0
181 203 0
183 204 0
176 197 0
182 203 0
183 204 0
180 202 0
125 148 148
69 107 186
72 109 186
73 110 186
70 108 186
72 109 186
70 107 178
71 108 178
72 109 178
70 108 186
69 107 186
70 108 186
71 108 186
71 109 186
71 108 186
70 108 186
71 108 186
72 109 186
71 108 186
70 108 186
72 109 186
70 107 186
70 108 186
69 107 186
70 107 178
72 109 186
73 110 186
71 108 186
70 107 186
72 109 186
72 109 186
71 108 186
74 110 186
69 107 186
71 109 186
68 106 186
71 108 186
68 106 186
69 107 186
69 107 178
69 107 186
68 106 186
72 109 186
69 107 186
70 108 186
71 108 186
70 108 186
70 108 186
70 108 186
70 108 186
70 108 186
69 107 186
71 109 186
69 107 186
68 107 186
71 108 186
69 107 186
72 109 186
69 107 186
70 108 186
70 108 186
71 109 186
69 107 186
69 107 186
70 108 186
72 109 186
70 107 186
69 107 186
72 109 186
69 107 186
69 107 186
68 106 186
70 108 186
69 107 186
71 109 186
70 108 186
70 108 186
68 106 186
71 108 186
70 107 186
70 108 186
69 107 186
71 108 186
68 106 186
70 108 186
68 106 186
72 109 186
70 107 186
69 107 186
69 107 186
71 108 186
69 106 179
70 108 186
71 108 186
70 108 186
72 109 186
71 108 186
71 108 186
71 108 186
70 108 186
70 108 186
70 108 186
69 107 186
69 107 186
69 107 186
68 105 178
70 108 186
70 108 186
72 109 178
70 105 172
69 107 186
72 109 186
71 108 186
68 107 186
70 108 186
69 107 186
74 111 186
69 105 179
72 109 186
71 108 186
70 108 186
70 108 186
70 108 186
70 108 186
70 108 186
71 108 178
69 106 178
70 107 186
70 108 186
69 104 172
70 105 172
70 108 186
124 151 138
173 195 31
170 193 0
182 203 0
182 203 0
171 192 0
175 199 0
188 206 0
179 201 0
166 182 43
99 95 43
116 111 59
146 138 71
154 146 97
145 139 81
136 134 71
153 146 71
148 144 99
143 136 85
149 143 97
154 150 106
141 138 76
101 103 66
159 155 108
154 153 101
119 118 59
152 150 93
130 130 76
117 120 79
133 131 87
114 115 66
151 146 97
147 144 100
167 162 112
118 119 90
108 109 78
140 145 108
81 88 78
89 92 70
105 109 83
131 133 97
162 162 114
140 141 101
141 140 99
155 157 112
118 122 92
87 100 89
119 127 101
84 93 76
120 125 97
142 142 101
123 122 83
123 132 103
111 115 86
116 124 99
104 108 83
136 137 99
116 117 87
130 137 101
120 122 91
141 141 101
114 123 97
146 151 111
136 141 103
138 143 105
136 141 106
147 150 108
147 148 104
129 136 100
152 148 106
110 112 82
138 142 104
151 153 111
119 128 99
142 148 108
154 157 108
147 151 111
121 127 98
156 159 114
152 153 112
127 134 99
133 137 99
142 147 108
172 170 120
157 159 115
154 155 106
155 158 115
152 156 109
157 164 120
173 171 120
148 150 109
163 161 114
162 160 112
161 160 111
148 155 114
169 169 120
156 162 117
167 171 123
166 167 117
165 166 117
163 165 117
165 166 117
164 166 117
171 173 123
179 177 123
175 175 123
174 171 118
174 174 117
164 170 123
163 170 123
166 171 123
160 167 117
172 169 117
180 177 123
155 161 111
161 169 123
176 175 123
161 169 123
173 174 123
181 178 123
180 177 123
182 178 123
168 172 123
157 158 111
167 172 123
169 172 123
155 157 111
180 177 123
161 164 117
162 169 123
153 156 111
176 175 123
168 162 111
167 172 123
175 175 123
158 158 111
147 153 111
175 175 123
168 172 123
141 145 104
153 150 97
149 154 111
169 172 123
177 176 123
173 174 123
153 151 104
173 174 123
163 165 117
175 171 117
177 171 117
155 161 111
170 168 117
171 169 117
155 156 104
175 175 123
179 175 111
147 145 89
177 171 117
164 166 117
153 150 97
164 161 111
169 168 117
130 133 81
152 154 104
165 165 111
167 166 111
179 202 0
178 201 0
181 203 0
185 205 0
180 202 0
180 202 0
178 201 0
184 204 0
184 204 0
180 202 0
179 202 0
183 204 0
183 204 0
183 204 0
184 204 0
178 201 0
174 195 0
173 195 0
180 202 0
178 201 0
181 203 0
181 203 0
181 203 0
180 199 0
183 204 0
180 202 0
167 192 0
184 204 0
176 200 0
172 193 0
179 202 0
182 203 0
180 202 0
184 204 0
182 203 0
178 201 0
176 197 0
179 202 0
176 200 0
181 203 0
180 202 0
173 195 0
183 204 0
173 195 0
183 204 0
180 202 0
180 202 0
175 199 0
182 203 0
179 202 0
168 191 0
173 198 0
184 204 0
183 204 0
179 202 0
183 204 0
187 206 0
179 202 0
182 203 0
180 202 0
182 203 0
185 205 0
185 205 0
177 201 0
179 202 0
183 204 0
173 194 0
186 205 0
181 203 0
173 195 0
180 202 0
183 204 0
181 203 0
179 201 0
179 202 0
180 202 0
181 203 0
176 197 0
187 206 0
175 197 0
179 202 0
179 202 0
184 204 0
177 200 0
181 202 0
182 203 0
177 200 0
181 203 0
180 202 0
179 198 0
183 204 0
181 202 0
168 191 0
179 202 0
178 201 0
180 202 0
181 203 0
179 201 0
178 201 0
180 202 0
166 189 89
71 108 186
71 109 186
69 105 158
71 108 186
69 106 178
72 109 186
70 107 178
70 108 186
72 109 186
70 108 186
67 105 178
72 109 186
70 107 186
69 107 186
72 109 186
72 109 178
68 107 186
70 107 178
70 107 186
69 107 186
70 108 186
69 107 186
70 107 186
70 108 186
70 108 186
68 107 186
70 108 186
70 108 186
70 108 186
71 108 186
71 109 186
70 108 186
70 108 186
73 110 186
70 108 186
70 107 186
69 107 186
69 107 186
70 108 186
71 108 186
70 108 186
71 108 186
70 108 186
71 108 186
69 107 186
71 109 186
72 109 186
69 107 186
70 107 186
73 110 186
69 107 186
71 108 186
70 107 186
71 108 186
72 109 186
70 108 186
71 108 186
71 108 186
66 102 178
69 107 186
69 107 186
70 108 186
70 108 186
70 108 186
71 108 186
72 109 186
69 107 186
68 106 186
71 108 186
68 107 186
72 109 186
70 108 186
71 109 186
70 107 186
70 108 186
73 110 186
70 108 186
71 109 186
70 108 186
70 108 186
73 110 186
70 108 186
69 107 186
70 108 186
70 108 186
69 107 186
67 106 186
71 109 186
69 107 186
70 107 186
71 107 179
69 107 186
69 107 186
70 108 186
71 109 186
71 108 186
72 109 186
72 109 186
69 107 186
70 108 186
68 106 186
70 107 178
71 108 178
69 107 186
69 107 186
70 108 186
66 102 178
69 107 186
72 109 186
69 107 186
70 107 168
71 108 186
69 107 186
70 108 186
71 108 186
71 108 186
69 107 178
70 108 186
70 107 179
70 108 186
69 107 178
71 108 186
71 108 178
66 102 178
67 102 172
72 109 186
71 107 179
70 106 179
71 108 186
70 106 178
69 107 186
66 99 162
65 100 164
70 106 179
102 131 160
149 167 108
175 197 0
178 201 0
184 201 0
171 193 0
184 204 0
178 201 0
147 159 43
121 119 59
131 126 71
125 123 59
142 137 71
151 146 81
142 138 81
115 111 78
131 127 59
167 161 104
144 141 86
139 136 93
97 96 69
104 103 62
144 140 90
112 113 82
142 138 97
107 107 72
117 117 73
136 133 93
151 148 106
102 104 73
139 135 89
71 79 69
147 145 98
140 139 85
144 147 104
126 129 97
125 127 81
123 120 81
100 97 68
117 121 90
128 127 93
147 144 100
133 135 100
126 131 99
120 127 94
99 106 82
70 83 77
152 154 111
135 135 98
116 122 95
153 154 111
138 142 106
135 139 101
141 142 103
111 113 89
140 141 101
129 134 103
130 131 92
112 123 95
104 111 85
126 129 96
137 139 101
116 124 95
153 154 112
129 131 95
124 133 104
142 146 106
175 172 120
136 140 103
143 148 108
154 159 117
130 138 104
154 157 112
142 142 101
145 149 104
150 153 112
152 157 114
115 125 97
131 136 99
161 166 120
126 136 95
145 145 106
142 149 111
149 150 104
151 160 117
148 156 117
174 174 123
158 159 114
180 177 123
173 169 112
167 167 118
142 150 111
165 167 120
176 171 118
156 157 111
160 161 114
172 174 123
170 168 117
154 153 108
179 177 123
177 176 123
172 174 123
179 177 123
177 172 117
171 173 123
182 178 123
168 167 117
172 174 123
181 177 117
178 176 123
169 173 123
178 176 123
163 169 117
176 171 117
173 170 117
177 176 123
168 167 117
183 179 123
167 172 123
186 180 123
169 172 123
168 168 117
182 178 123
168 172 123
155 157 111
167 167 117
169 173 123
170 173 123
148 159 117
166 167 117
164 161 111
146 158 117
173 174 123
174 170 117
167 167 117
171 169 117
153 156 111
158 163 117
167 172 123
169 168 117
176 171 117
180 177 123
153 156 111
163 165 117
182 178 123
178 176 123
167 162 111
178 176 117
161 164 111
140 139 97
178 177 123
171 168 111
156 156 104
162 159 104
161 157 97
155 157 111
150 153 97
170 167 111
145 146 97
172 172 111
163 158 97
175 173 111
164 165 111
157 152 97
173 170 117
172 193 0
183 201 0
182 203 0
181 203 0
178 201 0
176 200 0
180 202 0
178 201 0
183 204 0
179 202 0
180 202 0
180 202 0
171 194 0
177 201 0
177 201 0
180 202 0
185 205 0
184 204 0
179 201 0
178 201 0
185 205 0
171 193 0
179 198 0
183 204 0
179 202 0
171 194 0
185 205 0
179 201 0
186 205 0
179 202 0
182 203 0
179 202 0
174 194 0
169 192 0
181 203 0
184 204 0
186 205 0
179 201 0
179 201 0
182 200 0
181 203 0
169 193 0
181 203 0
169 193 0
184 204 0
182 203 0
179 202 0
178 201 0
179 202 0
172 191 0
180 202 0
183 204 0
175 196 0
175 196 0
180 202 0
181 202 0
175 195 0
180 202 0
170 192 0
181 203 0
170 193 0
177 201 0
178 201 0
183 204 0
175 200 0
182 203 0
180 199 0
179 202 0
176 200 0
184 201 0
185 205 0
181 203 0
183 204 0
180 202 0
171 194 0
180 202 0
181 203 0
181 203 0
185 205 0
162 184 0
176 200 0
166 191 0
180 202 0
170 190 0
182 203 0
172 193 0
182 203 0
169 192 0
180 202 0
180 202 0
180 202 0
173 195 0
179 202 0
177 201 0
178 201 0
174 195 0
180 202 0
183 204 0
173 195 0
159 181 108
71 108 186
72 109 186
71 109 186
71 109 186
70 108 186
72 109 186
69 107 186
69 107 178
71 108 178
71 108 186
73 110 186
72 109 186
73 110 186
70 108 186
72 109 186
68 106 186
69 107 186
69 107 186
72 109 186
71 108 186
72 109 186
69 107 186
71 108 186
70 108 186
69 106 178
70 108 186
72 109 186
70 108 186
69 107 186
67 106 186
69 107 186
69 107 186
71 108 186
69 107 186
71 108 186
69 106 178
70 108 186
70 108 186
70 108 186
71 108 186
70 108 186
68 107 186
70 108 186
70 108 186
69 107 186
70 107 186
71 108 186
68 107 186
72 109 186
70 108 186
70 108 186
69 107 186
70 107 186
70 108 186
70 107 186
69 107 186
69 107 186
71 108 186
70 108 186
68 106 186
69 107 186
69 107 186
70 108 186
72 109 186
72 109 186
71 108 186
71 108 186
69 107 186
71 109 186
71 108 186
71 108 186
72 109 186
70 108 186
70 108 186
69 107 186
69 107 186
70 108 186
69 107 186
70 108 186
70 108 186
69 107 186
70 107 186
71 109 186
69 107 186
68 106 186
71 108 186
70 108 186
71 108 178
72 109 186
72 109 186
70 108 186
70 107 186
69 107 186
70 108 186
72 109 186
71 108 186
69 107 178
68 107 186
70 108 186
69 107 186
70 107 186
72 109 186
72 109 186
70 108 186
70 108 186
71 108 186
70 107 178
72 109 186
71 108 186
72 109 186
71 108 186
69 107 186
72 109 186
70 108 186
70 107 186
70 106 179
70 108 186
72 109 186
68 106 178
67 103 178
70 106 179
71 108 186
70 106 179
72 109 186
73 110 186
69 106 168
69 107 186
72 109 186
70 107 186
66 100 170
70 108 186
69 105 179
70 108 186
69 105 170
68 106 178
67 102 171
65 100 170
141 163 111
181 203 0
184 204 0
176 196 0
179 198 0
178 201 0
143 141 59
102 102 0
166 159 89
116 113 59
172 167 104
123 117 71
149 143 89
120 118 71
129 127 76
109 107 65
137 136 71
141 141 91
153 149 81
141 140 90
143 137 94
146 149 103
129 126 71
133 134 89
114 115 60
121 117 71
130 131 89
133 134 95
147 145 97
111 113 79
120 120 85
147 141 100
165 165 112
140 143 104
99 102 82
100 99 76
130 132 99
100 106 83
130 128 91
123 126 97
157 155 109
107 110 82
129 134 100
92 99 83
126 129 94
118 123 95
107 113 90
118 125 93
130 133 101
153 154 111
141 144 108
130 132 95
130 133 98
128 131 103
148 152 111
116 122 95
123 127 99
134 135 99
132 133 99
139 144 108
150 151 108
148 146 103
118 122 95
140 145 108
147 147 108
104 109 85
141 148 108
101 116 93
129 132 96
133 141 108
137 136 99
103 108 83
138 143 108
133 134 99
156 159 115
151 148 104
156 157 114
170 168 117
168 172 123
128 134 103
168 169 120
161 166 120
160 165 117
142 146 106
167 165 117
165 166 117
155 157 112
168 169 120
144 149 109
167 167 117
150 155 109
181 178 123
158 163 117
164 167 120
154 159 117
130 139 105
166 163 115
154 158 114
146 158 118
170 173 123
171 169 117
147 154 112
172 174 123
170 169 117
158 163 118
173 174 123
167 171 123
160 164 117
168 172 123
169 172 123
179 177 123
174 174 123
168 168 117
163 165 117
166 171 123
160 159 111
171 173 123
170 173 123
162 165 117
167 171 123
159 164 117
184 179 123
175 175 123
152 155 111
180 177 123
173 174 123
173 174 123
171 169 117
173 170 117
153 156 111
150 149 104
141 151 111
161 164 117
156 157 111
171 169 117
174 174 123
178 172 117
159 168 123
181 178 123
176 175 123
168 172 123
174 170 117
158 158 111
145 147 104
163 165 117
141 144 97
170 168 117
173 169 111
178 177 123
161 153 97
157 162 111
152 149 97
165 160 104
176 174 117
156 154 97
176 171 117
177 175 117
172 165 111
154 156 111
126 126 81
161 159 111
178 176 123
174 172 104
181 203 0
182 203 0
182 203 0
180 202 0
180 202 0
181 202 0
178 201 0
177 201 0
176 200 0
182 203 0
182 203 0
179 202 0
178 201 0
160 184 0
185 205 0
182 203 0
177 198 0
181 203 0
174 196 0
181 203 0
178 201 0
174 196 0
182 203 0
178 201 0
170 193 0
179 201 0
184 204 0
180 202 0
183 204 0
172 194 0
180 202 0
178 201 0
179 202 0
169 191 0
177 201 0
177 200 0
182 200 0
180 202 0
179 202 0
178 201 0
174 194 0
178 196 0
161 183 0
179 201 0
185 205 0
182 203 0
177 201 0
178 201 0
175 199 0
183 204 0
174 194 0
172 193 0
179 202 0
175 196 0
181 203 0
179 202 0
183 204 0
170 192 0
179 202 0
179 202 0
174 199 0
184 204 0
170 193 0
182 203 0
170 192 0
183 204 0
173 195 0
172 194 0
183 204 0
181 203 0
170 190 0
180 202 0
175 194 0
179 201 0
172 191 0
180 202 0
177 201 0
178 198 0
184 204 0
174 196 0
183 204 0
181 203 0
178 201 0
180 202 0
171 189 0
174 196 0
183 204 0
178 195 0
172 194 0
180 202 0
179 202 0
182 203 0
183 204 0
180 202 0
178 201 0
185 205 0
185 205 0
174 195 0
129 155 148
69 107 186
73 110 186
70 107 178
72 109 186
71 109 186
71 109 186
71 108 178
71 108 186
71 109 186
69 107 186
72 109 186
71 108 178
71 108 186
70 108 186
70 107 178
71 108 186
71 108 186
70 108 186
72 109 186
70 107 186
71 108 186
71 108 186
70 107 178
69 107 186
69 107 178
71 108 186
69 107 178
69 107 186
70 108 186
69 107 186
70 108 186
70 108 186
70 108 186
68 106 186
70 107 186
69 107 186
70 107 186
71 108 186
69 107 186
71 109 186
70 108 186
72 109 186
70 107 186
70 108 186
70 108 186
70 107 186
72 109 186
69 107 186
69 107 186
70 108 186
71 108 186
69 107 186
72 109 186
71 108 186
70 108 186
70 108 186
69 107 186
71 108 186
69 107 186
70 108 186
68 106 186
69 107 186
71 108 186
72 109 186
68 107 186
71 108 186
69 107 186
71 108 186
70 107 186
69 107 186
70 108 186
71 108 186
72 109 186
71 108 186
69 107 186
70 107 186
69 107 186
70 108 186
70 107 186
71 108 186
71 108 186
69 107 186
70 108 186
70 108 186
72 109 186
71 108 186
71 108 186
71 109 186
71 108 186
70 108 186
69 107 186
70 108 186
72 109 186
69 107 186
70 108 186
70 108 186
70 108 186
71 108 186
69 107 186
70 108 186
70 107 186
70 108 186
71 108 186
69 107 186
70 108 186
71 108 186
71 109 186
69 107 186
68 106 178
71 109 186
71 109 186
71 108 186
71 109 186
71 109 186
70 107 178
69 107 186
70 108 186
70 108 186
70 106 179
71 108 186
70 108 186
71 109 186
71 109 186
71 108 186
70 108 186
70 108 186
70 107 178
69 105 179
71 108 186
71 108 178
71 108 186
67 103 178
69 105 178
74 110 186
72 109 186
71 106 170
63 97 168
71 108 186
69 106 178
142 165 136
176 194 0
179 199 0
171 193 0
183 204 0
80 74 43
127 121 59
140 135 59
95 93 0
139 135 71
148 141 81
118 116 65
150 145 94
120 121 71
156 151 97
130 129 78
159 155 108
122 124 93
140 137 81
130 129 79
118 119 86
131 130 87
141 138 99
131 131 92
147 149 101
122 121 87
103 105 71
147 149 105
156 153 108
113 115 76
103 109 77
136 134 94
127 126 91
97 101 68
140 140 101
124 129 90
125 127 96
120 118 76
150 151 104
124 126 87
84 91 78
92 98 83
145 147 109
91 97 78
106 114 94
119 119 86
149 150 105
127 128 99
128 132 98
107 114 91
111 120 93
83 90 79
143 144 106
135 139 101
109 118 97
108 117 90
141 144 105
118 124 97
118 128 97
143 144 104
133 138 101
129 130 97
150 151 108
132 141 108
153 155 114
163 165 117
147 146 106
123 131 103
140 144 107
122 127 93
110 115 93
156 151 108
143 143 103
130 131 89
142 145 108
129 137 106
117 123 91
147 152 114
129 126 88
103 103 71
128 133 101
147 149 108
151 152 109
144 149 109
138 140 106
151 153 112
159 159 112
145 149 104
154 158 115
157 159 114
164 166 117
146 153 111
165 161 111
134 146 112
140 147 109
162 160 112
166 167 117
153 156 112
158 159 114
140 151 114
177 176 123
159 162 104
174 175 123
166 167 118
180 177 123
162 169 123
176 176 123
180 177 123
171 173 123
164 161 111
182 178 123
165 166 117
174 175 123
167 171 117
168 172 123
172 174 123
163 165 117
176 171 117
158 168 123
171 173 123
162 165 117
163 170 123
172 174 123
168 172 123
186 180 123
160 164 117
166 166 117
169 168 117
154 156 111
160 159 111
161 164 117
161 169 123
163 160 111
161 159 111
144 147 104
180 177 123
173 173 117
165 166 117
180 177 123
171 168 111
165 161 111
163 169 117
156 162 117
172 169 117
187 181 123
175 170 111
161 160 111
172 169 117
151 150 104
167 171 117
146 147 104
147 153 111
180 176 117
167 162 111
143 145 97
170 168 111
150 154 104
165 160 104
170 162 104
159 156 97
160 163 111
155 156 104
181 203 0
171 193 0
181 203 0
182 203 0
179 202 0
185 205 0
182 203 0
177 201 0
180 202 0
180 202 0
176 200 0
177 201 0
181 203 0
176 200 0
180 202 0
179 202 0
182 203 0
181 203 0
182 203 0
176 197 0
180 202 0
178 201 0
169 192 0
181 202 0
179 202 0
160 185 0
183 204 0
178 201 0
178 201 0
175 199 0
177 201 0
174 195 0
184 204 0
176 200 0
183 204 0
167 191 0
184 204 0
177 201 0
182 203 0
181 202 0
182 203 0
184 204 0
182 200 0
174 199 0
186 205 0
171 192 0
178 201 0
184 204 0
181 203 0
180 202 0
178 201 0
181 203 0
184 204 0
179 202 0
164 186 0
181 203 0
180 202 0
179 202 0
181 202 0
183 204 0
182 203 0
178 201 0
183 204 0
180 202 0
177 201 0
180 202 0
179 202 0
185 205 0
182 203 0
179 201 0
181 203 0
183 204 0
182 203 0
185 205 0
181 203 0
171 194 0
184 205 0
181 203 0
177 201 0
182 201 0
182 203 0
177 196 0
174 192 0
184 204 0
179 202 0
181 203 0
184 204 0
182 203 0
180 202 0
180 202 0
182 203 0
167 192 0
182 203 0
173 194 0
179 202 0
183 204 0
185 205 0
89 121 168
70 107 178
70 108 186
71 108 186
69 106 168
72 109 186
70 107 186
71 108 186
69 107 178
69 107 186
73 110 186
69 107 186
71 109 186
70 108 186
71 109 186
70 107 186
69 107 186
73 110 186
71 108 186
73 110 186
70 108 186
71 109 186
71 109 186
70 108 186
72 109 186
70 107 186
71 108 186
68 106 186
70 108 186
69 107 186
72 109 186
70 108 186
71 108 186
72 109 186
70 107 186
70 108 186
70 108 186
71 108 186
71 108 186
68 107 186
71 108 186
70 108 186
69 107 186
69 107 186
69 107 186
70 107 186
69 107 186
71 108 186
70 108 186
70 107 186
69 107 186
69 107 186
72 109 186
69 107 186
71 108 186
70 108 186
69 107 186
69 107 186
70 108 186
69 107 186
69 107 186
70 108 186
69 107 186
68 106 186
70 108 186
69 107 186
69 107 186
72 109 186
70 108 186
70 108 186
69 107 186
69 107 186
71 108 186
72 109 186
73 110 186
70 108 186
69 107 186
71 108 186
70 108 186
71 108 186
69 107 186
69 107 186
71 108 186
71 108 186
69 107 186
71 108 186
71 109 186
71 109 186
71 108 186
71 108 186
70 108 186
70 108 186
68 106 178
69 107 186
71 108 186
70 107 186
69 107 186
72 109 186
70 108 186
70 108 186
71 108 186
68 106 186
71 108 186
70 107 186
71 108 186
69 107 186
69 107 186
68 106 186
70 107 186
67 102 178
69 107 186
71 109 186
70 108 186
71 108 186
70 107 186
72 109 186
70 108 186
70 108 186
74 110 186
67 104 179
68 106 186
69 107 186
70 108 186
70 107 186
71 108 186
68 103 178
70 108 186
71 109 186
72 109 186
68 104 178
69 107 186
72 109 186
73 110 186
71 108 186
71 108 186
67 101 170
73 110 186
70 106 179
69 105 178
68 103 168
70 107 186
65 101 168
116 142 150
173 195 65
181 202 0
168 180 59
102 98 43
153 150 59
148 141 81
142 139 81
116 113 43
144 139 81
130 128 76
108 105 71
110 105 59
168 161 97
130 129 77
105 104 57
96 96 68
151 149 99
148 145 103
114 112 78
126 124 83
128 127 83
147 142 92
136 140 89
105 111 81
132 133 99
136 139 99
107 110 81
102 104 72
156 152 93
87 96 79
127 130 101
134 136 103
99 102 75
132 133 97
104 107 83
144 144 104
138 139 97
71 83 77
119 122 89
157 156 112
131 133 97
131 134 98
142 141 99
86 96 79
103 107 78
117 122 92
126 131 98
86 99 85
99 110 89
103 114 95
158 149 101
129 134 101
134 137 99
91 103 84
139 143 106
151 150 106
133 141 109
121 130 98
147 149 104
110 118 90
151 157 115
170 170 120
147 150 111
147 144 97
125 127 90
141 143 106
132 138 103
148 151 111
167 167 117
156 160 114
154 154 111
125 125 93
154 158 115
118 126 99
148 160 120
154 163 120
146 152 104
153 161 117
135 134 99
148 155 115
165 171 123
158 161 114
147 150 111
158 160 115
150 156 115
157 161 117
138 142 106
163 161 112
177 172 118
184 179 123
170 172 117
171 166 115
177 175 117
132 140 108
151 155 111
169 171 117
160 159 111
157 158 112
177 176 123
151 164 117
165 166 118
169 168 118
180 177 123
166 166 112
168 172 123
174 175 123
156 162 117
173 172 111
174 175 123
184 179 123
159 164 117
175 175 123
163 160 111
173 170 117
160 159 111
176 176 123
173 174 123
178 176 123
171 173 123
184 179 123
182 178 123
160 164 117
166 171 123
167 162 111
173 170 117
148 154 111
171 173 123
166 171 123
161 160 111
162 169 123
175 175 123
155 157 111
162 165 117
151 155 111
173 174 123
157 157 104
152 156 111
145 141 97
134 137 97
183 174 117
169 173 123
163 165 117
166 166 117
152 155 111
159 162 111
181 178 123
156 157 111
156 157 111
175 173 111
166 167 117
175 175 123
166 168 97
169 167 111
153 155 104
167 165 104
167 167 117
143 145 97
179 176 117
175 171 117
182 178 117
179 202 0
174 195 0
183 204 0
180 202 0
176 197 0
186 205 0
178 201 0
180 202 0
185 205 0
180 202 0
182 203 0
179 202 0
183 204 0
179 202 0
175 197 0
178 201 0
181 202 0
176 200 0
174 195 0
177 201 0
184 205 0
185 205 0
174 199 0
181 203 0
179 201 0
179 201 0
184 205 0
179 202 0
180 202 0
176 200 0
181 203 0
186 205 0
179 202 0
181 203 0
175 197 0
183 204 0
184 204 0
185 205 0
178 201 0
177 200 0
182 203 0
178 201 0
180 202 0
179 202 0
185 205 0
180 202 0
179 202 0
172 195 0
182 203 0
183 204 0
178 201 0
175 197 0
175 200 0
183 204 0
181 202 0
171 192 0
173 196 0
172 194 0
186 205 0
175 196 0
181 203 0
183 204 0
181 203 0
178 196 0
180 202 0
179 201 0
176 200 0
181 202 0
178 201 0
178 195 0
169 193 0
179 202 0
180 202 0
176 196 0
178 201 0
179 202 0
175 200 0
179 199 0
182 203 0
183 204 0
174 196 0
184 204 0
171 192 0
181 203 0
177 196 0
179 198 0
185 205 0
170 193 0
177 201 0
179 202 0
175 197 0
174 199 0
185 205 0
186 205 0
184 204 0
177 196 0
105 135 168
68 105 168
73 110 186
72 109 178
69 107 186
69 107 186
72 109 186
71 109 186
70 107 168
70 108 186
71 108 186
67 105 178
69 106 178
70 107 186
68 105 168
71 108 186
70 108 186
71 108 186
69 107 186
71 108 186
70 108 186
70 108 186
72 109 186
69 107 186
70 107 186
72 109 186
71 109 186
68 106 186
69 107 186
72 109 186
69 107 186
70 108 186
70 108 186
70 108 186
69 107 186
69 107 186
68 106 178
68 106 186
72 109 186
71 108 186
70 108 186
70 108 186
69 107 186
72 109 186
69 107 186
72 109 186
68 106 186
71 108 186
71 108 186
69 107 186
73 110 186
71 108 186
70 108 186
69 107 186
68 107 186
70 108 186
69 107 186
69 107 186
68 106 186
69 107 186
69 107 186
73 110 186
72 109 186
70 108 186
69 107 186
70 107 186
71 108 186
72 109 186
69 107 186
71 109 186
69 107 186
69 107 186
71 108 186
70 108 186
72 109 186
70 107 186
70 107 186
71 109 186
70 107 186
70 107 186
68 106 186
68 106 186
69 107 186
70 107 186
69 107 186
70 108 186
70 108 186
69 107 186
70 108 186
71 108 186
70 108 186
71 108 186
70 108 186
70 107 186
70 108 186
69 107 186
71 108 186
71 108 186
68 106 178
71 108 186
70 107 186
70 106 179
71 109 186
70 107 186
70 108 186
69 107 186
72 109 186
71 108 186
69 107 186
69 107 186
71 109 186
72 109 186
68 106 186
69 107 178
71 109 186
69 107 186
71 108 186
69 107 186
69 107 186
73 110 186
70 108 186
70 107 186
70 108 186
69 106 178
70 107 186
70 107 178
70 108 186
68 105 179
72 109 186
69 107 186
66 103 170
69 105 170
72 109 186
71 108 186
72 109 186
71 108 186
71 109 186
65 101 168
62 96 158
69 104 172
70 107 186
66 102 178
67 105 168
72 107 179
104 134 168
177 198 0
128 133 43
125 123 59
128 124 59
149 141 81
139 134 59
140 137 72
130 127 71
160 153 97
101 101 59
140 135 89
147 144 71
156 151 97
146 143 95
134 133 83
122 122 81
135 135 73
117 118 85
118 115 60
135 132 93
122 121 78
112 110 77
107 106 73
132 131 85
108 111 77
143 137 93
106 108 72
128 130 95
127 131 98
93 101 85
147 145 104
146 149 101
125 126 96
146 148 97
114 116 89
99 105 79
121 128 103
135 138 101
113 117 90
171 170 120
103 106 81
111 114 93
124 127 99
137 139 98
149 144 99
103 109 86
122 122 86
114 116 89
139 143 106
139 141 105
101 110 88
145 147 106
126 133 103
137 141 101
119 128 101
144 145 108
156 157 114
113 120 99
115 120 91
149 151 109
134 140 97
123 130 98
143 147 108
156 155 109
164 166 118
140 143 105
159 155 104
145 152 114
151 153 111
152 157 114
141 145 108
149 152 111
161 161 114
98 106 82
128 134 97
153 153 108
151 156 109
133 134 97
126 135 106
158 163 114
138 147 111
134 138 101
180 177 123
127 136 103
142 148 111
155 148 101
171 173 123
170 173 123
156 162 117
160 158 112
162 161 114
155 155 112
151 150 108
155 158 114
167 171 123
158 160 115
156 158 112
180 177 123
159 161 117
171 173 123
174 174 117
169 172 123
162 165 117
169 168 117
162 160 111
165 171 123
169 171 111
166 171 123
171 173 123
166 171 123
164 161 111
167 172 123
177 175 117
171 169 117
160 168 123
157 162 117
159 158 111
174 175 123
159 158 111
157 158 111
151 160 117
168 172 123
172 174 123
163 165 117
151 155 111
139 150 111
141 151 111
166 167 117
163 165 117
126 133 97
137 138 97
173 169 117
182 178 123
163 165 117
180 173 117
173 174 123
173 168 104
178 176 123
179 177 123
171 172 111
160 159 111
146 147 104
181 173 117
178 171 111
168 166 111
161 160 111
145 146 97
157 158 111
168 162 104
166 166 111
146 146 97
163 158 97
124 131 89
172 169 117
166 165 104
162 159 104
156 157 111
165 165 111
162 159 104
186 205 0
179 202 0
181 203 0
177 201 0
184 204 0
180 202 0
175 196 0
181 203 0
175 195 0
179 202 0
178 201 0
179 202 0
184 204 0
183 204 0
176 200 0
179 202 0
179 202 0
171 194 0
175 195 0
177 201 0
183 204 0
171 193 0
171 193 0
180 202 0
171 194 0
179 202 0
180 202 0
180 202 0
183 201 0
182 203 0
180 202 0
180 202 0
174 194 0
180 202 0
177 201 0
181 203 0
181 203 0
179 202 0
182 203 0
173 195 0
181 203 0
182 203 0
179 201 0
178 201 0
182 201 0
171 194 0
180 202 0
180 202 0
175 194 0
182 200 0
174 196 0
180 202 0
178 198 0
183 204 0
182 203 0
179 201 0
176 200 0
176 200 0
183 203 0
180 202 0
173 195 0
181 203 0
181 203 0
180 202 0
179 202 0
180 202 0
177 201 0
181 203 0
178 201 0
178 201 0
170 194 0
179 202 0
183 204 0
181 203 0
171 194 0
181 203 0
173 195 0
171 193 0
182 203 0
186 205 0
171 194 0
164 184 0
184 204 0
177 196 0
172 194 0
179 201 0
176 200 0
184 204 0
183 204 0
183 201 0
179 202 0
182 203 0
177 201 0
178 201 0
173 195 65
87 120 168
71 108 178
70 108 186
70 107 178
71 108 178
70 108 186
71 108 178
71 108 186
68 105 158
72 109 178
69 107 186
70 107 168
68 107 186
71 108 186
70 107 178
70 107 186
70 108 186
68 106 186
69 107 186
70 107 178
71 108 186
69 107 186
69 107 186
71 108 178
70 108 186
72 109 186
69 107 186
72 109 186
70 107 186
73 110 186
71 108 186
70 107 178
71 109 186
69 107 186
71 108 186
69 107 186
70 108 186
70 108 186
70 108 186
71 108 186
72 109 186
70 108 186
73 110 186
72 109 186
70 108 186
70 107 186
70 108 186
70 107 186
69 107 186
71 109 186
71 108 186
72 109 186
70 108 186
70 108 186
70 108 186
71 108 186
69 107 186
67 106 186
69 107 186
71 109 186
71 108 186
68 106 186
71 108 186
70 107 186
70 107 186
72 109 186
71 109 186
69 107 178
72 109 186
70 107 186
71 108 186
72 109 186
69 107 186
70 108 186
70 108 186
69 107 186
71 108 186
72 109 186
68 106 178
68 106 186
71 109 186
69 107 186
71 108 186
70 107 186
70 108 186
70 108 186
72 108 178
70 107 186
69 107 186
71 109 186
70 107 186
70 108 186
69 107 186
69 107 186
70 108 186
71 108 186
70 108 186
71 109 186
71 108 186
71 108 186
71 108 186
70 107 186
71 108 186
72 109 186
71 108 186
70 107 186
71 108 186
71 108 186
69 107 186
70 107 186
70 108 186
70 107 178
71 108 186
72 109 186
70 108 186
68 106 186
71 108 186
72 109 186
68 104 178
70 107 178
69 105 179
69 107 186
70 108 186
71 108 186
70 107 178
72 109 186
72 109 186
69 106 178
68 107 186
71 109 186
72 109 186
68 106 186
71 108 186
72 107 179
72 108 178
71 108 186
70 108 186
68 102 150
70 106 179
73 110 186
70 107 178
67 102 158
69 104 160
64 98 169
67 101 170
68 104 178
70 105 178
167 159 108
122 117 43
105 101 59
144 137 71
106 101 59
138 135 59
153 148 81
164 163 93
115 112 43
146 143 93
123 118 65
147 143 93
145 143 101
127 128 71
133 131 82
150 146 81
124 119 72
91 96 72
137 135 91
91 99 81
147 145 97
101 105 73
67 76 66
134 135 98
122 122 89
111 114 86
87 95 74
93 100 82
128 130 89
142 147 111
142 144 104
127 130 93
109 110 83
87 96 77
39 55 56
121 127 98
130 132 94
121 122 91
141 143 103
121 121 86
144 148 107
85 94 67
132 137 103
115 123 97
132 133 99
88 96 79
122 129 99
140 139 103
135 137 103
159 158 111
98 105 80
139 141 101
143 144 104
113 121 93
143 149 108
143 146 108
124 127 97
155 157 104
157 158 112
122 127 98
133 140 103
136 137 103
131 134 101
142 143 103
147 152 112
122 133 105
144 148 108
136 140 103
132 135 104
133 134 97
163 167 120
148 147 107
148 152 111
135 143 104
150 145 101
137 140 103
150 154 114
159 160 111
134 140 103
154 159 117
147 152 112
159 160 115
134 144 104
174 170 117
165 167 120
147 150 104
158 160 115
145 149 109
159 160 115
142 148 108
179 177 123
180 177 123
143 147 106
151 156 114
143 147 106
154 157 112
180 177 123
168 172 123
169 168 117
167 171 123
179 177 123
169 168 117
159 159 112
164 166 117
158 163 117
173 170 117
181 178 123
181 178 123
165 170 117
159 162 111
158 163 117
171 173 123
170 172 117
170 173 123
178 176 123
153 156 111
158 158 111
173 174 123
152 155 111
167 171 123
159 164 117
156 162 117
172 169 117
169 172 123
158 163 117
171 169 117
178 175 111
169 163 111
161 164 117
176 176 123
171 169 117
154 156 111
184 179 123
161 169 123
173 174 123
156 157 111
174 175 123
152 155 104
179 171 111
150 148 97
184 179 123
175 171 117
162 164 111
162 164 111
173 170 117
147 148 104
163 160 111
154 151 104
160 158 104
153 153 89
186 180 123
166 167 117
163 163 104
181 177 117
174 173 111
167 164 97
152 148 89
156 156 104
176 200 0
175 200 0
177 198 0
174 196 0
169 189 0
178 201 0
178 201 0
182 203 0
184 204 0
179 202 0
177 197 0
164 185 0
178 201 0
175 195 0
181 203 0
177 201 0
178 201 0
174 196 0
179 202 0
180 202 0
182 203 0
178 201 0
185 205 0
177 201 0
175 196 0
184 204 0
181 203 0
175 196 0
180 202 0
182 203 0
181 202 0
181 203 0
180 202 0
180 202 0
181 203 0
183 204 0
171 194 0
170 194 0
184 204 0
180 202 0
183 204 0
179 202 0
180 202 0
183 204 0
183 204 0
178 201 0
181 203 0
172 193 0
169 188 0
181 202 0
185 205 0
185 205 0
180 199 0
181 203 0
161 183 0
177 200 0
178 201 0
182 203 0
181 203 0
180 202 0
168 187 0
183 204 0
175 196 0
180 202 0
182 203 0
167 188 0
183 204 0
179 202 0
182 203 0
180 202 0
163 183 0
182 203 0
182 203 0
178 201 0
171 190 0
183 204 0
178 201 0
170 192 0
178 201 0
176 200 0
180 202 0
173 195 0
183 204 0
166 188 0
178 201 0
181 203 0
178 201 0
184 204 0
169 193 0
183 201 0
179 202 0
176 200 0
168 192 0
166 188 65
92 122 178
67 106 186
69 106 178
73 110 186
72 108 168
68 105 168
70 107 186
74 111 186
72 109 186
68 106 178
69 107 178
69 107 186
70 107 178
69 107 178
72 109 186
69 107 186
69 106 178
71 109 186
70 108 186
71 109 186
72 109 186
71 109 186
71 108 186
70 108 186
71 109 186
70 108 186
71 108 186
71 109 186
67 106 186
70 108 186
70 108 186
68 106 178
71 108 186
70 108 186
70 108 186
69 107 186
72 109 186
70 108 186
69 107 186
69 107 186
72 109 186
72 109 186
69 107 186
70 108 186
69 107 186
70 108 186
69 107 186
69 107 186
69 107 186
71 109 186
71 108 186
71 108 186
70 108 186
70 108 186
69 107 186
70 108 186
69 107 186
71 108 186
70 108 186
70 108 186
70 107 186
72 109 186
70 108 186
69 107 186
69 107 186
71 108 186
71 108 186
69 107 186
70 108 186
70 108 186
71 108 186
72 109 186
70 108 186
69 107 186
70 107 178
70 108 186
72 109 186
74 110 186
69 107 186
70 108 186
70 108 186
72 109 186
70 108 186
70 108 186
70 108 186
70 108 186
70 107 186
70 108 186
71 108 186
70 108 186
70 108 186
71 108 186
68 106 178
71 108 186
70 108 186
70 108 186
68 106 186
71 109 186
71 108 186
70 108 186
69 107 186
70 108 186
71 109 186
71 109 186
69 107 186
68 105 178
69 106 178
71 109 186
69 107 186
71 108 186
70 108 186
69 107 186
67 106 186
70 108 186
69 106 179
70 108 186
71 108 186
70 108 186
70 108 186
67 104 179
71 108 186
72 109 186
71 108 186
70 106 178
74 111 186
68 106 186
72 109 178
65 100 170
70 106 179
70 107 178
70 108 186
68 106 178
68 105 179
69 106 178
70 108 186
70 107 168
69 106 168
67 103 178
69 107 186
72 109 186
73 109 178
70 108 186
70 108 186
71 108 186
72 109 186
69 103 170
72 109 186
70 106 179
82 106 152
151 149 93
106 104 59
151 146 71
127 125 71
124 122 43
115 112 59
146 143 98
157 152 89
127 127 71
158 152 90
106 106 68
112 112 76
175 169 106
99 98 60
99 102 78
111 110 82
74 73 59
102 105 73
144 141 97
122 123 88
97 99 81
98 103 84
108 107 78
151 149 95
133 134 99
118 120 74
133 132 93
63 68 53
124 125 94
129 134 94
113 117 92
144 148 103
113 110 77
125 127 92
122 132 101
123 121 85
102 107 85
88 99 82
134 136 100
150 147 105
79 87 78
161 161 114
69 81 76
98 104 83
93 100 83
127 130 96
102 109 82
119 128 99
140 143 105
127 126 93
138 138 101
139 144 108
128 133 103
131 132 97
111 116 91
129 129 93
139 138 101
96 106 86
156 158 112
152 159 117
118 120 91
158 155 108
106 119 95
120 122 91
140 148 109
153 156 109
133 137 103
159 156 111
146 148 104
136 146 111
138 142 105
153 153 104
125 131 101
105 114 91
129 131 99
151 153 111
148 149 107
155 157 114
163 163 117
150 149 99
149 146 101
117 121 93
171 170 120
137 144 104
186 180 123
176 175 123
153 154 111
152 157 114
143 148 111
147 151 111
160 162 117
164 165 117
164 167 120
158 164 120
149 157 117
167 168 120
162 160 112
168 168 118
172 170 120
175 174 117
167 167 117
162 169 123
184 179 123
162 170 123
178 177 123
182 177 117
182 178 123
155 157 111
162 165 117
168 172 123
181 178 123
170 173 123
185 179 123
161 168 117
174 170 117
170 168 117
174 173 111
175 175 123
157 158 111
175 175 123
176 175 123
180 177 123
163 160 111
183 179 123
167 167 117
182 178 123
161 159 104
157 163 117
163 161 111
149 147 89
167 167 117
176 170 111
157 152 97
152 154 104
172 174 123
176 175 123
166 170 117
160 164 117
161 159 111
156 157 111
154 155 104
170 166 104
167 167 117
161 158 104
172 173 117
171 172 117
162 159 104
167 171 117
177 172 117
170 166 104
179 176 117
176 171 117
173 169 111
135 133 71
163 164 111
170 163 104
156 152 104
183 204 0
182 203 0
180 199 0
179 201 0
172 194 0
182 203 0
179 202 0
179 202 0
182 203 0
185 205 0
184 204 0
178 201 0
178 201 0
182 203 0
180 199 0
175 200 0
181 203 0
182 203 0
181 203 0
176 200 0
182 203 0
185 205 0
180 202 0
178 201 0
180 202 0
177 201 0
173 195 0
181 203 0
177 201 0
173 193 0
175 200 0
178 201 0
174 196 0
172 194 0
180 202 0
177 201 0
184 204 0
176 197 0
176 200 0
179 202 0
179 202 0
183 204 0
178 201 0
183 204 0
183 204 0
177 201 0
180 202 0
183 204 0
177 201 0
183 204 0
178 201 0
181 203 0
182 203 0
169 186 0
177 197 0
180 202 0
173 195 0
175 196 0
179 202 0
176 200 0
173 193 0
179 201 0
178 201 0
179 201 0
182 203 0
179 201 0
176 197 0
179 202 0
172 195 0
178 201 0
173 195 0
187 206 0
171 193 0
172 194 0
180 202 0
180 202 0
173 195 0
180 202 0
172 193 0
165 185 0
182 203 0
164 186 0
183 204 0
174 192 0
183 204 0
183 204 0
159 177 0
177 200 0
179 201 0
184 204 0
176 196 0
177 197 0
174 194 0
89 121 178
71 108 186
72 109 186
70 108 186
69 107 178
71 107 168
71 108 186
69 106 178
70 107 178
72 109 186
73 110 186
70 107 178
70 108 186
69 107 186
72 109 186
72 109 186
71 108 178
72 109 186
69 106 168
70 108 186
70 107 178
72 109 186
71 108 186
70 107 186
69 107 186
70 108 186
70 108 186
68 107 186
70 108 186
70 108 186
69 107 186
70 107 186
69 107 186
72 109 186
70 108 186
70 108 186
71 108 186
70 108 186
70 107 186
71 108 186
70 107 186
71 108 186
70 108 186
70 108 186
69 107 186
71 108 186
70 107 186
70 108 186
70 108 186
70 108 186
71 108 186
71 108 186
68 106 186
70 108 186
69 107 186
70 108 186
70 108 186
71 109 186
71 109 186
70 108 186
71 109 186
69 107 186
71 108 186
70 108 186
71 108 186
68 107 186
71 109 186
71 108 186
68 107 186
69 107 186
71 108 186
72 109 186
70 108 186
70 108 186
70 108 186
70 108 186
70 108 186
68 107 186
70 108 186
70 108 186
69 107 186
71 108 186
70 108 186
70 107 186
70 107 178
68 106 186
71 109 186
69 107 186
68 107 186
69 107 186
70 108 186
69 107 186
71 108 186
69 107 186
71 109 186
70 108 186
70 108 186
69 107 186
69 107 186
70 108 186
72 109 186
71 108 186
69 107 186
68 106 186
70 108 186
69 107 178
70 107 186
69 107 186
72 109 186
69 107 186
68 105 168
70 108 186
72 109 186
70 107 186
69 107 186
71 108 186
73 110 186
69 107 186
69 107 186
70 107 186
74 110 186
71 109 186
69 106 178
73 110 186
70 108 186
70 108 186
70 107 178
70 108 186
69 107 186
72 108 178
70 108 186
70 108 186
72 108 178
71 108 178
69 105 179
65 100 168
69 105 178
69 107 186
72 109 186
67 101 164
70 106 179
69 105 179
71 108 186
69 105 179
70 108 186
70 108 186
66 100 162
70 106 179
63 95 152
71 108 186
66 102 178
133 134 111
156 150 89
139 135 71
113 112 52
151 144 97
148 145 81
125 124 86
152 148 71
139 136 89
107 109 81
106 104 65
135 133 93
153 148 102
125 124 90
92 96 75
107 108 72
133 132 93
133 133 94
41 55 53
133 136 101
77 81 66
69 73 62
100 102 80
138 137 101
100 102 81
102 102 79
111 117 94
120 119 84
126 125 89
113 119 92
110 114 86
125 129 97
119 124 96
117 120 90
102 98 64
105 114 91
115 120 92
115 117 91
124 127 97
143 145 105
127 132 100
144 145 97
127 133 99
142 138 99
127 130 101
113 118 95
149 151 108
128 131 97
124 133 98
89 96 77
147 150 109
158 160 115
140 148 112
138 142 104
129 135 104
145 148 109
118 125 97
124 132 101
126 129 93
146 145 105
122 130 101
144 146 107
163 165 118
134 135 100
125 134 106
139 146 108
171 169 114
120 122 89
120 130 101
125 131 95
128 132 99
171 169 118
154 154 111
166 163 114
160 158 108
168 172 123
151 154 104
133 140 106
155 155 111
139 145 106
163 158 111
160 161 115
140 143 104
153 153 109
151 155 112
161 161 114
163 161 112
185 180 123
160 155 106
164 162 115
158 158 112
156 158 112
149 156 115
169 168 117
143 147 108
158 163 117
159 164 118
169 168 117
161 164 117
185 179 123
176 175 123
156 161 111
176 176 123
176 171 117
184 179 123
172 174 123
169 172 123
179 176 117
167 167 117
162 160 111
165 166 117
169 172 123
151 150 104
144 152 111
175 171 117
163 169 117
175 175 123
144 152 111
172 169 117
171 173 123
170 166 111
166 171 123
170 173 123
182 178 123
174 174 123
172 169 117
149 147 89
180 173 117
151 150 104
182 178 123
179 176 117
173 170 117
177 172 117
153 156 111
144 146 104
167 161 104
180 172 111
147 143 97
176 170 111
158 157 104
170 167 104
159 163 117
163 160 111
173 170 117
177 176 123
165 165 111
148 149 104
149 148 97
156 156 104
171 173 123
165 164 111
168 166 111
183 178 117
170 172 117
152 149 97
176 171 117
170 193 0
178 201 0
183 204 0
171 192 0
180 202 0
185 205 0
181 203 0
179 202 0
173 195 0
179 202 0
171 192 0
181 203 0
181 203 0
173 199 0
180 199 0
174 194 0
174 194 0
166 187 0
177 201 0
185 205 0
179 201 0
171 194 0
177 201 0
172 194 0
182 203 0
166 187 0
177 201 0
175 196 0
181 203 0
175 200 0
188 206 0
178 201 0
179 202 0
183 204 0
176 197 0
178 195 0
180 202 0
178 201 0
180 202 0
179 201 0
180 202 0
180 202 0
181 200 0
170 192 0
168 187 0
179 201 0
180 202 0
177 200 0
182 203 0
179 202 0
181 203 0
179 201 0
186 205 0
181 203 0
182 203 0
186 205 0
185 205 0
178 201 0
178 201 0
175 196 0
177 201 0
178 201 0
182 203 0
169 193 0
170 193 0
170 192 0
170 193 0
175 200 0
177 200 0
178 201 0
169 193 0
177 201 0
179 202 0
184 204 0
181 203 0
177 200 0
170 192 0
179 201 0
181 202 0
177 201 0
179 198 0
180 202 0
187 206 0
181 203 0
178 201 0
172 194 0
181 202 0
178 201 0
179 202 0
178 201 0
177 198 0
160 185 89
70 107 178
69 106 168
71 108 186
73 110 186
71 108 178
71 109 186
75 111 186
71 108 186
73 110 186
68 106 186
70 108 186
70 108 186
70 107 178
69 106 178
70 108 186
70 108 186
69 106 178
71 108 186
70 107 178
71 108 186
72 109 186
69 107 186
72 109 186
73 110 186
71 108 186
72 108 178
70 108 186
71 108 186
69 107 186
72 109 186
70 108 186
71 109 186
71 108 186
69 107 186
72 109 186
70 108 186
71 109 186
69 107 186
70 107 178
69 107 186
72 109 186
70 108 186
70 108 186
70 107 186
68 106 186
70 108 186
72 109 186
73 110 186
70 108 186
69 107 186
71 109 186
70 107 186
71 108 186
70 108 186
69 107 186
71 108 186
70 107 186
68 106 178
69 107 186
70 107 186
69 107 178
72 109 186
70 108 186
71 108 186
69 107 186
70 108 186
69 107 186
70 108 186
71 108 186
71 108 186
70 108 186
70 107 186
69 107 186
69 107 186
70 108 186
69 107 186
71 108 186
71 109 186
73 110 186
71 108 186
71 108 186
72 109 186
68 106 186
70 108 186
70 108 186
72 109 186
70 108 186
69 107 186
70 107 186
70 108 186
69 107 186
71 108 186
70 108 186
70 108 186
71 108 186
69 107 186
72 109 186
71 108 186
72 109 186
70 107 186
71 108 186
70 107 186
70 107 186
71 108 186
68 107 186
70 108 186
71 108 186
69 107 186
70 108 186
71 109 186
70 108 186
71 108 178
70 108 186
70 108 186
69 106 178
72 109 186
69 107 186
71 108 186
70 107 186
71 109 186
70 106 179
70 108 186
68 106 186
74 110 186
71 109 186
69 107 186
70 107 186
72 109 186
71 108 186
70 108 186
69 107 178
71 108 186
70 108 186
71 109 186
70 107 178
71 108 178
69 107 186
70 107 178
70 106 179
68 104 170
67 103 178
69 105 158
71 108 186
71 108 186
66 102 178
64 98 168
70 108 186
71 108 186
71 108 186
72 106 172
70 106 179
66 101 170
68 101 141
138 139 117
121 117 71
136 131 71
131 128 76
161 155 101
120 116 71
142 138 81
134 131 85
84 89 60
148 146 82
169 163 101
132 131 93
149 145 101
100 101 59
160 156 108
156 155 111
109 109 72
88 96 66
121 121 86
120 122 59
127 128 97
132 128 90
138 141 97
132 130 94
121 125 94
117 119 86
125 126 91
138 139 101
130 130 86
91 98 81
133 132 95
90 96 72
112 116 87
142 143 103
115 118 93
90 101 87
160 164 117
144 146 108
89 99 75
121 124 93
108 111 83
137 141 104
115 118 87
99 108 77
138 142 105
85 99 89
149 150 108
135 142 108
145 143 100
118 124 96
137 137 103
179 176 117
104 113 92
127 131 98
137 141 103
155 154 111
159 161 117
138 144 109
134 134 99
144 149 111
120 126 99
138 142 103
130 138 101
140 145 108
130 131 95
153 152 108
169 169 120
153 159 117
161 164 117
105 113 91
143 149 111
151 153 111
140 140 93
159 160 111
137 140 104
153 152 108
132 136 101
124 126 97
141 142 103
169 167 112
105 114 87
157 163 111
145 155 117
117 123 95
156 157 111
143 145 108
150 152 111
139 152 115
179 177 123
164 167 120
148 154 109
161 164 117
175 175 123
152 150 106
138 145 104
128 136 101
148 149 108
155 163 120
177 175 117
167 167 117
179 177 123
174 170 117
176 175 123
163 165 117
169 172 123
180 177 123
171 169 117
143 146 104
170 164 111
171 173 123
167 172 123
148 147 97
170 167 111
170 173 123
172 174 123
178 172 117
176 176 123
171 169 117
171 169 117
172 169 117
157 158 111
163 165 117
170 173 123
150 149 104
156 159 104
146 148 104
179 177 123
154 156 111
182 178 123
173 170 117
169 172 117
171 173 123
157 161 111
167 166 111
173 174 123
176 175 117
143 141 97
174 174 117
171 169 117
169 171 111
179 176 117
162 165 117
141 145 104
153 154 97
165 165 111
175 171 117
158 158 111
166 161 104
169 166 111
136 134 71
171 168 111
174 170 117
132 133 89
156 152 104
180 176 111
180 202 0
182 203 0
180 202 0
180 199 0
176 200 0
183 204 0
181 203 0
182 203 0
176 200 0
167 188 0
178 201 0
179 202 0
179 202 0
181 203 0
176 200 0
172 194 0
174 195 0
178 201 0
173 194 0
180 202 0
177 200 0
181 203 0
179 202 0
183 204 0
163 185 0
182 203 0
180 202 0
180 202 0
180 202 0
181 203 0
178 201 0
180 202 0
171 194 0
169 190 0
181 203 0
177 201 0
183 204 0
178 201 0
188 206 0
181 202 0
180 202 0
179 202 0
182 203 0
177 201 0
181 203 0
178 201 0
177 198 0
175 197 0
178 201 0
179 202 0
169 191 0
178 201 0
178 201 0
178 201 0
183 204 0
179 202 0
182 203 0
183 204 0
175 200 0
180 202 0
160 184 0
185 205 0
182 203 0
172 194 0
182 203 0
179 202 0
186 205 0
181 203 0
174 195 0
178 201 0
171 193 0
182 203 0
181 202 0
177 201 0
178 201 0
179 202 0
180 202 0
180 202 0
175 196 0
179 202 0
177 201 0
184 204 0
173 199 0
180 202 0
181 203 0
181 203 0
173 194 0
174 193 0
181 203 0
180 202 0
174 196 65
87 120 168
67 103 148
74 110 186
69 105 158
70 107 186
69 107 178
70 107 178
71 108 186
70 107 178
69 106 178
71 109 186
70 108 186
70 107 186
72 109 186
69 107 186
73 110 186
71 108 178
72 109 186
69 107 186
71 109 186
71 108 186
72 109 186
69 107 186
70 108 186
70 108 186
69 107 186
67 105 178
71 108 178
69 107 178
70 108 186
70 108 186
71 108 178
71 108 178
70 108 186
72 109 186
72 109 186
65 101 168
68 107 186
72 109 186
71 108 186
72 109 186
73 110 186
70 108 186
71 108 186
70 108 186
71 109 186
72 109 186
68 106 186
69 107 186
70 108 186
70 108 186
71 108 186
70 108 186
72 109 186
71 109 186
70 107 186
71 108 186
70 108 186
68 107 186
71 108 186
71 109 186
67 106 186
70 108 186
72 109 186
71 108 186
69 107 186
70 108 186
70 108 186
71 109 186
72 109 186
70 108 186
69 107 186
71 109 186
70 107 186
72 109 186
69 107 186
67 105 186
70 108 186
69 107 186
70 108 186
68 106 178
71 108 186
68 106 186
69 107 186
69 107 186
71 108 186
69 107 178
69 107 186
71 109 186
72 109 186
68 106 186
70 108 186
70 107 186
71 109 186
68 107 186
69 107 186
72 109 186
70 107 178
70 107 186
71 108 186
70 108 186
71 108 186
69 107 186
73 110 186
69 107 178
70 108 186
71 108 186
70 108 186
68 107 186
69 107 186
70 107 186
72 109 186
71 108 178
70 108 186
71 108 186
71 108 186
71 108 186
70 107 186
69 107 186
72 109 186
70 108 186
69 107 186
71 108 186
73 110 186
69 107 178
70 108 186
71 109 186
70 107 178
71 108 186
71 108 186
69 106 178
70 107 186
69 107 186
70 108 186
69 107 186
69 107 186
68 106 186
69 107 186
69 107 186
69 105 178
71 108 186
69 106 178
71 108 178
71 108 186
72 109 178
65 99 160
70 107 186
66 102 178
66 102 169
71 108 186
70 107 178
70 107 186
68 105 179
67 103 168
68 102 170
122 132 150
170 165 89
132 131 83
121 117 65
107 108 66
127 124 73
134 132 89
111 113 43
123 124 89
118 119 81
118 115 81
137 135 97
108 105 65
129 129 90
116 115 85
146 143 94
122 122 73
89 94 69
96 99 65
113 114 86
109 110 81
147 147 107
115 114 79
145 146 105
116 118 86
118 121 86
130 131 98
74 81 69
91 93 73
92 99 81
96 104 86
122 121 86
95 101 82
106 108 78
125 128 101
114 121 93
99 101 77
146 143 98
107 111 83
120 125 97
111 115 87
107 113 84
116 121 93
98 106 91
95 101 82
152 155 114
142 143 97
76 82 66
120 121 93
136 138 98
125 129 98
121 121 91
85 102 93
152 157 114
108 115 91
167 167 118
138 136 97
128 132 101
121 124 95
140 144 108
155 154 111
124 125 93
128 133 101
132 134 99
116 122 97
129 133 101
114 118 89
158 158 107
116 119 88
102 106 78
128 126 87
130 132 91
156 156 112
120 131 104
131 138 103
170 173 123
154 157 108
146 155 115
156 163 120
132 138 104
151 156 114
153 153 109
173 170 117
158 162 111
128 131 97
161 164 111
163 165 117
148 151 109
152 156 114
184 179 123
144 148 108
162 165 117
155 157 112
180 177 123
176 171 117
174 174 117
171 168 111
178 175 111
175 173 111
145 148 106
170 172 117
174 175 123
163 170 123
179 177 123
162 165 117
169 168 117
175 175 123
176 176 123
176 175 123
161 164 117
165 171 123
151 149 97
168 167 117
154 161 117
156 162 117
183 179 123
159 162 111
179 177 123
173 174 123
170 173 123
159 158 111
164 165 117
156 162 117
167 167 117
159 157 104
173 174 123
163 165 117
184 179 123
168 163 111
146 148 104
169 168 117
171 173 123
156 157 111
162 160 111
177 176 123
183 179 123
174 174 117
168 168 117
169 170 104
177 172 117
143 141 97
166 165 111
162 160 111
170 168 117
166 161 104
146 146 97
165 165 111
176 174 111
153 150 97
152 149 97
176 174 117
153 154 97
184 178 117
159 158 104
176 198 0
173 195 0
181 203 0
176 200 0
177 201 0
180 202 0
178 201 0
180 202 0
172 195 0
175 197 0
186 205 0
176 200 0
182 203 0
178 198 0
178 201 0
182 203 0
180 202 0
179 202 0
173 192 0
175 196 0
180 202 0
172 194 0
179 202 0
179 202 0
187 206 0
182 203 0
180 202 0
174 195 0
173 195 0
177 201 0
177 201 0
178 201 0
181 203 0
180 202 0
180 202 0
184 204 0
181 203 0
175 196 0
179 202 0
169 193 0
181 203 0
172 195 0
175 196 0
169 191 0
179 202 0
183 204 0
178 201 0
182 203 0
177 200 0
177 201 0
182 203 0
173 195 0
180 202 0
180 202 0
178 201 0
181 203 0
175 199 0
171 194 0
172 194 0
180 202 0
175 197 0
176 197 0
165 186 0
180 202 0
180 202 0
181 203 0
180 202 0
183 204 0
181 202 0
177 200 0
180 202 0
176 200 0
177 198 0
170 193 0
174 195 0
177 200 0
180 202 0
181 203 0
176 200 0
176 196 0
173 195 0
183 204 0
180 202 0
176 200 0
179 202 0
188 206 0
173 194 0
181 203 0
183 204 0
160 182 89
72 109 186
73 109 178
70 107 178
71 108 178
70 107 178
69 107 178
72 109 178
70 107 186
71 109 186
69 107 178
72 109 186
69 107 186
70 107 178
70 106 168
71 108 186
69 107 186
69 107 186
69 107 186
72 109 186
70 108 186
71 108 178
70 108 186
71 108 186
72 109 186
72 109 186
68 106 186
72 109 186
69 107 186
72 109 186
69 107 186
70 108 186
71 109 186
70 108 186
69 107 186
72 109 186
71 109 186
72 109 186
70 107 178
72 109 186
71 109 186
71 108 186
71 108 186
70 107 186
70 108 186
70 108 186
69 107 186
68 106 186
71 108 186
71 108 186
70 108 186
70 108 186
69 107 186
70 108 186
73 110 186
71 108 186
71 108 186
70 108 186
71 108 186
70 108 186
69 107 186
70 107 186
72 109 186
71 109 186
70 108 186
71 108 178
71 109 186
68 107 186
71 109 186
70 108 186
70 108 186
70 108 186
70 108 186
71 109 186
71 108 186
72 109 186
70 108 186
70 107 186
69 107 186
71 108 186
70 108 186
67 106 186
70 108 186
70 108 186
70 108 186
71 109 186
70 108 186
69 107 186
71 108 186
70 107 186
70 108 186
68 106 186
71 108 186
72 109 186
70 108 186
69 107 186
70 108 186
72 109 186
73 110 186
71 109 186
71 109 186
70 108 186
69 107 186
71 109 186
73 110 186
70 107 186
71 109 186
72 109 186
70 108 186
69 107 186
70 108 186
71 108 186
67 106 186
68 106 186
70 107 178
69 107 186
69 106 178
72 109 186
70 108 186
66 102 178
71 109 186
71 108 186
71 108 186
71 109 186
69 107 186
72 109 186
70 108 186
71 108 186
70 108 186
70 108 186
70 108 186
68 106 178
70 107 178
71 108 186
70 107 178
73 110 186
70 108 186
69 107 186
69 106 178
69 105 179
70 108 186
71 109 186
69 107 186
72 108 168
72 109 186
71 107 179
70 107 186
70 108 186
70 107 178
72 109 186
70 108 186
70 108 186
71 107 179
67 103 178
70 107 186
70 103 152
70 106 179
90 117 181
80 95 131
130 125 76
156 151 71
141 138 78
157 151 89
144 141 89
147 142 89
142 140 82
133 132 85
150 145 95
95 95 55
94 101 79
141 142 93
106 110 82
116 120 82
95 96 76
130 127 92
109 112 88
124 124 91
106 110 83
133 130 91
127 125 91
99 100 77
111 113 86
100 105 87
122 120 84
97 103 83
132 132 97
107 110 82
128 131 97
112 111 80
73 87 77
137 142 103
110 113 87
91 93 72
122 122 88
139 141 102
155 157 111
118 124 96
126 133 96
89 97 79
131 135 103
108 114 91
96 107 89
136 144 108
136 135 96
127 133 99
128 132 99
88 94 77
93 98 75
92 99 77
137 141 105
136 135 96
140 139 97
135 131 95
119 122 93
123 125 93
153 158 117
155 155 112
121 127 98
154 158 114
108 116 88
145 146 108
133 139 106
147 144 103
153 153 111
159 165 120
117 127 92
169 164 114
141 148 111
128 130 88
142 143 104
155 152 106
145 149 111
147 147 101
102 114 95
145 143 101
143 142 101
146 145 105
140 146 103
148 151 106
166 164 115
172 171 120
156 153 108
153 160 112
163 165 117
168 171 117
160 161 114
170 167 111
177 176 123
174 174 117
184 179 123
165 157 108
172 174 123
164 166 118
168 169 120
165 167 120
173 173 117
170 168 117
155 157 111
168 171 117
173 174 123
169 168 117
168 163 111
160 159 111
180 177 123
164 161 111
168 167 117
165 166 117
167 166 111
176 175 117
175 175 123
175 175 123
164 165 117
161 164 117
179 177 123
173 173 117
166 166 111
150 155 111
172 174 123
180 177 123
180 176 117
160 162 104
165 171 123
172 174 123
169 170 111
164 169 117
179 176 117
175 170 117
165 166 117
175 175 123
183 179 123
152 150 104
186 179 111
171 168 111
167 165 104
148 143 97
167 165 104
144 139 81
150 149 104
166 166 111
175 170 111
159 157 104
172 173 117
177 170 111
165 161 111
181 177 117
176 174 111
173 169 111
173 172 111
165 165 111
152 149 97
157 157 104
180 202 0
185 205 0
178 201 0
181 203 0
176 200 0
180 202 0
182 203 0
180 202 0
178 201 0
176 196 0
176 197 0
181 203 0
180 202 0
181 202 0
182 203 0
184 204 0
180 202 0
178 201 0
180 202 0
180 202 0
177 201 0
170 193 0
175 196 0
183 204 0
182 203 0
176 200 0
185 205 0
180 202 0
173 199 0
183 204 0
181 203 0
171 193 0
182 203 0
179 202 0
181 203 0
178 201 0
177 196 0
180 202 0
183 204 0
181 203 0
179 198 0
179 201 0
179 202 0
173 195 0
180 202 0
166 186 0
181 203 0
179 202 0
179 202 0
176 195 0
181 203 0
177 201 0
179 201 0
185 205 0
174 195 0
182 203 0
183 204 0
161 182 0
176 200 0
183 204 0
179 202 0
178 201 0
170 193 0
176 200 0
177 201 0
181 203 0
179 202 0
181 203 0
174 196 0
182 203 0
184 204 0
182 203 0
175 194 0
180 202 0
181 202 0
173 195 0
181 199 0
179 199 0
179 201 0
180 202 0
185 205 0
180 202 0
180 202 0
175 195 0
180 202 0
180 202 0
181 202 0
174 194 0
164 187 65
92 123 178
71 107 168
72 109 186
70 108 186
72 109 186
72 109 186
71 108 178
69 107 186
71 108 186
70 107 178
71 108 186
72 109 186
69 106 178
71 109 186
70 108 186
71 108 186
71 108 186
70 108 186
69 107 186
70 108 186
72 109 186
68 106 178
72 109 186
72 109 186
69 107 186
72 109 186
72 109 186
70 108 186
72 109 186
70 107 168
71 109 186
69 107 186
70 108 186
69 107 186
71 108 186
71 109 186
74 110 186
70 108 186
70 108 186
69 107 186
70 108 186
72 109 186
73 110 186
71 109 186
71 109 186
71 108 186
72 109 186
71 108 186
68 106 186
70 108 186
69 107 186
71 109 186
72 109 186
70 107 186
72 109 186
69 107 186
73 110 186
71 108 186
71 108 186
72 109 186
69 107 186
71 108 186
72 109 186
69 107 186
71 108 186
69 107 178
69 107 186
71 109 186
72 109 186
71 108 186
69 106 178
70 107 186
68 106 178
71 108 186
72 109 186
70 108 186
70 108 186
73 110 186
70 108 186
70 108 186
70 108 186
70 108 186
70 108 186
69 107 186
71 109 186
69 107 186
71 108 186
74 110 186
70 108 186
68 106 186
72 109 186
72 109 186
71 108 186
69 107 186
71 108 186
70 108 186
69 106 178
70 107 186
70 108 186
69 107 186
68 106 186
70 107 178
69 107 186
68 106 186
72 109 186
71 108 186
70 108 186
69 107 186
68 107 186
68 106 186
70 108 186
71 108 186
69 107 186
69 107 186
69 107 186
69 107 178
72 109 186
68 106 178
69 107 186
71 108 186
70 107 186
69 106 178
70 108 186
72 109 186
70 108 186
70 107 186
73 110 186
67 104 179
69 105 179
70 107 186
72 109 186
69 106 178
72 109 186
69 107 186
69 106 178
72 109 186
66 102 178
73 110 186
69 106 178
71 108 186
71 106 178
71 108 186
73 110 186
68 104 170
71 108 186
71 108 186
70 108 186
70 108 186
72 108 178
69 106 179
71 108 186
68 106 178
69 106 178
71 107 179
70 106 179
69 107 178
70 108 186
72 107 179
80 103 150
126 126 78
133 131 85
113 107 43
133 133 85
141 136 71
98 93 47
138 137 78
124 127 86
96 99 53
144 141 97
124 125 86
143 145 104
127 126 82
119 119 82
97 93 62
128 125 88
139 136 89
133 132 90
92 97 78
127 130 89
138 136 97
76 84 70
107 113 84
101 101 75
121 126 93
116 121 88
102 101 72
69 80 70
106 113 91
85 96 86
134 134 97
109 109 77
127 127 94
94 100 81
70 77 66
89 98 83
129 130 86
133 133 96
137 137 99
126 127 95
134 136 103
138 140 101
139 141 103
128 133 98
119 122 90
123 124 92
145 144 103
116 121 87
101 112 92
149 148 105
137 138 104
136 137 101
116 122 95
97 105 84
87 98 82
116 121 86
101 109 91
144 145 106
141 146 111
167 167 118
127 131 93
146 150 109
135 139 103
138 138 97
155 158 115
119 124 93
164 166 117
122 126 91
126 133 103
161 157 111
123 131 101
148 147 103
141 145 95
131 139 106
118 127 97
168 168 117
166 167 114
148 155 114
143 146 100
155 153 104
146 150 109
163 167 120
145 148 108
182 178 123
157 158 112
147 143 93
170 169 117
162 166 120
165 166 117
171 173 117
169 169 120
173 173 117
171 171 111
169 167 111
157 157 104
155 153 109
144 147 106
163 160 104
167 165 106
180 177 123
180 177 123
154 156 111
167 172 123
166 171 123
166 166 111
169 172 123
177 175 117
174 170 117
158 158 111
170 172 117
177 171 117
159 164 117
170 169 117
178 176 117
174 175 123
168 167 117
178 176 123
168 167 111
159 162 111
179 176 117
147 148 104
169 168 117
174 170 117
175 175 123
153 159 104
158 163 117
183 174 117
179 177 123
162 159 104
168 168 117
170 172 117
170 170 104
176 175 117
181 176 111
159 162 104
146 145 89
171 173 117
165 170 117
171 168 111
170 167 111
173 169 111
170 167 111
157 155 97
165 164 104
173 172 111
158 152 97
152 150 104
164 165 111
170 166 104
172 169 117
162 158 97
155 155 97
184 204 0
183 204 0
181 203 0
180 202 0
179 202 0
176 200 0
184 204 0
178 201 0
179 202 0
180 202 0
182 203 0
179 202 0
177 201 0
184 204 0
182 203 0
180 202 0
168 187 0
182 203 0
179 201 0
182 203 0
187 206 0
174 195 0
177 201 0
178 201 0
176 197 0
170 192 0
178 201 0
180 202 0
179 202 0
178 201 0
181 203 0
178 201 0
177 201 0
179 202 0
180 202 0
179 202 0
180 202 0
179 201 0
178 201 0
178 201 0
178 201 0
182 203 0
182 203 0
180 202 0
181 203 0
177 201 0
174 194 0
168 188 0
177 200 0
179 198 0
172 194 0
181 203 0
176 197 0
171 194 0
176 200 0
178 201 0
181 203 0
174 195 0
180 202 0
184 204 0
179 202 0
180 202 0
182 203 0
179 202 0
182 203 0
180 202 0
169 192 0
176 200 0
179 202 0
172 194 0
181 203 0
180 202 0
179 201 0
175 199 0
178 201 0
177 200 0
168 187 0
171 194 0
180 202 0
173 195 0
177 201 0
183 204 0
180 202 0
181 203 0
170 193 0
179 202 0
180 202 0
166 192 65
93 124 178
72 108 168
72 109 186
70 108 186
70 107 178
68 106 178
71 108 178
70 107 178
70 107 178
72 109 178
69 106 178
69 107 186
70 106 168
72 109 186
70 107 178
71 108 186
70 107 186
70 108 186
70 107 178
70 107 178
69 107 186
70 108 186
70 107 186
69 106 178
71 108 186
72 109 186
69 107 186
67 104 168
71 108 186
70 108 186
70 108 186
70 108 186
71 108 178
70 107 186
71 109 186
69 107 186
69 107 186
69 107 186
72 109 186
71 108 186
70 108 186
68 106 186
68 106 178
70 108 186
71 109 186
72 109 186
70 108 186
69 107 186
70 108 186
72 109 186
71 108 186
71 109 186
71 109 186
70 108 186
71 108 186
69 107 186
72 109 186
70 108 186
71 108 186
71 108 186
72 109 186
70 108 186
70 108 186
70 107 186
71 108 186
69 107 186
69 107 186
69 107 186
69 107 186
70 108 186
70 107 186
72 109 186
72 109 186
69 107 186
70 108 186
71 108 186
70 107 186
70 108 186
70 108 186
72 109 186
69 106 168
71 108 186
71 109 186
71 108 186
71 108 186
73 110 186
70 108 186
70 108 186
70 108 186
71 108 186
71 108 186
69 106 178
71 108 186
69 107 186
70 108 186
70 108 186
73 110 186
71 108 186
72 109 186
70 108 186
70 107 168
69 107 178
68 106 186
72 109 186
70 107 186
72 108 178
68 106 178
70 107 178
68 106 186
70 108 186
70 108 186
70 108 186
67 105 178
72 109 186
71 108 186
69 107 186
69 107 186
70 107 178
71 108 186
70 108 186
69 107 186
68 107 186
71 108 186
70 108 186
68 106 178
70 108 186
71 109 186
71 108 186
71 108 178
70 107 168
69 107 178
71 108 186
70 106 168
72 109 186
73 110 186
70 107 178
68 106 178
70 107 178
69 107 186
73 110 186
71 108 186
69 105 179
71 108 178
69 107 186
69 106 178
70 108 186
69 107 186
69 107 186
69 107 178
72 108 178
70 106 179
71 107 179
72 108 178
68 106 186
69 106 179
72 109 186
69 105 170
70 105 160
71 109 186
70 107 179
87 109 162
69 82 108
58 60 0
98 100 34
97 97 59
74 75 53
137 133 90
121 116 71
145 142 98
99 99 76
113 114 81
121 126 97
64 65 23
132 132 85
115 116 85
123 123 90
78 83 70
112 115 86
153 152 105
128 130 88
123 121 76
149 146 98
68 76 71
94 101 79
130 134 101
144 142 97
131 131 94
114 117 90
87 95 75
137 135 94
114 116 89
134 133 98
134 136 103
103 106 77
151 151 108
103 110 83
107 112 86
98 103 80
111 118 94
125 129 98
127 128 96
141 143 101
124 123 90
150 151 108
89 101 87
125 126 91
104 115 94
137 139 94
115 118 92
150 152 108
115 121 93
137 135 96
129 135 101
117 125 99
128 135 99
116 122 94
132 135 100
103 111 87
125 128 93
126 133 98
141 144 108
143 147 103
131 133 93
126 129 97
156 159 114
155 162 117
160 165 120
140 145 108
126 134 101
154 157 113
131 139 106
138 144 108
160 162 117
151 155 114
133 144 108
141 142 95
135 142 109
157 154 108
152 157 115
190 182 123
140 147 104
119 124 86
148 149 101
156 154 109
160 159 108
162 163 106
160 159 108
170 168 117
164 166 117
168 162 104
148 153 104
143 146 104
176 171 112
176 175 123
156 151 99
160 159 112
173 170 117
173 174 123
181 178 123
181 178 123
166 171 123
173 173 117
172 170 104
170 173 123
171 164 111
163 164 111
175 175 123
165 165 111
168 171 117
172 173 117
163 165 117
170 173 123
162 165 117
150 155 111
174 174 117
181 178 123
172 169 117
166 167 117
161 158 104
162 165 117
175 171 117
167 167 117
161 158 104
178 174 104
163 165 117
156 160 104
159 158 104
168 166 111
175 171 117
167 167 117
172 174 123
135 137 97
187 181 123
167 167 117
169 171 111
168 167 117
159 161 104
166 161 104
167 164 97
169 172 117
155 152 104
164 160 104
178 174 104
168 167 111
161 163 111
182 178 123
153 155 104
173 168 111
173 168 104
136 130 81
167 162 111
159 152 89
182 203 0
178 201 0
172 195 0
181 203 0
175 200 0
181 203 0
181 203 0
181 203 0
178 198 0
182 203 0
180 202 0
178 201 0
177 196 0
178 201 0
183 204 0
180 202 0
176 200 0
178 201 0
182 203 0
180 202 0
178 201 0
183 204 0
180 202 0
178 201 0
180 202 0
178 201 0
179 201 0
179 202 0
179 202 0
182 203 0
178 201 0
178 201 0
177 201 0
185 205 0
165 185 0
171 193 0
180 202 0
178 201 0
183 204 0
180 199 0
181 203 0
171 194 0
182 203 0
186 205 0
174 196 0
177 197 0
179 199 0
173 193 0
179 202 0
176 196 0
181 203 0
185 205 0
181 203 0
178 201 0
182 203 0
176 200 0
172 194 0
179 202 0
180 202 0
180 202 0
173 199 0
185 205 0
169 193 0
183 204 0
178 198 0
178 201 0
173 195 0
175 195 0
179 202 0
183 204 0
181 203 0
177 200 0
184 202 0
178 201 0
185 205 0
183 204 0
179 202 0
180 202 0
178 196 0
179 202 0
176 200 0
185 205 0
178 201 0
173 193 0
172 194 0
184 204 0
165 187 65
72 109 186
73 110 186
70 106 158
69 106 178
73 109 168
70 107 178
71 108 186
71 108 178
68 105 158
71 109 186
72 108 178
69 107 186
67 105 168
69 106 168
70 108 186
72 109 178
71 108 186
71 108 186
72 109 186
72 109 178
70 107 178
71 108 178
70 108 186
71 108 178
68 106 178
69 107 186
71 108 186
70 108 186
69 107 186
70 108 186
71 109 186
71 108 186
71 108 186
69 106 178
70 107 178
70 108 186
71 108 186
71 108 178
69 107 186
69 107 186
69 107 186
71 108 186
68 106 186
69 107 186
70 108 186
69 107 186
72 109 186
68 106 178
70 108 186
69 107 186
70 108 186
69 107 186
71 109 186
69 107 186
71 108 186
69 107 186
69 107 186
70 107 186
69 107 186
68 106 186
68 106 186
68 106 186
71 108 186
70 108 186
72 109 186
69 107 186
70 108 186
69 107 178
70 108 186
70 107 186
71 109 186
70 107 186
70 108 186
72 109 186
70 108 186
70 108 186
68 107 186
69 107 186
71 108 186
72 109 186
70 108 186
72 109 186
70 108 186
70 108 186
69 107 186
71 108 186
69 107 186
69 107 186
71 108 186
72 109 186
69 107 186
73 110 186
73 110 186
70 108 186
69 107 186
72 109 186
68 107 186
69 107 186
69 107 186
71 108 186
69 107 186
71 108 178
69 107 186
70 108 186
70 108 186
70 107 186
70 108 186
68 107 186
71 109 186
70 107 186
69 107 186
70 108 186
72 109 186
71 108 186
70 107 178
71 108 186
71 108 186
70 108 186
72 109 186
70 108 186
71 109 186
70 108 186
69 107 186
69 107 186
68 106 186
68 105 179
71 108 186
72 109 186
71 109 186
72 109 186
70 108 186
72 109 186
71 108 178
70 107 178
69 107 186
72 108 178
71 109 186
73 110 186
69 107 186
71 108 178
71 108 186
70 108 186
68 105 179
71 108 186
71 108 178
71 108 186
71 109 186
70 106 178
70 107 178
68 105 179
72 109 186
70 108 186
72 109 186
68 104 178
69 106 179
70 107 186
71 108 186
69 104 178
69 105 179
73 110 186
71 109 186
65 97 145
66 103 178
94 99 99
113 108 65
132 130 83
120 121 82
98 97 71
130 132 85
107 106 66
116 114 81
141 140 93
147 143 93
103 108 77
30 42 41
74 79 66
127 123 83
142 143 95
90 95 66
108 112 86
122 120 85
108 108 77
133 133 85
109 114 89
67 76 60
100 104 76
79 81 65
102 99 66
111 112 84
133 132 91
133 136 101
145 145 104
103 105 72
131 134 101
126 125 94
108 115 92
118 121 89
103 111 89
132 132 95
111 117 93
138 142 106
88 97 78
118 123 94
145 145 106
115 123 97
118 125 99
94 101 87
145 146 108
147 146 104
123 125 95
112 112 79
153 153 109
120 130 101
130 135 103
127 133 103
114 122 94
133 136 101
170 165 115
137 143 108
159 160 114
108 115 93
154 158 114
162 163 117
143 145 105
142 143 98
140 145 109
85 97 83
138 145 111
133 134 95
148 153 106
140 144 107
163 164 112
150 153 112
138 144 109
150 152 111
130 136 97
152 152 108
152 153 111
144 144 103
149 152 111
134 130 83
152 153 109
154 153 108
153 157 114
144 143 101
152 157 114
180 176 117
152 157 114
181 178 123
134 135 99
145 142 95
128 136 103
178 177 123
148 151 104
151 160 118
160 160 108
145 148 106
139 144 97
181 177 117
157 162 111
166 166 111
165 169 111
167 162 111
159 163 111
162 163 104
151 155 111
166 169 111
178 177 123
176 173 104
171 168 111
184 179 123
170 173 123
154 160 111
178 177 123
160 164 117
174 173 111
154 151 104
172 169 117
169 168 117
167 165 111
171 168 111
179 177 123
165 160 104
163 165 117
178 175 111
177 176 123
148 148 97
153 151 104
177 170 111
164 161 111
174 174 117
160 154 104
174 174 123
161 159 111
162 165 117
177 171 117
165 166 117
178 176 117
174 169 111
155 157 111
166 166 117
173 167 104
139 143 97
174 174 117
146 143 81
170 172 117
174 169 111
169 170 104
183 178 117
142 144 89
159 152 97
165 163 97
148 152 97
182 203 0
176 197 0
179 202 0
180 202 0
178 198 0
179 202 0
185 205 0
177 197 0
184 204 0
180 202 0
179 202 0
173 195 0
179 202 0
178 201 0
177 200 0
172 194 0
174 194 0
185 205 0
185 205 0
179 201 0
169 193 0
181 203 0
179 202 0
173 195 0
180 202 0
170 190 0
187 206 0
178 201 0
180 202 0
179 202 0
170 193 0
184 204 0
179 202 0
177 197 0
178 201 0
184 204 0
183 204 0
178 201 0
172 194 0
171 192 0
174 195 0
176 197 0
181 203 0
182 203 0
179 202 0
178 201 0
181 203 0
176 196 0
186 205 0
179 201 0
181 203 0
184 204 0
171 194 0
180 202 0
177 200 0
181 203 0
181 203 0
171 191 0
179 202 0
175 193 0
176 200 0
177 201 0
177 201 0
179 202 0
179 202 0
173 191 0
180 202 0
177 201 0
180 202 0
172 194 0
182 203 0
181 202 0
171 194 0
178 201 0
180 199 0
179 202 0
179 202 0
180 202 0
178 201 0
175 193 0
178 201 0
180 199 0
171 195 0
178 201 0
177 201 0
176 200 0
105 134 158
71 106 158
70 108 186
76 112 186
69 106 178
73 109 178
70 107 178
71 108 178
69 107 186
71 108 186
71 108 178
70 108 186
71 109 186
69 107 186
69 107 186
68 106 186
73 110 186
73 110 186
70 107 178
73 110 186
71 109 186
72 109 186
70 108 186
71 108 178
71 108 186
70 107 178
68 106 178
70 108 186
73 110 186
69 107 186
74 110 186
72 109 186
70 107 186
72 109 186
70 108 186
72 109 186
69 107 186
70 108 186
70 108 186
68 107 186
71 108 186
70 108 186
71 108 178
74 110 186
69 107 186
70 108 186
71 108 186
71 109 186
70 107 186
68 106 186
71 108 186
71 109 186
72 109 186
70 107 186
68 106 186
70 108 186
70 108 186
70 107 186
72 109 186
72 109 186
71 109 186
69 107 186
70 108 186
68 106 186
71 108 186
69 107 186
71 108 186
71 108 186
69 107 186
68 106 178
70 108 186
70 108 186
71 109 186
71 108 186
70 107 178
70 107 186
70 108 186
70 108 186
70 108 186
69 107 186
70 108 186
69 107 178
72 109 186
70 108 186
71 108 186
70 107 186
69 107 186
68 106 186
68 106 186
73 110 186
68 106 178
69 107 186
70 107 186
70 108 186
72 109 186
70 108 186
71 108 186
71 108 186
69 107 186
70 108 186
70 108 186
71 109 186
70 108 186
71 108 186
71 108 186
69 106 178
69 107 186
70 108 186
71 108 186
69 107 186
70 108 186
70 108 186
70 108 186
72 109 186
71 108 186
69 107 186
69 107 186
69 106 178
72 109 186
70 108 186
70 108 186
71 108 186
73 110 186
71 108 186
69 107 186
72 109 186
72 108 178
71 108 178
70 106 168
71 108 178
69 107 186
72 109 178
72 109 186
68 107 186
72 109 186
69 107 186
70 107 178
70 108 186
72 109 186
70 107 178
71 109 186
69 106 168
69 107 186
70 108 186
69 106 178
69 107 186
69 107 186
70 106 179
70 108 186
68 104 170
71 108 186
66 101 158
70 107 178
68 104 179
70 107 178
65 98 152
69 106 168
72 108 178
67 102 169
70 108 186
71 107 179
70 107 178
70 105 178
73 110 186
73 110 186
142 138 81
133 130 85
106 103 60
150 144 90
144 141 86
121 119 71
138 135 81
111 108 73
80 87 76
127 128 97
122 122 86
89 95 67
83 86 52
128 126 90
122 120 85
110 108 69
127 127 83
106 111 83
145 144 101
38 53 56
103 104 69
108 106 72
145 142 91
98 104 86
91 101 83
112 113 87
113 114 86
107 110 82
104 109 82
97 101 72
139 138 99
76 89 77
114 116 88
119 122 92
123 125 91
112 118 94
119 120 88
119 127 93
119 117 87
129 133 98
127 128 96
119 123 92
97 104 83
102 108 85
119 123 95
150 152 108
97 107 89
167 166 105
119 127 101
129 132 99
121 121 95
138 137 101
135 142 101
146 152 111
146 146 105
136 142 108
157 158 111
142 144 105
148 150 106
123 130 95
151 149 92
135 138 99
128 132 99
160 157 112
114 120 91
160 164 117
129 130 93
124 132 96
120 129 101
146 152 114
140 145 101
147 150 109
154 153 109
163 158 108
115 120 91
164 165 112
158 161 117
157 153 108
158 156 111
164 163 97
154 157 112
160 165 120
129 133 101
178 175 117
175 175 123
164 163 115
161 169 123
150 150 103
147 147 99
171 173 123
178 177 123
172 169 117
142 145 99
175 173 111
160 164 118
161 165 118
166 162 112
180 177 123
176 170 111
180 176 117
175 170 117
177 174 111
161 160 111
162 164 111
167 161 104
175 175 123
176 175 117
178 176 123
177 175 117
178 172 117
164 166 117
153 154 97
171 169 117
172 174 123
171 172 117
165 166 117
174 174 117
161 160 111
181 177 117
158 162 111
155 157 111
173 174 123
148 147 97
182 178 123
147 146 89
175 174 117
160 152 97
154 154 97
166 165 111
151 149 97
155 157 111
165 165 111
178 175 111
171 169 117
155 157 111
152 150 104
150 148 97
180 173 117
178 176 123
172 167 104
180 175 104
171 170 97
168 170 111
161 157 97
170 164 111
177 174 111
179 175 111
176 169 104
174 174 117
169 193 0
180 202 0
179 202 0
185 205 0
184 204 0
173 195 0
183 204 0
180 202 0
180 201 0
177 201 0
179 198 0
178 201 0
185 205 0
181 200 0
180 202 0
184 205 0
182 203 0
179 202 0
180 202 0
180 202 0
178 201 0
182 203 0
176 200 0
171 194 0
180 202 0
182 203 0
182 203 0
183 204 0
182 203 0
179 202 0
178 201 0
165 187 0
175 200 0
180 202 0
179 202 0
181 203 0
176 200 0
180 202 0
172 193 0
183 204 0
170 192 0
167 192 0
180 202 0
176 200 0
178 201 0
182 203 0
175 196 0
182 203 0
179 202 0
180 202 0
174 195 0
170 192 0
181 203 0
180 202 0
172 190 0
180 202 0
178 201 0
177 201 0
179 202 0
180 202 0
181 203 0
182 203 0
173 195 0
184 204 0
182 203 0
174 195 0
172 194 0
185 205 0
183 204 0
178 201 0
181 200 0
178 201 0
177 201 0
179 202 0
179 202 0
178 201 0
177 201 0
183 204 0
161 185 0
173 193 0
182 203 0
175 200 0
179 202 0
173 195 0
165 188 65
132 156 148
70 107 168
69 106 178
71 108 178
69 106 168
68 105 158
72 109 186
69 106 178
70 108 186
72 109 178
71 108 178
71 108 178
71 108 186
70 107 178
72 108 178
72 109 186
70 107 178
70 107 168
73 110 186
71 108 186
71 108 178
71 108 186
68 106 178
71 108 178
71 109 186
70 108 186
71 108 178
70 108 186
70 107 178
72 109 186
73 110 186
72 109 186
69 107 186
70 108 186
73 110 186
69 107 186
71 109 186
71 108 186
71 108 186
72 109 186
68 106 186
70 108 186
70 108 186
71 109 186
69 107 186
70 108 186
69 107 186
71 108 186
71 108 186
70 108 186
70 108 186
70 108 186
70 108 186
71 108 186
68 106 186
69 107 186
70 108 186
69 107 186
71 108 186
69 107 186
70 107 186
70 107 186
70 108 186
70 108 186
71 108 186
70 108 186
71 109 186
72 109 186
71 108 186
70 108 186
70 107 186
71 108 186
71 109 186
71 109 186
70 108 186
71 109 186
71 108 186
71 109 186
69 107 186
69 107 186
71 108 178
68 106 178
71 108 186
69 107 186
71 108 186
72 109 186
71 108 186
70 108 186
71 108 186
70 108 186
69 107 186
70 107 178
70 108 186
69 107 186
70 108 186
70 108 186
71 108 186
70 108 186
71 109 186
71 108 186
70 107 186
69 107 186
68 106 186
69 107 186
70 108 186
69 107 178
70 107 186
69 107 186
69 107 186
70 108 186
68 106 186
70 108 186
72 109 186
70 108 186
71 108 186
70 107 186
69 107 186
72 109 186
71 108 178
70 107 186
71 108 186
70 107 186
71 108 178
71 108 186
72 109 186
68 106 186
71 109 186
69 107 186
71 108 178
66 102 178
70 108 186
69 107 186
69 107 186
70 107 186
71 109 186
70 108 186
70 108 186
71 107 168
65 100 148
70 107 186
70 107 178
70 107 178
71 108 186
73 110 186
70 107 178
71 108 186
70 107 178
70 107 178
72 109 186
71 108 186
73 110 186
68 106 178
72 109 178
72 109 186
72 109 186
70 108 186
70 107 178
74 109 179
65 101 178
72 108 178
73 110 186
71 108 186
71 108 186
67 103 178
68 104 170
71 109 186
67 103 172
113 111 81
124 124 91
152 145 98
109 109 72
110 111 80
91 93 67
74 81 67
150 147 104
69 74 57
128 127 93
111 115 82
123 123 89
107 110 82
97 95 72
89 91 61
95 97 76
131 128 90
101 106 82
44 59 63
102 106 71
118 121 87
51 68 64
75 86 77
124 125 89
89 95 73
105 114 93
104 107 79
69 80 56
84 91 79
131 133 98
100 108 90
146 143 102
123 125 95
99 109 86
99 100 77
111 117 89
112 114 86
130 132 93
100 102 80
109 116 89
126 127 94
116 121 89
138 143 105
145 145 100
129 131 91
128 130 95
130 133 99
74 86 78
102 113 87
125 128 90
133 135 99
135 138 106
133 136 100
132 134 99
103 110 89
132 130 96
126 131 99
126 134 103
133 136 101
141 142 100
118 122 94
119 123 93
138 141 103
110 118 91
149 150 104
132 139 104
130 127 95
141 146 109
138 143 108
118 124 99
138 142 104
171 173 123
184 179 123
145 150 106
98 109 89
149 156 115
119 125 91
175 172 120
151 152 109
142 142 103
148 149 103
163 164 106
152 150 99
165 163 115
167 165 106
150 153 109
161 164 117
157 164 120
169 169 120
166 164 104
143 146 104
163 160 111
162 164 112
167 167 117
174 173 111
171 173 123
159 156 97
167 166 111
173 170 117
171 169 117
177 172 117
178 176 117
171 168 111
176 175 117
177 176 123
175 175 123
164 166 117
167 167 117
166 166 117
148 152 104
171 172 117
157 162 111
166 166 117
165 170 117
146 145 89
180 175 104
176 174 111
173 169 111
176 176 123
185 178 111
179 173 117
165 165 111
173 174 123
137 138 97
163 164 111
155 156 104
162 159 104
156 152 104
171 169 117
169 163 111
159 158 104
151 149 97
169 168 117
166 162 111
154 155 104
149 149 104
175 173 111
164 160 104
172 168 111
173 169 111
181 176 111
177 171 117
167 171 117
151 150 104
167 165 104
160 162 104
161 159 111
172 167 104
180 202 0
169 193 0
182 203 0
182 203 0
177 201 0
183 204 0
180 202 0
176 197 0
180 202 0
182 203 0
182 200 0
183 204 0
177 201 0
178 201 0
185 205 0
176 195 0
177 196 0
178 201 0
176 197 0
184 204 0
170 191 0
174 194 0
180 200 0
179 201 0
177 201 0
181 202 0
178 201 0
169 192 0
181 203 0
181 203 0
180 199 0
185 205 0
183 204 0
179 202 0
176 197 0
184 204 0
174 195 0
177 201 0
177 200 0
180 202 0
178 198 0
180 202 0
183 204 0
173 194 0
176 200 0
182 203 0
172 193 0
186 205 0
180 202 0
183 204 0
179 201 0
184 204 0
182 203 0
179 202 0
179 201 0
176 200 0
179 202 0
173 195 0
180 202 0
183 204 0
181 203 0
175 199 0
173 194 0
172 191 0
175 199 0
178 201 0
183 201 0
179 201 0
170 192 0
177 197 0
170 192 0
176 200 0
173 191 0
180 202 0
170 193 0
179 201 0
178 201 0
182 203 0
174 196 0
177 201 0
181 203 0
166 192 0
170 193 0
169 193 0
131 155 136
70 108 186
73 109 178
71 107 168
67 103 158
71 108 178
68 105 178
71 109 186
71 108 186
69 107 178
71 109 186
70 108 186
72 109 186
69 107 178
72 109 186
70 107 186
70 107 178
70 107 178
74 110 186
71 108 186
71 108 178
69 107 186
70 107 178
70 108 186
70 108 186
70 107 178
70 108 186
70 108 186
71 108 186
72 109 186
72 109 186
71 108 186
71 108 186
68 106 186
70 108 186
69 107 178
70 107 186
72 109 186
71 108 186
70 108 186
71 108 186
70 107 178
70 108 186
71 108 186
73 110 186
72 109 186
70 108 186
71 108 186
68 106 186
69 107 186
71 108 186
68 106 186
70 107 186
69 107 186
71 109 186
72 109 186
66 104 178
69 107 186
72 108 178
68 106 186
70 108 186
69 107 178
70 107 186
70 108 186
70 108 186
71 108 186
70 107 186
69 107 186
69 107 186
72 109 186
70 108 186
71 108 186
69 107 186
69 107 186
70 108 186
70 108 186
70 108 186
70 108 186
69 107 186
69 107 186
70 108 186
71 108 186
70 108 186
70 108 186
69 107 186
70 108 186
70 107 178
72 109 186
68 107 186
69 107 186
69 107 186
69 107 186
70 108 186
71 108 186
70 108 186
72 109 186
70 108 186
71 109 186
70 107 186
70 108 186
71 108 186
70 107 178
70 108 186
70 108 186
72 109 186
69 107 186
71 108 186
70 108 186
70 107 178
72 109 186
68 107 186
69 107 186
70 108 186
71 109 186
73 110 186
73 110 186
69 107 186
73 110 186
68 106 178
70 108 186
68 106 186
69 107 186
69 107 186
70 108 186
73 109 178
70 107 178
71 108 186
70 108 186
69 107 186
69 107 186
71 108 178
71 108 186
71 108 186
70 108 186
70 108 186
72 109 186
69 107 178
70 107 186
68 105 168
70 108 186
70 108 186
72 108 178
72 109 186
71 108 186
68 103 168
70 107 178
69 105 170
70 108 186
69 107 186
72 109 186
68 105 179
70 106 179
71 107 179
65 101 168
69 106 168
66 102 168
72 109 186
70 108 186
69 107 186
67 103 168
73 110 186
70 107 178
72 109 186
68 103 162
65 98 159
67 103 178
65 97 152
70 103 164
109 124 152
92 93 65
102 104 55
103 105 71
131 128 87
90 92 66
97 94 71
130 130 90
110 110 76
79 83 63
123 124 89
139 134 93
122 123 90
98 100 77
128 125 86
69 79 60
125 126 93
76 78 63
93 97 72
123 122 82
123 123 87
132 134 99
127 127 94
77 81 60
104 111 83
82 94 83
129 135 101
114 116 91
127 130 101
92 103 86
110 114 89
103 104 79
121 123 91
104 111 85
123 120 84
90 103 89
88 93 74
120 124 93
125 132 101
125 127 96
113 114 86
89 100 90
152 153 111
122 128 99
139 144 108
152 146 101
109 115 90
110 114 87
143 146 108
129 133 99
154 151 109
127 132 101
112 121 94
108 110 83
133 142 108
115 121 94
145 147 108
153 150 109
146 149 111
158 157 112
159 161 115
151 155 114
124 128 97
135 141 106
153 153 108
166 164 117
134 135 93
176 171 118
151 153 111
124 128 95
137 143 108
152 149 99
144 143 103
155 153 109
159 156 106
157 154 109
148 151 111
172 169 111
168 169 120
160 160 111
163 161 112
175 175 123
181 173 117
164 166 117
173 170 118
158 160 114
165 164 117
162 164 112
144 146 101
163 160 106
169 163 111
166 171 123
140 143 91
154 157 109
159 160 114
173 174 123
156 161 111
175 171 117
172 169 117
159 162 111
152 155 104
181 178 123
164 166 117
167 162 111
169 168 117
152 154 104
169 168 117
165 164 111
183 178 117
160 157 97
167 167 117
171 169 117
157 163 117
169 168 117
164 166 117
168 167 117
181 178 123
157 156 104
181 172 111
174 173 111
170 171 111
165 160 104
168 166 104
166 164 104
155 156 104
167 167 117
165 165 111
158 153 104
166 164 104
167 167 117
160 158 104
165 166 117
153 151 104
178 175 111
151 148 89
180 177 123
157 157 104
165 165 111
177 176 123
168 161 97
160 156 89
178 172 117
134 137 97
176 174 111
185 179 117
156 151 97
162 164 111
168 165 104
179 202 0
178 201 0
170 192 0
180 202 0
170 192 0
174 199 0
183 204 0
179 202 0
177 201 0
177 201 0
177 201 0
179 202 0
177 201 0
181 203 0
179 202 0
179 202 0
176 200 0
180 202 0
179 201 0
178 201 0
174 194 0
179 198 0
184 204 0
182 203 0
177 201 0
181 200 0
172 195 0
180 202 0
177 201 0
176 200 0
181 203 0
177 201 0
182 203 0
181 203 0
182 203 0
172 194 0
183 204 0
183 204 0
180 202 0
178 201 0
181 200 0
180 202 0
176 196 0
180 202 0
170 194 0
178 201 0
183 204 0
185 205 0
179 202 0
180 202 0
180 202 0
176 200 0
182 203 0
177 200 0
180 202 0
180 202 0
180 202 0
178 201 0
182 203 0
180 202 0
181 203 0
176 200 0
180 202 0
169 193 0
182 203 0
169 193 0
181 203 0
181 202 0
182 203 0
167 192 0
180 202 0
175 192 0
181 202 0
181 203 0
185 205 0
182 203 0
182 203 0
174 195 0
184 204 0
175 199 0
176 200 0
182 203 0
170 192 0
128 154 136
72 109 186
71 107 168
71 108 186
73 110 186
71 108 178
70 108 186
71 107 168
70 108 186
71 108 186
70 107 178
71 109 186
68 106 178
69 106 168
71 109 186
69 105 158
66 104 168
70 107 178
72 109 186
71 108 178
69 107 186
70 108 186
69 107 186
72 109 178
68 106 186
71 108 178
71 109 186
71 108 186
71 108 186
69 107 186
69 107 186
68 107 186
74 111 186
70 108 186
68 105 168
71 108 186
71 109 186
71 108 186
68 107 186
70 107 178
70 107 186
70 108 186
69 107 186
68 106 178
71 108 186
70 108 186
71 108 186
70 107 186
71 109 186
70 108 186
71 108 178
71 108 186
69 107 178
68 106 186
70 108 186
69 107 186
69 107 186
72 109 186
69 107 186
70 108 186
70 108 186
70 108 186
72 109 186
73 110 186
70 108 186
71 108 186
71 108 186
69 107 186
70 107 186
70 108 186
70 107 186
70 107 178
70 107 178
69 107 186
72 109 186
70 108 186
69 106 178
71 108 186
71 109 186
72 109 186
70 108 186
71 109 186
71 109 186
71 109 186
69 107 186
70 108 186
70 108 186
69 107 186
72 109 186
70 107 186
71 109 186
69 107 186
71 108 186
72 109 186
70 108 186
70 107 186
71 108 186
70 108 186
69 107 186
71 109 186
70 107 186
70 108 186
70 108 186
70 108 186
70 107 178
70 108 186
69 107 186
73 110 186
70 108 186
71 108 186
70 107 178
69 107 186
69 107 186
70 107 186
70 106 168
73 110 186
69 107 186
69 107 186
70 108 186
68 107 186
71 108 186
71 108 178
71 108 178
69 107 186
71 109 186
71 108 186
71 108 186
71 109 186
71 109 186
70 107 178
68 106 178
70 107 186
68 106 186
70 108 186
69 107 178
72 109 186
72 109 186
72 109 186
69 107 186
68 106 178
72 109 186
72 109 186
68 106 178
68 105 168
70 107 186
68 105 170
71 108 178
69 107 186
67 104 170
70 107 186
70 107 178
72 109 186
66 102 178
71 108 178
69 105 179
67 103 160
70 106 178
71 108 186
70 107 178
68 103 178
71 108 186
70 108 186
69 106 179
67 103 160
70 105 172
72 108 178
67 105 168
68 105 179
67 102 162
67 100 153
85 98 123
120 120 76
133 130 76
100 104 85
123 121 76
77 76 57
109 109 77
143 142 100
127 129 98
105 109 83
79 82 71
110 110 72
106 107 79
68 74 60
113 116 90
128 127 93
107 109 83
111 114 85
110 110 81
55 71 63
123 126 95
95 101 79
89 93 65
118 122 91
94 92 68
93 97 75
120 119 87
100 101 82
96 100 81
75 78 58
125 127 96
122 126 99
133 133 97
111 117 91
127 126 92
149 147 98
106 110 85
159 155 108
115 121 92
135 138 104
156 156 114
121 126 97
126 129 98
99 103 78
134 136 103
142 139 101
114 121 83
112 114 84
127 129 94
128 129 98
134 139 104
118 125 98
118 121 91
149 147 106
124 122 89
126 126 85
124 132 97
109 113 78
112 111 82
162 162 115
142 143 100
142 143 98
157 156 98
169 160 108
148 151 109
152 155 114
177 168 114
144 146 106
142 142 101
156 154 109
140 138 92
152 158 111
167 168 120
147 149 111
134 137 104
163 162 111
129 131 87
168 171 117
144 147 106
161 162 106
145 149 109
147 149 108
156 152 101
157 158 112
121 129 97
178 173 120
161 160 104
142 143 101
153 156 108
167 166 112
164 159 97
182 178 123
169 168 118
166 167 117
171 173 123
159 158 111
165 165 112
172 168 111
174 175 123
181 176 111
179 176 117
152 153 89
167 170 111
172 170 97
180 177 123
172 173 117
176 176 123
181 177 117
175 169 111
171 169 117
150 154 104
150 148 97
173 169 111
167 167 117
159 159 111
179 175 117
181 176 111
162 160 111
182 177 117
167 166 111
175 174 117
176 171 117
172 173 117
176 174 117
176 171 117
150 148 97
174 175 123
157 154 89
174 171 104
170 168 117
176 176 123
176 175 117
162 159 104
183 174 117
162 159 104
160 158 104
162 163 104
176 175 123
141 143 89
173 172 111
159 153 104
160 156 89
163 160 104
138 137 89
147 145 89
170 170 104
163 157 89
179 202 0
180 202 0
179 201 0
181 202 0
181 203 0
180 202 0
177 200 0
182 203 0
180 202 0
180 202 0
175 200 0
171 192 0
181 203 0
184 204 0
175 196 0
172 194 0
184 204 0
180 199 0
183 204 0
180 202 0
180 201 0
173 195 0
182 203 0
180 202 0
179 202 0
184 204 0
178 201 0
177 200 0
180 202 0
179 201 0
172 195 0
176 200 0
181 203 0
178 201 0
177 196 0
179 202 0
180 202 0
181 203 0
183 204 0
179 202 0
174 195 0
182 203 0
173 195 0
182 203 0
175 197 0
178 201 0
182 203 0
178 201 0
181 203 0
173 194 0
181 203 0
172 194 0
175 200 0
179 202 0
181 203 0
182 203 0
177 200 0
179 202 0
175 200 0
179 201 0
179 202 0
180 202 0
187 206 0
186 206 0
167 192 0
182 197 0
180 202 0
183 204 0
170 192 0
181 203 0
178 198 0
177 200 0
182 203 0
178 201 0
181 203 0
174 197 0
180 202 0
185 205 0
176 200 0
184 204 0
179 202 0
178 201 0
173 196 65
71 107 168
73 109 178
71 107 168
70 106 168
71 108 178
71 108 178
71 108 186
69 107 186
70 107 178
73 110 186
69 107 178
72 109 186
67 105 168
70 107 178
70 107 168
71 108 186
71 108 186
69 106 168
70 108 186
71 108 178
68 106 178
71 109 186
68 106 178
70 107 178
71 108 186
72 109 186
73 110 186
68 107 186
69 107 186
70 108 186
70 107 186
72 108 178
70 108 186
70 107 186
71 109 186
70 108 186
70 107 186
69 106 178
73 110 186
69 107 186
72 109 186
71 108 186
70 108 186
71 108 186
69 106 178
70 108 186
70 108 186
70 107 186
68 107 186
69 106 178
70 107 186
69 107 186
71 109 186
70 107 186
70 107 186
69 107 186
69 107 186
71 108 186
69 107 186
71 108 186
71 109 186
71 109 186
66 102 178
70 108 186
70 108 186
73 110 186
71 108 186
70 107 178
71 108 186
68 107 186
72 109 186
71 108 186
70 108 186
70 108 186
71 109 186
68 106 186
72 109 186
74 110 186
70 108 186
72 109 186
70 107 186
71 109 186
70 108 186
71 108 186
72 109 186
72 109 186
70 108 186
71 109 186
72 109 186
70 107 186
71 108 186
71 108 186
71 108 186
71 109 186
71 108 186
71 108 186
69 107 186
71 108 186
68 106 186
70 108 186
70 108 186
71 109 186
71 108 186
72 109 186
71 108 186
71 108 186
71 108 186
71 109 186
69 107 186
69 107 186
70 108 186
71 108 186
70 108 186
69 107 178
70 108 186
68 106 178
70 108 186
72 109 178
70 108 186
71 108 186
70 108 186
70 108 186
72 109 186
69 107 186
71 108 186
71 108 186
69 107 186
69 107 178
69 107 186
70 108 186
71 108 186
70 107 178
71 108 178
72 109 186
71 109 186
70 107 186
71 108 186
69 107 186
72 109 186
73 110 186
71 108 186
70 108 186
70 107 178
72 109 186
72 109 186
73 110 186
71 108 178
71 107 168
70 107 178
68 107 186
71 109 186
71 108 178
71 108 178
73 109 178
69 105 179
68 105 168
72 107 160
72 108 178
70 106 179
72 109 186
68 104 178
70 107 178
71 108 186
69 107 178
74 110 186
68 105 179
70 107 178
72 108 179
65 98 168
67 103 178
61 92 145
72 83 87
110 115 90
113 111 79
77 88 74
123 120 75
128 124 86
136 133 87
144 141 90
116 119 89
109 109 79
112 112 82
94 97 73
81 90 77
113 113 74
141 138 97
120 120 85
103 107 74
74 83 69
139 138 98
106 110 85
39 52 52
77 79 61
121 123 97
70 81 68
127 128 97
98 102 78
124 127 90
102 106 78
108 110 79
94 97 76
105 113 92
85 88 65
153 149 104
118 118 89
144 150 112
116 122 95
121 125 94
72 80 63
136 136 97
74 80 71
93 106 95
152 154 108
120 124 95
157 160 115
114 117 87
147 150 110
111 117 91
110 116 88
124 126 95
91 100 79
123 127 97
154 153 108
136 142 104
122 122 84
111 122 93
115 121 87
131 132 97
158 159 114
122 130 95
121 130 101
148 153 111
165 167 120
113 119 94
120 127 101
147 150 104
162 165 114
155 159 111
140 141 103
98 103 84
163 161 108
155 158 111
156 158 108
159 154 103
149 147 105
149 153 112
166 163 114
130 134 95
145 144 95
176 175 123
164 165 111
151 151 106
139 141 97
163 160 106
165 165 111
165 165 108
148 148 104
155 158 114
160 160 108
163 165 112
164 163 115
174 175 123
143 145 93
151 149 99
180 176 117
152 154 104
161 160 111
170 172 117
171 169 117
148 152 97
163 163 104
179 177 123
168 163 111
164 160 104
176 175 123
171 171 111
180 177 117
171 169 117
180 177 123
162 165 117
166 162 111
173 173 117
152 155 111
157 151 97
159 159 111
147 147 97
170 172 117
178 172 117
160 159 111
164 161 111
152 148 89
169 162 104
181 176 117
169 173 123
174 174 117
179 168 111
170 167 111
154 149 97
158 157 104
128 128 89
181 178 123
166 163 89
164 165 111
172 168 111
169 167 111
158 158 111
162 159 104
174 173 111
177 172 117
157 157 104
169 165 97
166 163 97
165 160 104
166 163 89
144 140 89
169 167 111
161 160 111
165 188 0
183 204 0
180 202 0
168 192 0
178 201 0
181 202 0
183 201 0
178 201 0
181 203 0
180 202 0
177 201 0
180 202 0
171 189 0
173 196 0
182 203 0
181 203 0
182 203 0
175 196 0
163 185 0
177 197 0
180 202 0
171 194 0
178 201 0
180 202 0
170 193 0
179 202 0
181 203 0
178 201 0
174 197 0
179 202 0
182 203 0
179 201 0
169 191 0
182 203 0
180 202 0
178 201 0
181 202 0
174 197 0
178 201 0
182 200 0
182 203 0
172 194 0
179 202 0
182 203 0
174 195 0
173 194 0
179 202 0
178 198 0
175 196 0
179 202 0
178 201 0
185 205 0
180 199 0
183 204 0
181 203 0
184 205 0
178 201 0
178 201 0
170 192 0
172 195 0
179 202 0
174 195 0
183 204 0
179 202 0
180 202 0
180 202 0
182 203 0
177 200 0
180 202 0
177 197 0
180 202 0
173 195 0
180 202 0
180 202 0
175 196 0
184 204 0
181 203 0
181 203 0
180 202 0
176 200 0
172 195 0
160 185 65
68 105 158
69 105 158
71 108 178
74 111 186
70 106 158
73 109 178
69 107 186
72 109 178
71 109 186
72 108 178
71 109 186
69 106 178
69 106 178
72 109 186
71 108 178
71 108 186
71 108 178
68 106 178
71 109 186
71 108 186
70 107 168
71 109 186
72 109 186
70 108 186
71 108 178
70 108 186
70 107 186
68 105 178
73 109 178
71 108 186
69 107 186
72 109 186
71 109 186
69 107 186
71 109 186
70 108 186
71 108 178
73 110 186
72 109 186
70 107 178
72 109 186
70 108 186
70 108 186
71 109 186
69 107 186
69 106 178
72 109 186
69 107 178
69 107 186
69 107 186
71 108 186
69 107 186
69 107 178
72 109 186
70 107 186
70 107 186
70 108 186
71 108 186
70 108 186
69 107 178
70 108 186
71 109 186
73 109 178
71 108 186
68 106 178
71 109 186
70 107 186
70 108 186
70 108 186
71 108 186
69 107 186
68 106 186
69 107 186
69 107 186
71 108 186
72 109 186
69 107 186
71 108 186
69 107 186
70 107 186
70 108 186
70 108 186
71 108 178
73 110 186
69 107 186
72 109 186
70 108 186
71 109 186
70 107 186
71 108 186
69 107 186
70 108 186
73 110 186
71 108 186
73 110 186
72 109 186
72 109 186
70 108 186
70 108 186
71 109 186
69 107 186
70 107 186
71 109 186
70 108 186
72 109 186
72 109 186
71 108 178
71 108 186
71 108 178
71 108 186
71 108 186
71 109 186
70 108 186
69 107 186
68 106 186
70 108 186
70 107 186
71 108 178
71 108 178
72 109 186
69 107 186
70 108 186
71 109 186
72 109 186
70 108 186
67 105 178
70 108 186
71 109 186
70 108 186
69 107 186
72 108 178
69 106 168
70 107 186
68 106 178
70 108 186
72 109 186
70 107 178
69 106 178
70 107 178
71 109 186
71 108 178
70 108 186
74 109 179
70 107 178
72 109 186
72 109 186
69 106 179
71 109 186
70 107 178
71 108 186
72 109 186
74 110 178
70 108 186
71 109 186
67 104 179
71 108 186
70 108 186
71 108 186
72 109 178
72 109 186
70 105 172
71 107 168
69 103 170
70 108 186
70 108 186
67 103 170
73 109 178
69 107 178
70 106 168
61 94 150
66 102 168
66 100 160
64 96 154
130 128 106
124 121 82
109 110 77
77 78 57
115 113 82
95 98 63
117 119 86
85 85 52
140 139 98
131 131 81
109 110 78
105 107 76
118 122 90
89 90 68
78 80 64
74 82 73
126 125 90
108 108 77
107 108 82
91 95 72
112 117 90
145 146 103
134 136 101
110 114 89
99 99 73
139 139 101
78 81 66
98 98 74
80 85 70
104 108 78
93 99 81
125 125 90
129 133 101
70 81 66
106 113 89
160 160 111
128 131 95
153 153 108
101 104 82
120 124 91
122 128 95
133 135 101
88 99 81
121 128 97
117 125 99
117 120 87
152 155 111
109 115 90
117 124 93
133 135 98
83 91 73
111 117 95
129 135 104
133 134 97
125 130 92
105 109 77
154 154 104
126 134 104
78 86 61
152 153 111
135 143 104
145 143 103
153 159 117
121 124 93
149 157 117
163 162 114
113 121 93
153 155 114
147 144 101
128 131 97
168 165 117
153 152 108
170 170 120
176 175 123
175 170 111
169 168 117
158 157 104
132 133 93
157 155 101
153 153 109
169 168 114
159 161 114
159 155 108
162 160 111
164 162 115
171 173 123
175 173 111
142 147 103
168 163 112
160 164 118
164 164 111
189 182 123
168 167 111
168 167 117
167 166 111
158 156 97
165 166 117
170 168 111
152 154 104
187 180 117
173 169 111
166 166 117
161 164 117
169 171 117
165 165 111
171 169 117
179 175 111
175 169 111
170 168 117
179 173 117
144 147 104
172 172 111
163 163 104
167 162 111
167 167 117
168 167 111
177 172 117
176 170 111
184 179 123
156 156 104
172 169 117
170 168 111
172 173 117
170 166 104
146 145 89
186 179 117
126 126 81
172 169 117
173 172 111
171 167 104
175 170 111
164 160 104
176 173 104
167 165 104
158 157 104
142 144 89
176 175 117
180 175 111
169 165 97
167 165 104
163 164 111
181 176 111
159 153 97
158 156 97
178 174 104
174 195 0
177 198 0
174 194 0
181 203 0
181 200 0
182 203 0
178 201 0
180 202 0
181 203 0
180 202 0
176 195 0
178 201 0
181 203 0
182 203 0
184 204 0
182 203 0
180 202 0
176 200 0
167 190 0
177 201 0
183 204 0
172 194 0
181 199 0
181 202 0
181 203 0
179 202 0
184 204 0
182 203 0
180 202 0
181 200 0
179 202 0
175 200 0
181 203 0
174 195 0
179 202 0
185 205 0
183 204 0
179 202 0
179 202 0
183 204 0
173 195 0
171 192 0
188 207 0
182 203 0
177 201 0
182 203 0
178 201 0
180 202 0
182 203 0
179 202 0
180 202 0
181 203 0
174 195 0
174 195 0
185 205 0
178 201 0
174 195 0
172 193 0
173 195 0
180 202 0
176 200 0
175 196 0
182 203 0
180 202 0
182 203 0
178 201 0
176 197 0
176 197 0
175 196 0
172 193 0
179 202 0
162 185 0
177 197 0
182 203 0
182 200 0
172 193 0
180 202 0
181 203 0
181 203 0
170 192 0
175 196 65
126 154 148
71 108 178
72 109 186
70 106 168
69 107 178
69 106 168
73 110 186
69 107 186
70 107 178
73 110 186
68 106 178
69 106 168
69 107 178
71 109 186
72 108 178
69 107 178
71 108 186
69 107 186
73 110 186
71 108 186
70 107 178
74 111 186
69 107 186
72 109 178
72 109 186
72 109 186
70 108 186
70 108 186
72 109 186
70 108 186
69 107 186
71 108 186
71 108 186
70 108 186
68 106 178
68 106 178
69 107 186
68 106 186
69 106 178
69 107 186
70 108 186
71 108 186
69 107 186
69 107 186
71 108 186
72 109 186
73 110 186
70 108 186
69 107 178
72 109 186
68 106 186
71 108 186
70 108 186
71 108 186
71 109 186
71 108 186
69 107 186
68 104 178
71 108 186
72 109 186
69 107 186
69 107 186
69 107 186
69 107 186
69 107 186
70 108 186
69 107 178
70 107 186
69 107 186
71 108 186
71 109 186
70 108 186
69 107 186
72 109 186
70 108 186
70 108 186
72 109 186
71 108 186
71 108 186
72 109 186
69 107 186
72 109 186
72 109 186
70 108 186
71 109 186
68 107 186
71 109 186
71 108 186
71 109 186
69 107 186
68 106 186
70 107 186
70 108 186
69 107 186
71 108 186
70 107 186
70 108 186
70 108 186
71 108 186
72 109 186
70 107 186
72 109 186
72 109 186
72 109 186
71 108 186
69 107 186
71 108 178
71 108 178
72 109 186
69 107 178
70 108 186
69 107 186
70 107 168
70 108 186
71 108 186
70 108 186
69 106 178
72 109 186
70 107 186
72 109 186
69 107 186
73 110 186
70 107 186
72 109 178
69 107 186
72 109 186
72 109 186
72 109 186
70 108 186
69 106 179
70 108 186
72 109 186
70 107 186
70 108 186
70 107 186
71 108 186
70 108 186
71 108 178
70 107 178
71 108 186
71 108 186
72 109 186
72 109 186
71 108 186
71 109 186
70 108 186
72 109 186
71 108 178
70 107 178
69 107 186
72 109 186
71 107 179
72 109 186
71 108 168
72 108 179
71 108 186
66 102 168
70 105 168
71 108 186
69 107 186
70 105 178
70 107 178
71 108 186
67 105 178
72 108 179
67 103 168
72 109 186
69 107 178
68 103 162
67 103 178
59 91 158
70 106 179
65 100 148
66 102 168
89 112 163
94 97 76
112 111 72
142 137 96
42 55 53
80 84 62
120 124 86
131 128 81
90 95 72
90 93 65
127 125 87
95 101 81
71 74 59
127 127 94
97 104 89
122 123 86
89 90 65
73 78 65
75 85 70
107 112 83
97 98 69
96 103 82
133 136 101
79 86 72
82 93 81
78 87 78
112 116 90
125 126 94
115 117 87
70 79 67
92 99 78
73 86 78
90 100 81
108 116 92
126 129 90
88 96 77
114 118 91
125 127 92
123 126 91
105 113 88
108 111 82
146 146 105
54 72 72
104 111 89
108 114 89
88 94 76
113 116 91
137 137 101
77 86 78
110 115 91
124 125 94
98 106 87
152 153 106
106 108 76
128 127 92
127 129 97
141 146 104
141 143 104
114 114 87
138 139 104
139 144 109
145 148 108
153 151 108
133 133 97
137 138 101
133 137 104
161 155 106
106 110 77
148 147 108
124 134 101
155 157 111
138 136 91
149 152 99
149 151 109
126 129 90
127 133 103
156 156 104
149 149 103
134 134 97
142 146 89
110 113 87
164 163 115
157 158 108
136 137 93
161 157 112
172 174 123
174 173 111
181 178 123
172 173 117
122 128 95
166 167 118
177 176 123
170 169 114
161 157 97
165 166 117
184 179 123
158 162 111
164 166 117
176 174 111
162 163 104
169 168 117
168 166 111
170 173 123
158 156 97
187 179 111
185 179 123
174 174 117
161 160 89
163 163 104
161 163 104
173 170 117
166 166 111
154 159 104
165 168 104
168 165 104
160 157 97
173 171 104
149 148 97
159 156 97
183 177 111
160 160 89
176 174 111
165 160 104
136 137 89
164 160 104
148 146 97
173 168 104
172 167 104
156 155 97
163 163 104
173 173 111
162 160 111
171 167 104
181 175 104
167 168 97
170 165 97
156 156 104
148 146 97
170 162 97
171 168 111
153 154 97
157 157 104
172 168 111
158 154 97
155 149 89
182 203 0
178 201 0
183 204 0
178 201 0
176 200 0
182 203 0
185 205 0
181 203 0
181 203 0
183 204 0
182 203 0
179 202 0
185 205 0
181 203 0
171 194 0
180 202 0
183 204 0
169 192 0
173 194 0
175 195 0
181 203 0
181 203 0
181 203 0
174 195 0
179 202 0
173 194 0
179 202 0
178 201 0
170 194 0
163 184 0
179 202 0
179 201 0
182 203 0
179 202 0
178 201 0
180 202 0
180 202 0
177 201 0
165 186 0
181 202 0
177 200 0
174 195 0
179 202 0
171 194 0
187 206 0
178 201 0
176 200 0
180 202 0
162 185 0
179 202 0
173 194 0
173 195 0
180 202 0
183 204 0
184 204 0
179 199 0
180 202 0
182 203 0
181 202 0
182 203 0
176 200 0
187 206 0
176 200 0
178 201 0
182 197 0
177 201 0
186 205 0
174 194 0
162 184 0
179 202 0
178 201 0
180 202 0
180 202 0
177 201 0
178 201 0
180 202 0
179 202 0
181 203 0
170 193 0
168 191 0
114 142 148
72 109 186
68 105 168
74 110 186
72 109 186
73 110 186
70 108 186
67 103 178
70 106 168
72 109 178
70 108 186
69 106 178
72 109 186
71 108 178
67 105 168
70 107 186
71 108 186
69 106 168
71 109 186
72 109 178
71 108 186
70 107 178
71 108 186
69 106 178
70 108 186
70 108 186
72 108 178
71 109 186
72 109 186
71 108 186
70 108 186
71 108 186
69 107 186
70 108 186
70 108 186
72 109 186
71 108 178
69 107 186
71 108 186
70 108 186
70 108 186
73 109 178
69 107 186
71 108 186
73 110 186
72 109 186
73 110 186
69 107 186
70 108 186
71 108 186
71 108 186
72 109 186
70 108 186
70 107 186
70 108 186
69 107 186
69 107 186
71 109 186
73 110 186
70 108 186
72 109 186
72 109 186
68 107 186
69 107 186
71 108 178
71 109 186
70 108 186
70 108 186
70 108 186
71 109 186
72 109 186
70 108 186
71 108 178
69 107 186
70 108 186
70 108 186
72 109 186
68 106 186
70 108 186
71 108 178
70 108 186
70 108 186
69 107 186
71 108 186
69 107 186
72 109 186
71 108 186
70 108 186
70 108 186
69 107 178
69 107 186
70 107 178
69 107 178
71 109 186
68 106 186
71 108 186
71 108 186
71 108 186
68 107 186
71 108 178
71 108 186
72 109 186
69 107 186
70 108 186
71 109 186
71 108 186
69 106 178
72 109 186
69 107 178
71 109 186
69 106 168
71 108 186
70 107 186
69 107 186
69 106 178
70 108 186
69 107 186
71 108 186
70 108 186
71 108 186
73 110 186
72 109 186
69 107 186
72 109 186
70 108 186
68 106 186
71 109 186
73 110 186
70 107 186
71 109 186
72 109 186
69 106 178
69 107 186
70 107 186
69 107 186
70 108 186
71 108 186
69 106 168
71 109 186
74 111 186
72 109 186
70 108 186
70 106 168
71 109 186
72 108 179
71 108 178
70 107 178
71 109 186
70 108 186
69 105 170
70 107 178
70 107 178
69 107 178
74 110 186
70 108 186
70 107 178
71 109 186
71 108 178
71 108 186
68 106 178
72 108 178
71 108 178
71 108 178
70 108 186
66 101 168
71 106 170
73 109 178
68 106 178
68 102 170
66 102 150
66 102 168
71 108 178
71 108 178
69 107 178
72 109 186
67 102 162
104 117 141
134 133 87
35 47 49
123 118 72
85 83 47
67 74 63
130 127 92
129 128 94
109 105 71
92 93 67
100 105 73
91 96 76
112 115 87
110 114 85
76 82 67
143 140 101
91 97 79
48 63 56
104 105 73
144 143 105
73 85 75
121 123 91
71 76 61
72 83 67
135 135 95
107 110 81
73 84 74
77 88 77
100 101 74
116 119 94
101 102 73
72 77 66
125 127 94
104 109 85
122 128 97
118 124 94
124 125 94
131 137 96
137 138 101
119 122 92
125 124 87
53 70 70
144 146 104
117 123 90
106 112 86
108 115 95
162 159 114
132 139 108
83 86 63
151 154 111
137 141 102
103 105 85
143 141 86
89 97 76
108 118 97
89 99 85
109 114 88
138 140 93
142 143 101
166 165 117
131 132 89
135 135 97
132 139 103
156 155 110
135 139 99
164 159 111
151 150 101
157 160 114
171 169 118
146 147 106
112 120 94
141 137 97
142 144 106
164 166 114
166 167 117
132 133 97
157 157 108
148 150 103
160 165 120
150 154 114
165 163 115
175 174 111
142 147 101
156 161 106
133 137 101
152 155 103
163 164 112
163 161 112
156 159 112
163 163 104
169 165 97
170 168 117
160 163 111
144 147 106
165 164 104
170 168 117
174 169 111
170 167 111
178 176 123
175 174 117
181 178 123
170 167 111
175 175 123
170 166 104
173 173 117
160 157 97
169 171 111
176 170 111
156 157 111
171 168 111
162 164 111
179 173 117
172 173 117
161 163 111
136 130 81
169 170 104
166 164 104
171 167 104
152 153 97
169 171 117
167 166 111
166 161 104
165 163 97
162 158 97
158 156 97
150 155 111
171 164 111
184 177 104
163 161 111
183 178 117
150 148 97
166 162 111
160 160 89
149 147 89
155 153 81
159 158 104
163 163 104
155 149 89
188 181 123
166 164 104
124 123 59
178 176 117
149 148 97
144 141 59
179 202 0
181 203 0
184 204 0
180 202 0
180 202 0
176 200 0
176 197 0
177 201 0
180 202 0
179 202 0
176 200 0
181 203 0
181 203 0
176 200 0
173 195 0
181 203 0
180 202 0
182 203 0
185 205 0
171 194 0
181 203 0
179 202 0
178 201 0
178 201 0
176 200 0
181 203 0
180 202 0
183 204 0
184 204 0
180 202 0
174 195 0
181 203 0
174 196 0
182 203 0
170 188 0
180 202 0
169 193 0
178 201 0
184 204 0
176 200 0
178 201 0
179 202 0
178 201 0
167 188 0
178 201 0
177 201 0
182 203 0
178 201 0
179 200 0
182 203 0
179 202 0
180 202 0
177 198 0
179 202 0
175 200 0
172 194 0
177 201 0
177 197 0
184 205 0
185 205 0
170 195 0
180 202 0
169 192 0
163 186 0
182 203 0
181 200 0
181 203 0
178 198 0
178 201 0
182 203 0
174 195 0
178 201 0
182 203 0
174 196 0
176 200 0
176 200 0
180 199 0
179 202 0
178 201 0
148 172 123
72 109 178
70 108 186
73 109 178
70 107 178
71 108 168
69 107 178
72 109 186
70 107 178
70 107 186
67 103 148
70 108 186
68 105 178
71 108 178
70 108 186
73 110 186
74 110 186
70 108 186
73 110 186
71 109 186
71 108 186
67 103 178
69 106 168
72 109 186
70 107 186
70 107 186
72 109 186
72 109 186
70 107 186
70 108 186
70 108 186
72 109 186
72 109 186
71 108 178
69 107 186
72 109 186
73 110 186
71 108 178
71 108 186
72 109 186
71 109 186
70 107 178
71 109 186
71 108 186
71 108 186
70 107 186
71 109 186
71 108 178
69 107 186
70 108 186
70 107 186
71 109 186
70 107 178
70 108 186
71 108 186
71 108 186
72 109 186
70 107 178
70 108 186
70 108 186
70 107 186
70 108 186
69 107 186
71 108 186
72 109 186
70 108 186
72 109 186
72 109 186
69 107 186
70 108 186
70 107 186
71 108 186
69 107 186
70 108 186
71 108 186
71 109 186
71 108 186
71 108 186
72 109 186
70 108 186
69 107 186
72 109 186
71 108 186
71 108 186
70 107 186
71 109 186
70 108 186
70 108 186
72 109 186
70 108 186
70 108 186
71 108 186
71 108 186
71 109 186
70 108 186
72 109 186
71 108 186
69 107 186
69 107 186
69 107 186
71 108 186
73 110 186
69 107 186
70 108 186
71 109 186
71 108 178
68 106 168
71 108 186
71 108 178
69 107 186
71 108 186
72 109 186
70 107 186
70 108 186
68 106 186
68 106 178
69 107 186
70 107 178
72 109 186
72 109 186
73 110 186
70 108 186
70 108 186
73 110 186
71 108 178
70 107 168
72 109 186
71 108 186
72 109 186
70 107 178
72 109 186
70 108 186
70 108 186
70 108 186
70 108 186
70 107 186
69 107 178
71 108 178
72 109 186
72 109 178
69 107 186
70 108 186
69 107 186
69 106 178
72 109 186
70 106 179
69 106 178
69 107 186
69 106 178
70 108 186
71 109 186
70 107 178
73 110 186
70 106 168
72 109 186
71 107 168
69 107 186
69 105 179
68 103 168
68 105 170
71 106 170
68 105 158
72 108 178
67 104 179
64 98 150
71 108 178
70 106 179
69 106 178
67 103 178
71 109 186
70 106 178
66 97 154
68 104 170
65 100 160
70 107 168
72 107 179
60 92 138
66 101 170
103 114 136
142 136 91
110 110 63
95 92 32
74 75 59
126 127 93
108 111 85
91 95 71
70 80 66
76 82 68
64 68 45
112 112 77
79 92 86
93 102 83
108 108 74
92 95 67
75 84 72
95 99 79
67 69 48
96 102 82
96 101 80
94 98 77
111 116 91
94 96 72
127 126 91
86 94 81
108 115 90
126 127 94
134 135 98
93 98 77
122 128 101
111 112 78
113 111 76
95 105 86
141 143 104
114 119 91
123 126 94
132 136 98
140 140 99
118 123 95
75 85 73
142 143 101
115 113 81
117 120 88
130 135 101
142 142 106
117 122 93
137 144 108
119 124 90
157 154 104
134 135 94
111 113 88
98 101 79
138 140 101
148 147 104
137 142 104
132 137 97
135 137 101
133 133 92
146 147 109
144 145 104
119 119 82
163 159 112
154 153 109
152 151 101
145 147 104
141 143 104
95 98 78
126 131 85
151 150 101
121 123 81
149 149 101
130 138 103
149 149 101
146 149 101
142 144 99
138 141 99
146 148 106
128 134 99
155 162 118
158 159 114
151 151 104
142 144 106
157 158 108
151 157 114
176 174 111
171 166 97
147 146 104
169 168 117
159 157 99
172 173 117
141 144 91
180 173 117
156 157 106
170 168 117
150 147 89
163 161 111
179 176 117
181 178 123
173 174 123
176 175 117
162 164 111
174 174 117
151 150 104
182 178 123
188 181 123
168 165 104
169 161 97
167 167 117
180 177 117
171 168 111
164 164 104
169 167 111
173 170 117
182 177 117
159 161 104
170 166 104
179 176 117
170 170 104
161 156 89
172 167 104
167 165 111
171 168 111
151 149 97
187 180 123
180 176 117
164 159 97
164 164 104
182 176 111
174 170 117
167 167 117
154 154 104
166 168 97
159 155 89
155 146 97
163 162 97
161 161 89
186 179 117
173 169 111
173 167 97
165 161 111
162 157 89
146 146 89
176 200 0
178 197 0
176 200 0
176 200 0
180 202 0
181 202 0
173 195 0
169 191 0
178 201 0
180 202 0
169 189 0
178 201 0
179 201 0
179 202 0
169 192 0
180 202 0
177 200 0
164 187 0
179 202 0
174 199 0
182 203 0
179 202 0
172 195 0
175 200 0
185 205 0
173 195 0
182 203 0
173 194 0
179 202 0
167 190 0
182 203 0
168 188 0
177 201 0
177 198 0
182 203 0
179 202 0
184 204 0
175 200 0
179 202 0
180 202 0
181 203 0
177 201 0
179 202 0
169 192 0
180 202 0
181 203 0
181 203 0
178 201 0
184 204 0
178 201 0
179 202 0
179 202 0
179 201 0
175 196 0
166 187 0
174 194 0
174 195 0
183 204 0
179 202 0
162 184 0
180 202 0
178 198 0
180 202 0
179 201 0
171 189 0
179 202 0
162 185 0
180 202 0
178 201 0
176 200 0
174 195 0
181 203 0
181 203 0
178 198 0
180 202 0
174 199 0
173 193 0
180 202 0
167 188 65
71 108 186
71 108 178
70 107 168
72 109 186
70 107 168
71 109 186
68 104 148
70 107 178
71 108 186
70 107 178
71 108 178
72 109 186
72 108 178
69 106 168
70 108 186
70 108 186
70 108 186
71 108 186
72 109 186
70 108 186
71 108 186
70 107 178
73 110 186
73 110 186
69 106 178
71 107 168
70 107 186
70 107 178
70 108 186
73 110 186
71 108 186
72 109 186
72 109 186
70 108 186
71 109 186
70 108 178
71 109 186
72 109 186
68 103 178
71 109 186
70 108 186
71 109 186
71 109 186
72 109 186
69 107 186
70 108 186
70 107 186
70 108 186
73 110 186
72 109 186
71 109 186
70 108 186
69 107 186
70 107 178
69 107 186
71 109 186
70 107 186
71 108 186
74 110 186
72 109 186
71 108 178
70 108 186
71 108 186
70 107 178
70 108 186
70 107 186
71 109 186
72 109 186
71 108 186
71 108 186
71 108 186
71 108 186
72 109 186
70 108 186
71 108 186
69 107 186
71 109 186
69 107 186
71 108 178
70 108 186
71 108 186
71 108 178
71 108 186
73 110 186
69 107 186
69 107 186
71 108 186
71 108 186
70 108 186
70 108 186
70 107 186
70 107 178
68 106 186
71 108 178
70 108 186
71 108 186
71 109 186
71 108 186
69 107 186
72 109 186
69 107 186
69 106 168
71 108 186
70 108 186
69 106 178
70 108 186
69 107 178
71 109 186
70 107 186
69 107 186
72 109 186
72 109 186
70 108 186
68 106 186
69 107 186
73 110 186
68 106 178
71 109 186
70 108 186
72 109 186
72 109 186
70 108 186
72 109 186
71 108 178
73 110 186
72 109 186
70 108 186
71 108 186
69 107 186
68 105 168
70 108 186
71 108 178
73 110 186
71 109 186
69 107 186
71 109 186
71 108 186
70 108 186
72 109 178
70 108 186
72 108 178
70 107 178
68 106 178
69 107 186
72 109 186
72 109 186
69 106 168
71 107 179
72 109 178
70 105 160
70 108 186
69 106 178
69 106 178
71 108 186
72 108 178
72 108 178
72 109 186
69 106 179
72 109 186
71 108 178
69 107 186
68 103 178
65 99 160
68 105 178
71 108 178
67 106 186
70 107 178
70 106 179
67 103 170
68 104 160
70 106 179
67 101 160
71 108 178
71 108 186
69 106 168
70 107 178
71 107 168
71 107 168
62 93 150
103 112 133
94 96 72
96 96 68
103 102 70
74 80 67
111 108 75
89 93 55
46 60 60
132 132 94
98 98 69
47 61 52
74 80 67
123 122 86
70 78 60
74 81 63
45 56 47
126 130 99
79 88 74
127 121 81
135 135 98
93 101 82
120 121 89
83 90 70
74 82 72
116 119 90
115 117 87
99 103 82
121 127 98
71 74 58
126 128 98
110 114 85
97 100 79
142 139 101
87 93 80
102 111 82
149 148 106
94 101 82
116 116 83
79 85 70
113 116 92
87 97 83
132 135 94
100 104 81
125 129 99
129 127 92
125 133 97
149 147 106
130 135 101
107 108 79
95 101 85
159 161 115
101 110 85
153 154 108
98 102 82
126 133 93
125 124 91
128 132 87
164 156 106
112 121 81
136 137 86
138 141 99
161 156 108
136 135 93
128 134 76
125 128 85
131 132 91
143 141 97
152 148 89
139 140 94
154 152 101
139 145 106
168 167 111
145 145 103
172 169 111
160 158 106
133 133 91
154 152 101
153 151 104
127 133 99
151 151 103
160 155 103
169 166 106
168 168 117
109 114 78
160 158 104
176 171 117
174 169 112
160 160 101
168 169 120
181 176 111
182 178 123
147 148 104
164 163 97
173 168 104
153 154 97
185 177 104
182 177 117
152 155 104
172 168 111
175 168 104
154 151 104
175 174 117
162 165 117
168 166 111
169 167 111
165 165 111
154 150 97
178 176 123
171 171 104
155 150 97
163 164 111
175 171 117
186 179 117
180 173 117
168 166 111
166 161 104
175 172 104
181 175 104
168 164 97
174 169 111
168 167 117
169 166 104
171 167 104
168 167 117
188 180 117
173 168 104
169 166 104
179 173 97
172 170 97
169 168 97
168 166 104
164 161 111
164 160 104
158 152 97
185 179 117
161 155 81
167 162 111
155 150 89
170 168 111
149 147 89
172 166 97
163 160 104
182 203 0
183 203 0
187 206 0
184 205 0
178 201 0
169 192 0
179 202 0
181 203 0
181 202 0
183 203 0
180 202 0
177 201 0
176 196 0
183 204 0
178 201 0
182 203 0
179 202 0
182 203 0
186 206 0
186 205 0
182 203 0
170 192 0
174 194 0
176 200 0
182 203 0
166 187 0
179 202 0
172 193 0
181 203 0
174 199 0
181 200 0
180 202 0
161 183 0
179 202 0
176 200 0
171 194 0
174 194 0
177 201 0
179 199 0
182 203 0
182 203 0
171 194 0
181 203 0
183 204 0
177 201 0
178 201 0
180 202 0
178 201 0
179 202 0
175 200 0
186 205 0
168 193 0
178 198 0
175 196 0
182 203 0
182 203 0
181 203 0
181 203 0
178 201 0
178 201 0
167 192 0
180 202 0
182 203 0
170 192 0
181 202 0
181 202 0
175 199 0
175 200 0
175 197 0
180 202 0
179 202 0
179 202 0
180 202 0
179 202 0
175 196 0
181 200 0
175 199 0
178 201 0
129 154 136
67 103 178
70 108 186
70 107 178
72 109 186
73 110 186
70 108 186
70 108 186
68 106 186
72 109 186
68 106 168
71 108 186
69 107 186
69 107 186
70 108 186
73 110 186
70 107 178
73 110 186
69 107 178
70 106 168
71 108 186
74 110 186
71 108 178
71 108 178
70 107 186
71 109 186
68 105 168
70 107 178
71 108 178
67 106 186
71 108 178
71 108 186
72 109 186
69 107 186
71 108 186
71 108 186
70 108 186
73 110 186
70 107 186
72 109 186
69 107 178
71 108 186
70 108 186
70 108 186
71 108 178
70 108 186
72 109 186
72 109 186
68 107 186
70 108 186
71 108 186
69 107 186
71 108 186
70 107 178
69 107 186
69 106 168
68 107 186
71 108 186
70 108 186
70 108 186
70 108 186
72 109 186
70 108 186
70 107 178
70 107 178
69 107 186
69 107 186
72 109 186
71 108 186
68 105 168
72 109 186
70 108 186
71 108 186
70 107 186
70 108 186
72 109 186
72 109 186
71 109 186
71 109 186
72 109 186
69 107 186
71 109 186
70 108 186
74 110 186
72 109 186
70 108 186
69 107 186
72 109 186
72 109 186
70 108 186
71 109 186
71 108 186
69 107 186
69 107 186
69 107 186
72 109 186
70 107 178
71 108 178
69 107 186
72 109 186
71 108 186
70 108 186
71 108 186
73 110 186
71 108 186
72 109 186
69 107 186
71 108 186
69 106 178
70 107 178
70 107 186
72 109 186
70 108 186
71 109 186
68 107 186
71 108 178
70 108 186
71 108 178
70 107 186
70 108 186
71 108 186
71 108 186
71 108 186
71 108 186
71 107 168
69 107 178
70 108 186
68 106 178
74 111 186
70 108 186
70 107 186
70 107 186
70 107 178
71 108 178
73 109 178
70 108 186
73 110 186
70 107 178
71 108 186
66 102 178
71 109 186
68 106 178
72 109 186
69 105 168
68 106 186
70 107 178
69 107 178
70 108 186
71 109 186
72 109 186
73 110 186
73 110 186
72 108 178
71 108 178
72 109 186
72 109 186
71 108 178
71 108 186
70 104 162
70 108 186
72 109 186
68 105 168
72 107 170
71 107 179
71 108 178
70 108 186
69 106 178
70 107 178
69 106 178
71 108 186
72 109 178
69 106 168
69 107 178
69 105 179
72 109 186
64 98 150
68 105 178
65 97 154
65 101 168
71 108 186
65 99 143
109 110 82
131 128 90
129 126 89
32 44 47
123 122 86
92 91 66
95 96 69
96 98 76
43 55 47
45 59 55
117 114 82
92 96 76
96 94 63
103 108 82
78 82 66
80 81 58
116 119 94
92 97 72
94 95 72
120 121 87
129 131 98
103 105 76
70 76 55
111 113 83
76 87 74
91 100 79
138 138 101
103 109 83
124 125 91
70 79 61
132 131 97
118 121 83
125 126 96
117 123 94
117 122 97
78 93 86
143 142 97
107 115 94
136 137 101
106 111 85
119 120 93
125 124 91
145 148 111
138 138 99
89 100 84
129 132 94
112 115 85
147 145 99
130 136 104
122 122 88
149 152 108
129 132 89
115 119 89
149 151 108
137 141 99
85 97 79
149 149 106
136 139 101
125 130 103
117 121 81
142 145 104
143 144 101
147 148 109
120 126 93
169 169 120
160 155 108
154 155 106
143 145 99
129 134 85
154 154 111
162 161 104
148 152 112
147 147 105
143 145 101
148 154 108
174 166 108
161 161 111
161 161 114
161 158 112
153 151 101
158 161 106
154 152 108
167 162 111
170 173 123
166 162 114
164 163 115
161 162 97
151 150 104
173 169 111
161 163 111
160 161 97
167 161 104
174 169 111
173 165 111
163 158 97
175 170 117
179 176 117
158 158 111
171 168 111
169 162 104
181 176 111
169 166 104
171 172 111
153 154 97
164 161 111
175 174 117
168 171 117
166 162 111
173 169 111
168 166 111
190 181 117
170 162 97
165 161 111
160 159 111
178 173 104
170 168 111
174 169 111
138 136 81
162 163 104
163 161 111
182 177 111
175 170 111
178 177 123
163 159 104
159 158 111
164 160 104
176 171 117
165 163 97
173 169 111
170 167 111
160 158 104
170 166 104
152 151 89
161 156 89
167 166 111
161 158 104
169 166 104
164 159 97
159 158 104
178 172 117
177 173 104
185 205 0
177 201 0
178 201 0
185 205 0
178 201 0
180 199 0
167 192 0
184 204 0
176 200 0
169 192 0
174 199 0
183 204 0
176 200 0
180 202 0
182 203 0
179 202 0
172 195 0
178 198 0
179 202 0
169 193 0
181 203 0
182 203 0
179 201 0
175 196 0
185 205 0
175 197 0
180 202 0
180 199 0
180 202 0
182 203 0
183 204 0
182 203 0
175 196 0
185 205 0
179 202 0
168 192 0
172 194 0
173 195 0
185 205 0
178 198 0
182 203 0
183 204 0
179 202 0
179 202 0
181 203 0
169 192 0
180 202 0
169 193 0
180 202 0
170 192 0
169 193 0
180 202 0
177 201 0
179 202 0
178 201 0
178 198 0
171 194 0
184 204 0
163 181 0
169 191 0
180 202 0
179 201 0
182 203 0
178 201 0
171 190 0
185 205 0
170 192 0
181 203 0
182 203 0
167 192 0
171 193 0
171 194 0
179 202 0
178 197 0
175 196 0
182 203 0
173 194 0
142 165 123
71 108 178
69 105 178
71 108 178
71 108 178
70 107 178
70 107 178
69 105 158
70 107 178
70 107 178
70 107 178
72 109 178
70 106 168
69 106 168
72 109 178
72 109 186
69 106 168
69 107 186
74 111 186
71 108 178
70 108 186
70 107 168
71 108 186
71 108 186
70 107 178
70 107 186
71 108 178
73 110 186
71 108 186
70 108 186
70 108 186
73 110 186
70 107 186
71 108 186
71 108 186
70 108 186
69 107 186
71 109 186
72 109 178
70 108 186
70 108 186
70 108 186
71 108 186
72 109 178
72 109 186
72 109 186
73 110 186
71 109 186
71 108 186
70 108 186
71 108 178
71 108 178
70 108 186
70 108 186
71 109 186
69 107 186
70 108 186
70 108 186
73 110 186
71 108 186
70 107 178
72 109 186
68 106 186
71 108 178
70 107 178
70 108 186
68 107 186
69 107 186
69 107 186
70 108 186
71 108 186
71 108 178
71 108 186
70 108 186
70 107 186
70 107 186
71 108 186
70 107 186
71 108 186
71 108 186
72 109 186
70 108 186
70 108 186
70 108 186
69 107 178
71 108 186
70 108 186
71 108 186
69 107 186
69 107 186
71 108 186
71 108 178
72 109 186
71 108 186
71 108 186
72 109 186
69 107 178
70 108 186
72 109 186
71 109 186
73 110 186
69 106 178
73 110 186
69 107 186
70 107 178
71 108 186
72 109 186
72 109 186
72 109 186
69 107 186
70 108 186
71 109 186
70 108 186
74 110 186
69 106 178
72 109 186
69 107 186
72 109 186
70 108 186
73 110 186
71 108 186
68 106 178
72 109 186
70 108 186
71 108 186
71 108 186
70 108 186
71 108 186
73 110 186
70 108 186
70 106 168
70 107 186
71 108 186
69 107 178
70 107 178
70 107 178
72 109 186
71 108 186
72 109 186
69 107 186
71 108 178
68 105 168
69 107 178
71 108 186
72 109 178
69 106 178
74 110 186
70 107 178
70 108 186
69 107 186
72 109 186
70 108 186
69 107 186
70 107 168
69 106 178
72 109 186
71 108 178
70 106 179
70 108 186
69 106 178
74 111 186
71 108 186
68 106 178
70 107 168
72 108 178
74 110 186
71 109 186
73 110 186
70 107 178
70 106 170
71 108 178
69 104 160
67 101 158
69 107 186
72 107 170
68 106 178
70 108 186
68 103 162
68 106 186
70 108 186
69 105 170
69 105 170
86 106 143
30 41 43
102 100 68
90 89 60
87 88 61
98 96 69
109 111 83
99 103 66
104 106 77
92 93 66
130 129 92
72 77 61
92 95 72
119 119 77
45 63 66
122 125 94
97 96 71
111 113 83
112 118 95
112 119 95
99 102 77
68 75 65
111 114 88
117 120 89
111 113 83
109 114 90
137 141 104
111 110 77
77 86 65
128 127 91
111 116 90
111 112 84
112 115 86
112 116 78
127 126 90
145 147 108
107 113 89
100 102 77
128 132 89
73 78 63
91 98 72
133 132 91
77 89 78
123 125 91
137 140 104
133 132 93
88 97 72
150 150 108
134 135 101
131 136 98
150 150 101
133 133 97
138 141 101
118 123 89
144 146 109
135 134 95
137 143 106
131 135 101
84 93 68
137 140 99
139 145 101
127 130 97
150 149 108
151 151 103
130 131 90
135 138 93
179 172 117
164 160 101
159 159 112
135 134 99
152 150 95
140 142 95
125 129 95
142 142 97
146 146 89
155 155 111
150 157 117
152 150 101
123 125 85
160 160 114
156 156 101
160 163 111
159 156 111
133 136 85
170 163 106
167 169 104
155 157 108
173 170 114
155 157 111
157 156 106
177 171 112
168 163 89
183 178 117
172 173 117
158 161 104
156 155 97
178 176 117
176 174 111
183 177 111
177 175 117
161 162 104
161 158 104
175 175 123
174 168 104
167 168 97
131 133 81
157 158 111
160 157 104
158 156 97
168 168 97
172 169 111
173 168 104
176 171 117
168 163 111
170 167 104
176 169 104
166 167 117
170 168 111
171 171 104
174 167 97
162 161 89
179 176 117
164 162 89
148 147 97
162 159 104
155 151 71
177 174 111
179 174 104
170 166 104
181 175 104
134 131 89
177 173 104
170 167 89
163 160 111
162 158 97
164 159 97
176 174 111
167 162 111
172 169 117
182 177 117
167 160 97
181 203 0
184 204 0
175 200 0
173 195 0
184 204 0
176 196 0
182 203 0
178 201 0
180 202 0
183 204 0
164 186 0
181 203 0
179 202 0
176 195 0
172 193 0
174 194 0
181 203 0
175 196 0
174 195 0
175 195 0
183 204 0
182 203 0
176 200 0
177 201 0
171 194 0
180 202 0
170 193 0
178 201 0
183 204 0
179 198 0
170 193 0
180 202 0
184 204 0
178 201 0
182 203 0
180 202 0
181 203 0
186 205 0
165 187 0
180 202 0
186 202 0
179 202 0
179 202 0
182 203 0
183 204 0
179 198 0
178 201 0
178 201 0
177 195 0
170 194 0
183 204 0
169 189 0
179 202 0
175 195 0
179 202 0
180 202 0
179 201 0
168 187 0
181 203 0
178 201 0
178 201 0
177 201 0
172 194 0
173 195 0
183 204 0
177 201 0
180 202 0
175 200 0
179 201 0
175 197 0
172 194 0
183 201 0
184 204 0
177 201 0
178 201 0
180 202 0
165 188 89
70 106 158
69 106 168
70 107 178
70 107 178
69 107 186
73 110 186
72 109 186
66 102 178
70 108 186
72 108 178
72 109 178
70 107 168
69 107 178
70 108 186
70 108 186
71 109 186
72 109 186
70 107 178
68 106 178
69 107 186
69 106 168
71 108 178
68 107 186
72 109 186
74 110 186
69 107 178
69 107 178
71 108 186
71 108 186
71 109 186
70 108 186
71 108 186
71 109 186
70 107 186
72 109 186
70 108 186
70 108 186
70 107 186
71 109 186
74 110 186
71 108 186
70 108 186
73 110 186
69 107 186
71 108 186
72 109 186
71 109 186
71 108 186
71 108 186
72 109 186
68 106 186
69 107 178
69 107 186
69 106 178
73 110 186
71 108 178
71 108 186
71 109 186
72 109 186
70 107 178
71 108 186
69 107 186
73 110 186
71 108 178
69 107 186
70 107 178
69 107 186
73 110 186
71 108 186
70 107 178
69 107 186
71 108 186
69 107 186
70 108 186
70 108 186
69 107 186
71 108 186
71 108 186
72 109 186
70 107 178
72 109 186
71 109 186
68 106 178
71 109 186
69 106 178
71 108 186
72 109 186
70 108 186
70 108 186
71 109 186
71 108 186
70 108 186
70 107 186
71 108 186
70 107 186
70 107 178
70 108 186
69 107 186
70 108 186
69 107 186
70 107 178
71 107 168
70 107 186
68 106 186
69 107 186
70 107 178
71 109 186
69 107 186
70 107 186
70 107 186
71 108 186
71 108 186
68 106 178
69 107 186
72 109 186
70 107 186
72 109 186
74 111 186
72 109 186
70 106 168
69 107 178
71 108 186
69 106 178
71 109 186
70 107 186
71 108 186
69 107 178
71 108 186
70 108 186
73 110 186
72 109 186
69 107 186
70 108 186
70 108 186
71 108 186
72 109 186
71 108 186
69 107 186
69 107 186
72 109 186
70 107 178
69 107 186
69 107 186
71 107 168
71 108 178
71 108 186
69 107 186
66 101 168
68 106 186
68 106 178
72 109 186
71 108 178
69 106 168
71 108 178
68 103 178
71 109 186
70 106 168
71 108 178
72 108 178
70 107 178
71 108 178
71 108 186
68 104 170
69 106 168
72 109 186
71 108 178
71 107 179
65 98 158
70 108 186
66 102 178
70 108 186
68 106 178
71 109 186
69 104 168
70 106 170
72 109 186
71 106 170
69 105 170
69 105 170
68 103 150
68 103 162
66 100 170
69 105 179
110 109 69
68 73 55
42 56 55
76 82 66
39 52 49
73 69 45
48 64 60
82 84 52
96 94 63
73 83 72
94 98 74
53 69 63
92 99 82
94 98 77
128 129 97
122 121 87
43 57 55
96 103 86
56 76 81
89 97 74
73 80 67
96 103 85
118 122 90
89 92 68
111 115 87
91 101 83
123 126 95
97 100 74
137 135 94
120 123 92
110 115 91
78 85 75
109 110 74
121 126 95
108 117 94
70 78 63
112 116 90
125 128 89
122 127 99
112 114 87
112 113 85
94 102 83
121 123 90
116 121 87
161 159 114
123 122 79
115 118 92
114 116 90
144 142 99
112 116 82
148 148 106
136 137 99
91 96 73
163 161 109
134 137 104
122 126 92
146 145 101
119 123 89
115 115 85
113 114 87
156 159 115
123 126 90
130 135 101
126 123 83
142 144 104
142 143 101
163 165 117
128 131 93
125 127 85
168 166 101
160 161 111
151 150 104
155 150 89
144 145 97
125 126 90
131 129 89
148 147 82
168 166 117
176 175 123
180 174 114
167 161 104
162 160 103
171 167 117
177 174 111
166 168 120
159 159 111
168 170 111
146 144 81
161 164 117
172 167 104
157 155 91
176 174 111
174 173 111
164 165 111
166 165 104
162 164 111
147 147 97
178 175 117
175 165 104
169 167 111
159 160 97
185 179 123
178 171 111
181 178 123
171 167 104
173 170 117
149 149 104
163 162 97
149 148 97
168 165 104
173 167 97
157 158 111
169 167 111
144 141 97
168 166 104
156 154 89
167 163 97
184 179 123
169 162 104
171 167 104
170 172 117
178 172 117
166 165 111
120 118 81
151 148 89
170 166 104
166 164 104
171 170 97
178 176 117
170 167 111
168 167 111
174 170 117
173 172 111
177 170 104
172 166 89
167 164 97
173 169 89
175 172 104
164 163 97
173 169 111
178 201 0
180 202 0
179 202 0
176 196 0
181 203 0
183 204 0
178 201 0
185 205 0
179 202 0
176 200 0
179 202 0
168 192 0
177 201 0
184 204 0
178 201 0
165 187 0
173 198 0
178 201 0
182 203 0
179 201 0
177 200 0
181 202 0
182 203 0
168 188 0
178 201 0
180 202 0
181 203 0
181 203 0
183 204 0
185 205 0
178 201 0
171 193 0
183 204 0
174 199 0
171 194 0
184 204 0
170 193 0
179 202 0
184 204 0
181 203 0
177 200 0
172 194 0
179 201 0
176 196 0
170 193 0
178 198 0
180 202 0
180 202 0
182 203 0
174 195 0
183 204 0
177 197 0
183 204 0
182 203 0
181 203 0
180 202 0
181 202 0
174 195 0
181 203 0
172 195 0
178 201 0
180 202 0
186 206 0
179 202 0
164 183 0
179 202 0
178 201 0
173 195 0
180 202 0
179 202 0
180 202 0
183 204 0
178 198 0
158 180 0
180 202 0
178 201 0
107 134 158
73 110 186
71 108 186
69 107 186
68 105 158
72 109 186
71 108 186
73 110 186
71 109 186
71 108 178
71 108 178
70 107 178
71 108 178
72 109 186
71 109 186
72 109 186
70 107 178
69 106 158
72 109 186
71 108 186
71 108 186
70 107 178
71 108 178
71 108 178
73 109 178
68 106 186
72 109 186
71 108 178
70 108 186
70 106 168
68 106 178
67 105 178
71 108 178
71 108 186
71 108 178
71 109 186
70 107 186
71 108 186
68 106 178
69 107 186
71 109 186
72 109 186
71 108 178
69 107 186
71 109 186
72 109 186
70 108 186
71 108 186
70 107 178
70 106 168
70 107 186
70 108 186
73 110 186
71 108 186
71 108 186
72 109 186
72 109 186
70 108 186
70 108 186
70 107 178
72 109 186
72 109 186
73 110 186
71 109 186
70 108 186
69 107 186
72 109 186
71 108 186
71 108 186
71 109 186
71 108 186
69 104 178
69 107 186
71 108 186
69 106 178
69 107 186
72 109 186
72 109 186
70 108 186
71 108 186
70 108 186
71 109 186
71 108 186
73 110 186
72 109 186
70 108 186
71 109 186
71 109 186
70 108 186
69 106 178
70 107 186
69 106 178
69 106 178
70 108 186
71 108 186
70 108 186
70 107 178
70 107 178
72 109 186
71 109 186
70 108 186
69 107 186
68 106 178
72 109 178
70 107 186
68 106 186
72 109 186
72 108 178
70 108 186
71 108 186
72 109 186
72 109 186
70 108 186
69 106 168
71 108 178
72 109 186
71 108 186
70 108 186
71 108 186
70 107 178
70 107 178
73 110 186
74 109 168
69 106 178
70 107 178
70 107 186
71 108 186
71 108 178
67 105 168
72 109 186
70 108 186
70 108 186
70 108 186
70 107 186
70 107 178
67 104 179
71 108 178
71 109 186
69 106 168
71 108 178
70 107 186
69 107 186
67 103 178
70 107 178
68 106 178
71 108 178
71 108 178
66 103 178
68 106 186
70 107 178
72 109 178
67 102 168
71 109 186
69 107 186
70 107 186
70 107 178
72 109 178
73 110 186
71 109 186
69 105 170
72 109 186
73 110 186
74 110 186
71 109 186
72 109 186
71 108 178
70 108 186
71 108 178
70 107 178
72 108 168
71 109 186
71 108 178
71 107 179
64 99 136
67 104 170
70 107 178
70 106 179
67 105 168
74 109 179
70 107 178
69 105 170
65 98 152
71 107 168
69 106 168
91 114 158
71 74 55
67 66 45
107 108 77
87 87 60
113 112 82
68 70 49
79 84 67
95 97 72
78 86 76
100 97 71
121 123 91
73 80 67
123 126 94
38 52 46
70 77 56
44 56 45
79 89 78
54 71 72
113 117 91
77 82 69
79 83 71
91 97 77
104 102 68
122 127 98
77 88 76
80 88 64
98 100 76
68 74 60
121 123 90
121 123 88
115 121 94
145 141 101
100 104 84
130 131 98
123 125 92
121 121 85
108 113 87
131 133 93
123 127 98
68 76 49
115 117 87
96 103 88
130 133 101
96 101 83
120 122 90
133 136 97
138 140 101
82 89 76
146 148 108
122 124 93
133 134 94
134 134 86
105 111 88
115 119 90
133 134 89
124 129 94
148 147 101
85 97 71
143 143 101
140 140 101
124 128 98
111 110 76
148 151 104
110 114 87
142 145 97
155 153 97
150 147 106
164 162 114
138 142 95
146 146 106
117 124 97
164 164 111
137 136 99
171 170 97
166 168 117
147 148 101
127 126 76
160 158 99
174 170 118
172 168 111
165 162 109
154 155 97
161 159 104
169 167 111
158 157 104
159 157 103
172 173 117
171 165 109
168 165 104
171 168 111
143 137 71
162 155 81
166 166 112
177 175 117
182 177 117
165 161 81
169 166 104
169 166 104
181 176 111
173 172 111
159 152 97
164 163 97
150 152 97
179 177 123
159 156 97
179 175 111
178 176 117
151 155 111
175 173 111
156 155 97
166 166 111
159 160 97
173 169 111
179 177 123
176 171 117
149 148 97
168 167 111
161 158 97
181 177 117
170 166 111
179 174 104
159 156 97
181 173 111
160 159 111
174 170 89
167 163 104
168 162 104
164 163 97
175 170 111
178 172 117
178 176 117
165 159 97
177 172 117
179 174 104
156 153 81
169 163 111
172 168 104
181 176 111
161 157 97
181 202 0
178 201 0
169 193 0
178 201 0
180 202 0
180 202 0
182 203 0
179 199 0
178 201 0
181 203 0
179 202 0
185 205 0
176 200 0
174 194 0
179 202 0
178 201 0
170 194 0
182 203 0
179 202 0
177 201 0
171 194 0
183 204 0
181 203 0
183 204 0
181 202 0
178 201 0
173 195 0
180 202 0
180 202 0
175 200 0
165 185 0
179 201 0
182 203 0
179 202 0
179 202 0
177 200 0
179 201 0
182 203 0
176 200 0
175 196 0
177 201 0
183 204 0
177 197 0
174 199 0
178 201 0
183 201 0
170 193 0
178 196 0
178 198 0
172 193 0
174 196 0
179 202 0
183 204 0
174 194 0
169 189 0
178 201 0
170 192 0
178 201 0
176 197 0
177 201 0
182 203 0
175 197 0
173 193 0
172 194 0
175 199 0
186 205 0
177 195 0
181 203 0
175 200 0
176 197 0
180 202 0
174 195 0
173 194 0
183 203 0
175 196 0
155 179 108
71 108 168
70 107 178
70 107 178
70 107 168
71 107 158
70 106 158
69 106 168
69 106 178
72 109 178
70 108 186
75 111 186
72 109 186
70 107 178
71 108 178
70 107 178
72 109 178
72 109 186
73 110 186
71 108 178
69 107 186
71 109 186
69 107 186
68 104 178
71 108 186
69 106 168
72 109 186
70 108 186
70 107 186
71 108 186
75 111 186
72 109 178
70 107 178
71 109 186
71 108 186
72 109 186
72 109 186
71 108 186
73 109 178
69 107 186
70 107 186
71 108 186
71 108 186
71 108 186
70 107 178
70 108 186
72 109 186
69 106 178
70 107 178
71 109 186
72 109 186
69 107 186
71 108 186
71 108 186
72 109 186
70 108 186
71 108 186
71 109 186
71 108 186
70 108 186
71 108 186
69 107 186
69 107 186
71 108 186
69 107 186
72 109 186
69 107 178
72 109 186
69 107 178
71 108 186
69 107 178
71 108 186
69 107 186
69 107 186
73 110 186
70 107 178
69 107 186
72 109 178
71 108 186
74 110 178
70 108 186
70 108 186
70 108 186
71 108 186
72 109 186
72 109 186
70 108 186
72 109 186
70 107 186
69 107 186
72 109 186
73 110 186
69 107 186
68 106 186
67 106 186
70 107 178
70 106 168
70 108 186
71 109 186
69 107 186
71 108 186
68 106 178
72 109 186
70 108 186
70 108 186
68 107 186
71 108 186
71 108 186
71 108 178
71 109 186
68 105 178
70 108 186
69 107 186
72 109 186
70 107 186
72 109 186
69 107 186
70 108 186
69 107 186
71 108 178
72 109 186
70 107 178
70 108 186
72 109 186
70 108 186
70 107 186
71 108 186
70 108 186
73 110 186
73 110 186
68 106 186
71 108 186
71 108 186
70 108 178
72 108 178
71 108 186
69 106 178
71 108 178
72 109 186
70 108 186
71 109 186
72 108 178
68 106 186
71 108 186
72 109 186
68 106 186
70 108 186
71 108 178
70 107 186
71 108 178
73 109 178
72 109 178
71 108 186
72 109 186
71 107 179
69 106 168
70 106 179
71 108 178
69 107 178
71 109 186
68 103 178
70 108 186
69 106 179
72 109 186
71 108 178
71 109 186
68 103 168
73 110 186
72 109 186
72 109 186
69 106 168
69 106 179
70 105 160
67 102 170
69 105 179
65 99 162
68 103 178
67 103 178
71 109 186
71 106 170
66 101 138
70 107 178
71 109 186
74 111 186
70 104 172
68 104 172
85 99 111
78 86 72
98 104 85
108 108 77
99 104 83
113 112 81
90 91 49
100 100 70
51 66 63
109 109 73
114 112 78
68 70 51
67 72 55
97 99 76
111 113 80
40 55 52
129 129 95
94 96 69
128 125 88
97 104 85
106 110 83
81 86 69
110 115 89
106 110 85
99 104 85
97 100 77
75 88 78
76 77 61
127 132 101
99 102 78
80 89 74
115 121 98
119 122 89
73 75 56
118 120 91
81 95 82
98 107 89
154 154 108
106 108 81
121 124 93
134 134 97
113 116 91
132 137 104
128 133 97
97 97 72
93 100 81
126 127 89
135 135 98
121 124 94
122 126 89
125 124 91
139 137 92
122 128 93
118 121 81
146 145 97
162 160 108
143 144 89
140 140 93
156 158 111
137 135 96
156 154 106
126 130 91
160 155 109
127 130 95
128 132 101
140 139 95
114 122 91
145 144 98
145 145 101
133 137 99
156 153 101
168 166 111
144 141 87
144 146 89
139 138 81
153 150 93
158 154 101
145 141 91
148 155 109
159 153 81
114 120 91
172 169 111
160 158 106
158 152 97
136 139 101
180 177 123
162 164 108
167 167 108
174 171 97
181 177 117
168 169 120
171 168 111
174 173 111
167 161 104
157 160 104
167 170 111
169 166 104
171 167 111
174 175 123
184 179 123
175 173 111
164 164 104
170 167 111
180 178 123
176 176 123
170 169 104
180 176 117
169 168 117
184 178 117
169 168 117
176 171 117
184 174 111
161 158 104
169 168 97
162 163 104
187 179 111
168 167 111
180 172 111
150 148 89
181 176 117
175 170 111
167 164 97
164 163 97
172 167 104
166 164 97
146 144 81
167 163 104
117 113 59
162 159 104
159 156 89
154 154 97
171 168 111
176 170 97
163 163 104
168 166 104
168 160 89
164 161 111
169 161 97
151 145 89
170 193 0
179 202 0
181 203 0
178 201 0
176 196 0
178 201 0
180 199 0
183 204 0
179 202 0
177 200 0
172 194 0
182 203 0
179 202 0
180 202 0
163 186 0
178 201 0
179 202 0
178 196 0
181 202 0
175 196 0
180 202 0
163 184 0
178 197 0
179 202 0
174 194 0
167 188 0
183 204 0
175 196 0
178 201 0
171 192 0
173 195 0
180 202 0
181 203 0
180 202 0
179 202 0
176 197 0
178 201 0
172 194 0
180 202 0
179 202 0
176 200 0
157 177 0
183 204 0
178 201 0
182 203 0
174 199 0
179 202 0
183 204 0
177 201 0
179 202 0
172 195 0
181 202 0
181 203 0
184 204 0
175 196 0
172 195 0
180 202 0
176 200 0
181 203 0
182 203 0
184 204 0
175 196 0
177 198 0
183 204 0
187 206 0
180 199 0
178 201 0
170 194 0
185 205 0
179 202 0
181 203 0
166 189 0
181 203 0
183 204 0
171 191 65
106 133 148
69 105 158
72 108 178
69 106 168
71 108 186
71 108 168
73 109 178
71 108 178
72 109 186
70 107 178
71 108 168
72 109 186
72 108 178
71 108 178
72 109 186
70 108 186
70 107 186
69 107 186
69 106 168
73 110 186
70 108 186
71 108 178
69 107 186
72 109 186
71 108 186
70 108 186
71 108 186
70 108 186
69 107 178
71 108 186
71 107 168
70 108 186
70 107 186
70 108 186
72 109 186
70 107 178
71 108 186
69 107 186
71 109 186
71 108 186
69 107 186
70 107 178
71 109 186
72 108 178
71 108 186
70 108 186
70 108 186
70 108 186
71 107 168
71 108 186
68 106 178
70 107 178
69 107 186
69 107 186
69 106 178
71 109 186
72 109 186
68 106 186
68 106 186
69 107 186
72 109 186
71 108 186
71 108 186
70 107 186
70 107 178
70 106 168
69 107 186
72 109 186
71 109 186
70 107 178
71 109 186
72 109 186
71 109 186
70 107 178
72 109 178
70 107 178
71 109 186
71 108 186
71 109 186
72 109 186
71 108 186
71 108 186
70 107 186
68 107 186
70 107 178
70 107 178
69 107 186
72 109 186
70 108 186
67 105 178
71 109 186
70 108 186
72 109 186
71 109 186
72 109 186
69 107 186
71 108 178
71 108 186
68 107 186
69 107 186
70 107 178
72 109 178
70 108 186
71 108 186
70 107 186
72 108 178
71 108 178
71 108 186
70 107 178
71 109 186
71 108 178
70 108 186
73 109 178
68 106 178
73 110 186
69 106 178
73 110 186
69 106 168
71 109 186
70 108 186
72 109 186
71 109 186
69 107 178
72 108 178
70 108 186
70 107 168
70 107 178
71 109 186
70 108 186
73 110 186
69 106 178
72 109 186
70 107 186
72 109 186
70 107 186
69 106 178
71 108 178
69 107 186
72 108 168
71 108 178
70 107 186
70 108 186
67 104 168
71 108 186
68 106 178
72 109 186
74 110 186
69 106 178
72 109 178
70 107 178
71 109 186
70 106 179
72 109 186
72 109 186
72 109 186
72 109 186
71 108 178
71 109 186
68 104 168
69 107 186
67 103 178
70 108 186
71 108 186
70 107 178
71 108 178
68 105 170
69 106 168
70 108 186
70 107 178
71 107 168
72 108 168
67 102 150
72 109 186
71 108 178
70 107 178
72 109 186
69 106 179
68 103 158
68 102 150
68 103 160
71 109 186
70 106 179
67 101 158
65 97 133
66 99 162
65 99 150
70 106 179
76 80 62
69 71 54
99 96 71
68 69 46
128 125 89
89 89 64
43 55 53
95 97 71
104 110 91
71 71 53
101 102 74
74 82 67
47 61 58
102 103 74
111 114 86
95 95 72
113 115 89
113 112 78
105 108 78
79 84 68
120 124 93
98 104 82
78 86 71
70 78 67
49 64 64
121 119 83
129 129 91
123 125 93
91 97 73
109 114 87
94 104 82
85 92 68
138 141 104
102 104 82
108 111 83
136 140 108
137 135 97
131 133 98
163 162 111
107 113 89
139 142 108
109 111 90
133 136 101
105 110 83
142 145 104
158 154 108
162 158 111
144 142 96
145 145 106
106 113 87
127 127 91
137 136 95
155 153 107
136 135 97
137 134 95
122 125 95
143 142 106
149 144 99
160 155 103
165 162 114
142 142 97
150 149 106
128 131 91
146 144 101
133 136 96
154 154 111
147 148 97
152 152 106
131 130 81
157 159 111
130 130 83
166 164 114
155 153 104
169 168 114
155 157 108
140 139 101
157 153 101
173 169 111
148 150 89
157 156 108
152 148 89
166 165 111
153 157 108
167 165 106
172 167 104
182 178 123
160 162 104
164 162 97
178 174 104
183 178 117
176 171 117
185 180 123
136 136 89
158 152 97
167 165 104
163 160 104
180 176 117
157 155 97
179 175 111
167 165 104
165 163 97
146 141 89
170 167 111
169 167 111
169 169 97
153 154 97
169 169 104
156 155 97
157 156 97
165 160 104
176 170 111
173 168 104
183 176 104
175 175 123
173 171 97
172 171 104
158 153 97
179 175 111
175 166 111
173 170 97
163 158 97
173 166 89
166 161 104
172 168 111
176 169 104
167 163 89
173 169 111
184 178 117
176 171 117
169 166 104
178 174 104
149 146 81
171 166 97
178 174 104
158 151 81
142 135 81
182 173 111
134 132 71
182 203 0
177 200 0
182 203 0
181 203 0
180 202 0
172 194 0
177 196 0
178 201 0
181 203 0
176 200 0
181 203 0
171 193 0
186 205 0
177 200 0
180 202 0
180 202 0
183 204 0
180 202 0
180 202 0
179 201 0
183 204 0
180 202 0
172 194 0
182 203 0
177 201 0
174 199 0
178 201 0
180 202 0
179 199 0
178 201 0
172 192 0
175 200 0
170 192 0
178 201 0
175 193 0
172 194 0
173 195 0
172 193 0
170 194 0
185 205 0
179 202 0
181 200 0
179 201 0
178 198 0
178 198 0
175 196 0
178 197 0
184 204 0
181 203 0
184 204 0
170 189 0
172 194 0
182 203 0
187 206 0
183 204 0
179 201 0
180 202 0
170 193 0
180 202 0
182 203 0
178 201 0
180 202 0
178 201 0
179 202 0
182 203 0
173 195 0
178 201 0
161 183 0
172 194 0
160 181 0
180 202 0
173 199 0
165 185 0
181 203 0
130 155 136
67 103 168
68 106 178
71 108 178
70 107 178
71 108 178
68 105 158
69 106 168
68 105 168
71 108 178
69 107 186
70 108 186
69 105 158
72 109 186
71 108 178
69 106 178
71 108 178
70 108 186
69 107 178
72 109 186
71 107 168
71 108 186
72 109 186
70 107 178
68 106 178
68 106 178
70 107 178
72 109 186
73 109 178
71 108 178
70 107 178
74 111 186
70 107 178
71 108 186
71 108 178
72 108 178
73 110 186
68 106 178
72 109 186
70 108 186
70 108 186
73 110 186
70 108 186
70 107 186
72 109 186
70 107 186
74 110 178
71 108 178
73 110 186
69 107 186
71 108 186
70 107 178
73 110 186
72 109 186
69 107 186
69 107 186
72 109 186
70 107 178
72 109 186
72 109 186
71 108 186
70 108 186
69 107 186
70 108 186
70 108 186
71 108 186
70 108 186
69 107 186
70 108 186
71 109 186
70 108 186
70 107 186
70 107 186
71 108 186
71 108 186
71 109 186
70 107 186
70 107 178
74 111 186
71 109 186
69 107 186
70 107 178
69 107 186
71 108 186
71 108 186
70 108 186
69 107 178
71 108 186
71 108 186
73 110 186
69 107 186
69 106 178
68 106 178
68 106 186
71 108 186
69 107 186
70 108 186
71 108 186
69 107 186
70 107 186
69 106 178
70 108 186
73 110 186
70 108 186
68 106 178
72 109 186
72 109 186
70 108 186
69 106 178
70 107 186
71 108 178
70 107 178
69 107 186
72 108 178
71 108 186
70 108 186
71 108 186
72 109 186
69 107 186
70 108 186
71 108 186
73 109 178
72 109 186
69 106 178
69 107 178
72 109 186
72 109 186
69 107 186
69 106 178
69 107 186
70 108 186
70 108 186
69 107 186
70 108 186
70 107 178
71 108 186
70 108 186
73 110 186
72 108 168
71 109 186
70 107 178
68 105 168
73 110 186
70 108 186
69 107 186
68 107 186
68 106 178
71 108 186
71 108 186
70 108 186
72 109 186
70 107 186
71 108 186
72 108 178
70 108 186
73 110 186
72 109 178
69 107 186
69 105 178
68 106 168
72 109 186
70 108 186
69 106 168
69 106 178
64 100 158
71 109 186
71 109 186
73 110 186
71 108 186
70 108 186
70 108 186
73 110 186
67 102 168
67 102 168
70 108 186
72 108 178
70 107 178
69 105 170
70 108 186
68 102 160
72 109 178
71 108 186
71 108 178
66 100 160
66 101 170
64 99 136
72 107 179
74 110 186
59 89 143
96 95 69
102 103 62
79 80 63
75 76 59
70 72 49
111 111 82
109 107 77
115 113 82
82 88 70
110 109 74
78 87 77
97 99 70
108 109 79
129 128 94
51 68 68
93 96 76
116 113 74
114 113 79
108 111 83
103 106 85
78 85 69
115 115 83
113 114 86
114 114 81
116 119 88
98 104 82
92 101 78
50 67 69
77 88 72
73 82 63
84 94 83
129 128 94
58 76 75
146 144 97
124 124 86
107 109 77
143 140 101
115 116 83
133 136 103
148 149 100
136 139 106
119 121 89
123 124 90
129 126 85
106 109 85
142 141 93
142 143 98
146 151 105
150 147 101
89 96 80
131 130 78
148 146 98
130 135 95
138 133 83
139 139 88
148 148 101
140 142 104
126 132 89
132 133 94
154 153 108
155 153 111
152 147 103
159 158 104
159 154 103
153 154 108
146 146 93
159 161 117
165 160 104
153 154 108
159 159 114
154 157 108
152 152 108
138 139 89
161 159 111
158 161 104
143 144 106
156 155 111
164 160 108
127 131 95
161 158 104
152 156 109
150 149 99
156 157 108
148 147 97
171 169 114
165 164 104
163 164 112
181 175 104
173 168 104
163 160 81
159 156 89
172 170 104
168 171 117
169 165 97
165 160 104
169 167 111
160 158 104
156 155 97
172 168 111
167 163 89
169 171 111
167 170 117
173 168 104
172 167 97
177 176 123
175 169 111
172 172 111
165 165 111
167 167 117
173 170 89
176 175 117
164 163 97
164 160 104
159 155 104
155 152 104
158 156 104
175 172 104
172 169 117
177 174 111
157 155 89
179 174 97
172 165 89
173 169 111
181 177 117
161 158 71
167 162 111
180 177 123
158 156 97
177 174 111
182 177 111
168 165 104
169 167 111
169 166 104
170 168 117
176 169 104
154 150 97
180 175 111
184 201 0
178 201 0
180 202 0
174 196 0
178 201 0
181 203 0
171 194 0
177 201 0
182 203 0
182 203 0
179 202 0
183 204 0
178 201 0
177 199 0
179 202 0
181 202 0
177 201 0
179 202 0
177 201 0
177 197 0
175 200 0
177 201 0
177 201 0
174 196 0
173 195 0
180 202 0
174 197 0
183 204 0
180 202 0
173 195 0
176 200 0
174 195 0
173 194 0
169 193 0
180 202 0
180 202 0
169 192 0
185 205 0
183 204 0
180 202 0
175 200 0
174 196 0
181 203 0
178 201 0
177 201 0
178 201 0
175 195 0
173 196 0
173 195 0
171 194 0
184 204 0
181 203 0
177 201 0
182 203 0
180 202 0
178 201 0
179 202 0
173 196 0
176 200 0
182 203 0
184 204 0
187 206 0
179 202 0
185 205 0
178 201 0
172 194 0
182 201 0
161 183 0
180 202 0
179 202 0
167 192 0
174 199 0
176 193 0
164 188 89
70 107 168
70 107 168
71 107 168
69 105 158
70 107 178
70 107 178
71 108 186
70 108 186
71 108 186
70 107 168
73 110 186
68 105 168
70 106 168
73 110 186
71 108 178
69 106 178
70 107 178
71 108 178
71 109 186
70 107 168
67 105 186
73 110 186
68 106 186
73 110 186
71 108 178
73 110 186
71 107 168
72 109 186
73 110 186
70 108 186
68 105 168
72 109 178
70 107 178
71 108 186
69 106 178
69 107 186
70 107 186
69 107 186
69 107 178
70 108 186
71 108 186
71 109 186
71 108 186
71 109 186
72 109 186
74 111 186
71 108 186
70 107 178
73 110 186
70 108 186
71 109 186
69 107 186
72 109 186
72 109 186
68 106 186
70 108 186
71 108 178
70 107 178
72 109 186
68 106 186
69 107 186
73 110 186
69 107 186
69 106 178
70 108 186
70 107 178
70 108 178
70 108 186
71 108 186
72 109 186
70 107 186
73 110 186
70 108 186
73 109 178
72 109 186
70 107 178
71 109 186
69 107 186
73 110 186
70 107 186
70 108 186
72 109 186
69 107 186
72 109 186
70 107 178
72 109 186
69 107 186
68 106 178
72 109 186
69 106 178
70 108 186
67 105 178
70 108 186
69 107 186
71 109 186
72 109 186
71 109 186
69 107 186
70 107 186
69 107 186
75 111 186
70 107 178
69 107 186
70 108 186
69 107 178
71 108 186
70 107 178
69 107 178
71 109 186
71 109 186
70 108 186
69 107 186
72 109 178
68 106 178
72 109 186
71 108 186
69 107 186
72 109 186
70 107 178
70 108 186
71 108 178
71 109 186
72 109 186
71 108 178
69 107 178
68 105 168
71 109 186
71 108 178
71 108 186
69 107 186
69 107 186
69 107 178
70 107 178
69 107 186
69 107 178
73 109 186
72 109 186
72 109 186
70 108 186
69 107 186
69 107 186
71 107 168
74 110 186
69 106 168
71 109 186
71 108 178
70 107 186
71 108 186
72 109 186
71 108 186
67 105 178
74 110 186
69 107 186
71 108 178
68 106 178
69 107 186
69 107 186
72 109 186
73 110 186
69 106 168
70 108 186
71 108 186
70 108 186
68 104 160
70 107 178
70 107 178
70 107 178
71 107 179
72 109 178
69 106 168
70 107 178
68 105 168
70 107 186
71 108 178
68 104 178
69 105 179
71 109 186
71 106 170
71 107 168
68 105 179
69 106 179
70 104 162
65 99 160
73 110 186
71 107 168
66 101 150
51 79 137
70 106 179
67 99 154
51 75 115
77 81 69
76 78 56
79 85 63
118 116 83
72 75 55
65 69 53
128 126 91
112 113 84
46 62 62
46 60 55
111 115 91
95 95 65
74 85 73
92 93 67
96 96 72
88 93 71
112 114 83
47 62 60
81 85 71
138 138 101
49 65 65
97 100 81
101 107 87
109 113 83
95 100 77
116 117 82
106 110 75
76 81 59
102 106 87
124 127 96
106 109 77
113 116 87
91 101 79
126 129 98
111 116 85
110 114 87
82 94 85
102 108 73
133 134 99
79 87 69
129 128 91
146 144 97
147 143 91
119 122 90
113 116 89
144 145 106
108 112 83
97 103 83
132 136 101
151 152 98
115 119 94
159 154 103
123 127 91
140 139 101
148 146 103
120 126 93
71 83 72
130 133 91
137 143 108
154 152 99
150 149 101
139 141 103
107 113 89
161 157 89
96 102 84
164 160 104
164 165 111
148 145 93
136 143 97
125 130 98
164 164 104
147 143 99
134 136 81
158 156 104
172 169 117
143 148 101
158 153 98
152 152 104
127 125 93
168 160 108
171 168 108
156 158 109
161 160 112
175 172 104
143 148 108
161 159 104
160 157 97
154 153 89
164 159 97
174 171 97
171 169 117
148 148 104
156 157 81
186 180 123
139 136 71
169 166 104
153 148 89
182 173 111
171 172 117
158 153 104
164 165 111
143 145 97
171 167 104
159 155 89
168 166 104
182 178 123
161 157 89
153 150 97
169 163 97
165 166 117
183 177 111
175 169 104
151 150 104
181 176 111
158 155 89
188 181 123
164 165 111
174 167 97
168 165 97
145 145 97
172 168 104
153 151 104
166 166 111
177 170 104
173 172 111
189 180 117
187 180 117
136 132 81
164 163 97
167 165 104
165 160 104
180 172 111
146 143 71
181 176 111
172 167 104
164 160 104
181 203 0
170 194 0
188 206 0
179 202 0
171 193 0
176 200 0
184 204 0
183 204 0
162 185 0
183 204 0
175 200 0
178 201 0
168 192 0
178 201 0
173 195 0
183 204 0
179 202 0
181 202 0
181 203 0
171 194 0
173 195 0
180 202 0
182 203 0
180 202 0
184 204 0
179 202 0
180 202 0
174 194 0
181 203 0
176 200 0
174 195 0
177 197 0
174 196 0
179 202 0
181 202 0
183 204 0
179 202 0
184 204 0
178 201 0
183 204 0
178 201 0
177 200 0
180 202 0
180 202 0
174 194 0
177 197 0
175 195 0
173 196 0
178 201 0
179 202 0
169 193 0
178 201 0
159 182 0
184 201 0
169 193 0
170 193 0
184 205 0
182 203 0
180 202 0
177 201 0
185 205 0
171 194 0
166 188 0
179 201 0
173 195 0
178 201 0
175 200 0
177 200 0
168 189 0
182 203 0
173 189 0
177 201 0
180 202 0
87 118 136
69 105 148
72 108 178
71 108 178
71 108 178
74 111 186
68 106 178
72 109 178
74 110 186
69 106 168
71 108 186
69 106 178
71 108 178
72 109 178
71 107 168
69 106 178
66 102 168
71 108 178
72 109 186
72 109 186
69 107 178
69 106 178
69 107 186
71 108 186
70 107 178
69 107 186
72 108 178
70 107 178
70 106 168
70 108 186
70 107 178
70 107 178
71 108 178
68 106 178
70 107 178
71 108 186
71 107 168
71 108 186
69 107 186
68 106 178
72 109 186
69 107 186
73 109 178
71 108 178
73 110 186
70 108 186
75 111 186
72 109 186
71 108 186
72 108 178
71 109 186
71 108 186
72 109 186
71 109 186
73 110 186
70 108 186
71 109 186
70 108 186
70 107 178
71 109 186
70 108 186
70 108 186
71 108 178
69 107 186
72 109 186
69 107 178
72 109 186
70 108 186
70 107 186
70 107 186
71 108 186
69 107 186
70 107 186
70 108 186
70 107 178
71 108 186
70 108 186
70 108 186
68 107 186
70 107 186
70 108 186
71 109 186
69 107 178
73 110 186
71 108 178
68 106 178
71 108 186
69 107 186
74 110 186
70 108 186
71 109 186
71 108 186
70 108 186
69 107 186
73 110 186
67 105 178
69 107 186
70 108 186
71 109 186
71 108 186
70 108 186
70 107 178
72 109 186
69 107 186
71 109 186
72 109 186
72 109 178
70 108 186
71 108 186
70 107 178
69 107 186
70 107 178
69 107 186
71 108 186
68 106 178
69 107 186
71 108 178
70 108 186
71 108 186
71 108 178
69 107 186
71 108 186
71 108 186
69 107 186
73 109 178
70 108 186
71 109 186
69 106 168
71 109 186
70 108 186
71 108 186
69 107 186
70 108 186
70 107 186
69 106 178
69 107 186
69 107 178
67 105 178
71 109 186
71 108 178
70 108 186
71 108 186
71 107 168
71 108 186
71 109 186
71 108 178
70 108 186
69 106 168
72 109 186
72 109 186
72 109 186
72 109 186
70 106 158
70 108 186
71 108 186
71 108 186
71 108 186
70 108 186
69 106 178
70 107 178
66 101 158
69 107 178
70 107 178
72 109 186
69 106 168
68 105 158
71 107 168
70 106 170
71 108 178
71 107 168
72 109 186
68 104 148
73 110 186
68 104 178
71 108 178
73 110 186
71 108 186
71 106 170
70 108 186
70 104 162
69 105 170
64 97 158
71 109 186
66 97 136
69 106 168
71 107 179
63 95 160
69 104 168
67 102 162
66 99 162
70 107 168
98 108 104
92 96 73
29 38 35
45 60 61
98 100 77
74 79 57
79 78 51
111 111 82
96 97 72
40 54 54
94 100 78
118 119 91
94 96 74
111 112 78
103 109 91
78 77 55
49 63 53
113 113 84
109 115 90
116 115 82
98 103 82
78 85 72
108 111 83
98 98 77
112 113 83
96 100 73
135 136 94
91 96 79
51 69 71
92 99 79
101 106 83
115 118 86
75 82 66
80 89 73
87 95 81
110 112 84
152 150 104
136 138 98
110 115 84
128 127 94
139 138 98
115 117 91
133 136 100
121 124 90
147 148 105
90 97 74
152 149 105
96 102 82
127 130 95
77 87 76
138 138 97
124 124 88
140 140 101
153 150 99
132 130 94
131 130 90
132 133 82
127 129 85
163 161 108
151 151 101
163 161 109
149 147 105
147 145 95
137 139 97
137 139 96
157 156 104
160 161 111
133 136 101
166 160 99
169 167 112
127 125 87
157 157 101
164 160 106
154 152 101
141 140 89
155 157 109
188 181 123
146 142 93
147 149 103
145 143 91
156 153 106
185 179 117
173 172 104
157 153 101
166 157 106
174 173 111
147 144 101
165 161 111
159 156 97
165 165 111
153 150 97
169 164 89
177 170 104
175 171 117
157 157 111
176 170 111
171 168 111
175 166 111
165 164 104
187 180 123
187 179 111
174 173 111
179 176 117
158 156 97
173 168 104
161 162 97
145 146 97
146 145 89
161 157 97
179 171 104
176 171 117
168 163 89
152 153 97
151 147 81
181 175 104
182 177 117
160 157 97
178 175 111
180 175 104
179 175 111
171 167 104
164 159 97
177 173 104
161 158 104
158 155 81
173 172 111
155 151 97
165 160 104
163 162 89
178 170 104
161 159 81
160 158 104
159 157 97
179 172 117
174 173 111
171 163 104
176 200 0
169 192 0
179 202 0
176 200 0
183 203 0
182 203 0
179 202 0
177 201 0
181 203 0
171 194 0
179 202 0
184 204 0
170 192 0
177 198 0
179 201 0
177 201 0
178 201 0
183 204 0
174 199 0
179 202 0
180 202 0
179 202 0
183 204 0
179 202 0
187 206 0
170 193 0
177 200 0
179 202 0
182 203 0
186 205 0
165 187 0
177 201 0
178 201 0
173 195 0
175 196 0
180 202 0
182 203 0
184 204 0
183 204 0
174 195 0
183 204 0
178 201 0
176 197 0
185 205 0
180 199 0
177 200 0
182 203 0
175 197 0
178 201 0
178 201 0
184 204 0
182 203 0
179 202 0
183 204 0
183 204 0
181 203 0
173 195 0
169 191 0
180 202 0
178 201 0
179 202 0
186 205 0
183 204 0
178 201 0
187 206 0
179 199 0
181 203 0
167 188 0
172 194 0
172 194 0
167 188 0
175 195 0
132 156 148
72 109 186
68 105 168
69 106 168
73 109 178
70 108 186
70 108 186
71 107 168
69 107 178
74 111 186
72 109 186
70 107 168
69 107 186
72 109 186
72 108 178
71 108 178
70 106 168
67 102 158
68 106 178
70 107 178
70 107 178
70 108 186
68 106 186
72 109 186
71 108 186
71 108 186
69 104 168
70 107 178
74 110 186
72 109 186
71 108 186
71 108 178
71 109 186
72 109 186
72 109 186
69 107 186
70 108 186
72 109 186
71 109 186
69 107 178
71 108 186
72 109 186
74 110 186
67 103 178
68 105 168
70 108 186
71 109 186
72 109 186
71 108 178
70 108 186
70 108 186
71 108 186
71 109 186
68 107 186
70 107 178
71 108 186
70 108 186
71 108 186
71 109 186
71 109 186
71 109 186
68 106 178
70 107 186
71 108 186
71 108 186
69 107 186
71 108 186
72 109 186
69 107 186
71 108 186
71 108 178
71 108 186
69 107 178
70 108 186
71 109 186
71 108 186
70 108 186
72 109 186
72 109 186
71 109 186
72 109 186
72 109 186
71 109 186
70 107 186
73 110 186
70 108 186
71 109 186
70 107 186
73 110 186
70 107 186
72 109 186
71 108 178
70 107 178
72 108 178
73 110 186
72 109 186
71 108 186
72 109 186
71 109 186
70 107 178
71 108 186
70 108 186
73 110 186
70 108 186
72 108 178
70 108 186
70 108 186
72 109 186
69 106 168
72 109 186
70 107 186
72 109 186
70 108 186
72 109 186
70 108 186
69 107 186
69 107 186
71 108 178
70 107 186
71 107 168
69 107 178
71 108 178
72 109 186
71 108 186
68 105 168
73 110 186
73 110 186
71 108 186
71 109 186
71 108 178
71 109 186
70 107 178
70 107 186
69 106 168
71 109 186
70 108 186
73 110 186
70 108 186
67 105 168
70 107 186
69 106 168
73 110 186
71 108 186
71 108 186
70 108 186
70 107 186
71 108 178
71 107 168
71 108 178
73 110 186
70 107 168
71 108 178
72 109 178
71 108 178
72 109 186
74 111 186
73 109 178
72 108 178
72 109 186
71 108 186
71 109 186
70 108 186
71 108 186
72 109 186
72 109 186
72 109 186
70 107 168
66 103 158
74 110 178
70 108 186
70 106 168
62 98 160
69 107 178
71 107 168
67 104 179
72 109 186
72 109 186
71 108 186
71 107 168
71 108 178
71 107 168
69 105 168
71 108 178
72 109 186
65 101 158
72 109 186
67 102 168
69 104 160
69 106 168
67 99 160
66 100 164
65 102 178
57 84 111
99 97 67
92 94 67
79 81 66
94 96 69
99 101 81
39 52 48
113 115 86
74 75 55
74 78 65
90 88 60
67 70 46
111 109 72
72 78 66
48 62 60
145 145 101
100 98 69
98 99 70
77 88 73
113 112 82
50 68 67
99 108 90
77 79 53
111 114 89
136 139 104
95 100 72
73 84 76
76 79 61
70 82 66
116 119 86
74 85 67
123 126 95
129 129 96
80 88 73
97 106 87
135 135 92
121 123 81
82 89 77
155 148 103
109 114 86
138 137 98
114 113 84
134 135 92
110 111 78
161 159 114
110 112 86
116 115 87
130 130 93
149 146 95
128 131 86
106 111 83
129 128 91
136 142 103
133 134 99
117 117 83
113 117 89
134 134 97
154 154 108
114 115 91
141 144 103
126 127 95
160 158 114
154 157 104
150 149 97
138 141 93
157 158 108
145 144 91
174 170 117
154 153 106
141 141 95
140 140 85
147 145 103
159 154 106
140 143 103
159 158 93
130 134 97
138 138 93
144 145 103
177 170 106
146 150 106
148 147 89
167 163 112
135 135 81
157 156 93
183 178 117
168 166 104
171 168 111
157 155 91
165 162 106
170 164 111
150 146 83
175 174 117
167 160 97
156 154 89
169 166 104
171 168 111
182 175 104
184 177 111
168 166 104
185 179 123
177 172 117
159 158 104
155 154 89
152 152 81
176 172 97
175 173 111
160 157 97
184 177 111
170 167 104
175 172 104
162 160 111
175 169 104
149 148 97
180 176 111
154 154 97
178 175 111
173 169 111
172 169 111
178 174 104
148 146 89
135 134 81
168 162 104
180 175 104
169 163 81
166 164 97
169 162 104
168 165 97
170 167 111
168 165 97
166 161 104
178 177 123
171 165 89
168 167 81
177 170 104
164 159 97
172 165 89
181 203 0
171 194 0
177 197 0
172 195 0
178 201 0
179 202 0
181 203 0
183 204 0
180 202 0
179 202 0
182 203 0
181 203 0
182 203 0
178 201 0
178 201 0
182 203 0
185 205 0
180 202 0
184 204 0
180 202 0
173 195 0
182 203 0
182 203 0
172 195 0
180 202 0
181 203 0
181 203 0
179 202 0
163 184 0
179 202 0
181 203 0
172 194 0
183 204 0
179 198 0
171 194 0
183 204 0
180 202 0
171 193 0
178 201 0
189 207 0
179 202 0
175 195 0
181 203 0
173 195 0
165 188 0
180 202 0
178 201 0
177 201 0
182 203 0
181 203 0
173 195 0
174 196 0
182 203 0
174 195 0
178 201 0
175 197 0
182 203 0
177 201 0
181 203 0
169 191 0
173 194 0
179 201 0
170 189 0
174 199 0
180 202 0
177 201 0
172 193 0
179 202 0
171 192 0
157 178 0
182 203 0
163 184 65
72 108 168
72 109 186
69 105 158
72 109 178
72 109 186
72 109 186
71 108 186
68 106 178
70 108 186
69 106 168
71 108 186
72 109 178
70 107 168
72 108 178
70 107 178
70 106 168
72 108 168
70 108 186
71 108 178
72 109 186
72 109 178
70 108 186
70 107 178
71 108 186
69 107 186
68 105 168
72 109 186
67 103 178
73 110 186
72 108 178
72 109 186
69 107 186
72 109 186
71 108 178
72 109 186
73 110 186
70 107 178
73 110 186
71 108 178
71 109 186
73 110 186
72 109 186
71 108 186
70 106 168
71 108 186
69 106 178
70 107 178
71 108 186
70 108 186
70 107 178
73 110 186
72 109 186
72 109 186
71 108 186
72 109 186
68 107 186
70 108 186
70 107 178
70 108 186
69 106 178
68 105 168
72 109 186
71 108 186
69 107 186
71 108 186
71 108 186
71 108 186
71 108 186
71 108 186
73 110 186
71 108 186
70 107 178
71 109 186
69 107 186
69 106 178
69 107 186
71 108 186
71 108 186
69 107 186
69 106 168
71 109 186
71 109 186
72 109 186
70 107 178
70 108 186
71 108 186
69 107 186
71 108 186
71 109 186
71 109 186
69 107 186
69 107 178
71 109 186
71 109 186
68 106 178
70 107 178
70 108 186
70 107 178
73 110 186
71 108 186
69 107 186
70 108 186
74 110 186
71 109 186
70 108 186
71 108 186
71 108 186
71 108 178
70 108 186
74 110 186
71 108 178
68 106 186
73 110 186
72 109 186
68 106 186
69 107 186
69 107 186
72 109 186
74 111 186
69 106 168
71 107 168
72 109 186
73 110 186
70 108 186
72 109 186
70 108 186
71 108 186
70 106 168
72 109 186
71 109 186
71 108 186
71 108 186
68 105 178
71 109 186
69 106 178
71 108 186
70 108 186
71 108 186
71 108 186
72 109 186
71 108 186
70 108 186
71 109 186
69 106 178
69 106 178
70 108 186
70 107 168
71 108 186
71 109 186
71 108 186
72 109 178
71 109 186
69 107 186
74 111 186
71 108 186
69 106 179
67 102 168
69 106 168
70 107 178
70 107 178
68 105 168
74 110 186
70 107 178
72 109 178
67 102 158
69 106 168
69 105 158
70 108 186
70 108 186
68 102 170
70 108 186
70 105 170
71 109 186
69 105 170
73 110 186
71 107 179
69 105 170
68 105 168
71 109 186
74 111 186
70 104 150
70 107 178
70 108 186
71 109 186
71 107 168
73 110 186
69 106 178
70 107 168
73 107 170
67 104 170
66 100 160
66 101 162
61 93 154
93 92 60
98 100 76
34 43 37
115 113 79
38 52 57
100 102 78
141 135 90
82 87 72
74 76 60
70 70 53
101 100 73
45 60 56
99 104 83
119 114 78
83 91 77
48 65 61
77 79 61
78 84 68
102 102 79
124 124 86
75 82 67
73 78 56
73 85 71
43 58 53
106 108 83
46 62 61
106 109 82
70 78 60
95 100 83
127 128 96
106 107 71
81 87 72
137 136 97
123 125 94
140 142 97
136 132 90
114 119 92
78 94 84
79 93 76
118 119 88
137 143 97
108 112 77
136 135 97
137 142 103
135 138 85
100 104 83
102 103 71
124 126 71
126 124 89
145 144 103
139 139 89
128 130 99
137 139 97
146 146 104
145 147 95
152 151 97
145 145 98
160 158 106
149 144 99
131 135 93
149 149 95
93 98 59
135 137 74
155 154 108
146 143 93
148 147 106
147 146 93
142 143 101
148 149 101
163 161 108
142 146 99
173 166 108
160 159 108
165 166 108
164 160 101
133 137 93
143 148 97
166 162 97
153 152 104
144 146 93
158 155 89
173 169 111
169 168 114
166 161 104
168 165 99
158 156 93
139 137 71
173 170 117
174 173 111
144 141 91
158 157 99
175 174 117
170 165 97
163 163 104
151 152 89
160 158 97
170 167 111
175 169 104
172 168 111
167 164 97
161 163 111
169 164 89
172 168 111
170 165 97
170 166 104
142 139 89
172 169 117
156 156 104
180 177 117
157 154 89
156 154 89
182 175 104
164 162 97
162 158 97
175 169 104
158 158 89
163 163 104
183 175 97
159 157 97
175 170 111
167 161 104
151 144 97
181 175 111
155 149 89
167 162 81
183 177 111
166 163 97
164 160 104
178 173 97
178 174 104
189 180 111
178 175 111
184 178 117
175 173 111
171 167 104
185 205 0
180 202 0
180 202 0
167 192 0
180 202 0
178 201 0
181 203 0
177 201 0
189 207 0
181 203 0
182 203 0
181 203 0
175 196 0
177 198 0
170 192 0
178 201 0
179 199 0
181 202 0
181 203 0
181 203 0
178 201 0
185 205 0
176 200 0
183 201 0
178 201 0
166 187 0
183 204 0
180 202 0
174 195 0
181 203 0
181 203 0
182 203 0
179 201 0
184 204 0
170 193 0
180 202 0
180 202 0
184 204 0
169 193 0
182 203 0
183 204 0
176 200 0
186 205 0
178 201 0
180 202 0
163 185 0
184 204 0
180 202 0
173 194 0
177 201 0
179 202 0
178 201 0
179 202 0
172 193 0
174 195 0
174 196 0
181 203 0
173 195 0
173 195 0
169 192 0
176 200 0
182 203 0
171 194 0
183 203 0
184 204 0
176 200 0
183 204 0
182 203 0
178 201 0
184 204 0
183 204 0
129 155 148
70 107 168
70 106 158
74 111 186
69 105 158
72 109 186
69 106 168
69 106 168
70 107 168
71 108 178
73 110 186
72 109 178
72 109 186
71 108 178
69 106 178
72 108 168
69 107 186
71 108 178
69 106 168
70 107 178
73 110 186
72 109 186
72 109 186
71 108 178
70 107 178
70 108 186
69 104 178
69 106 168
69 107 186
68 104 178
69 107 178
69 107 186
70 108 186
69 106 178
72 109 186
72 109 186
72 109 186
71 108 178
72 109 186
74 111 186
71 108 186
71 109 186
72 109 186
70 108 186
70 108 186
69 106 178
69 107 186
70 105 178
74 110 186
72 109 186
69 107 186
67 105 178
71 108 178
73 110 186
72 109 186
69 106 178
72 109 186
69 107 186
72 109 186
70 107 178
68 107 186
73 110 186
71 109 186
69 107 178
72 109 186
68 107 186
69 107 186
73 109 178
69 106 168
72 109 186
71 108 178
70 108 186
71 109 186
69 107 186
69 107 178
69 107 186
71 109 186
69 107 186
72 109 186
68 106 186
70 108 186
68 106 178
69 106 178
70 107 178
69 107 186
72 109 186
68 106 186
69 107 186
66 102 178
70 107 178
72 109 186
70 107 178
69 107 178
72 109 186
72 109 186
72 109 186
68 105 168
69 107 186
72 109 186
70 108 186
72 109 178
71 108 186
69 107 186
71 109 186
68 106 186
70 107 178
73 110 186
71 108 186
69 107 186
71 108 186
71 109 186
72 109 186
74 110 186
70 108 186
70 107 178
71 109 186
70 108 186
70 107 186
71 109 186
71 108 186
68 105 168
71 108 186
69 107 186
72 109 186
69 106 168
70 108 186
71 108 186
70 107 178
71 109 186
71 108 186
71 108 186
72 109 186
69 106 178
70 107 178
69 107 186
69 106 178
68 105 168
73 110 186
72 108 178
72 109 186
71 108 178
72 109 186
74 110 186
70 107 178
69 107 186
70 107 178
72 108 178
70 108 186
73 110 186
69 107 178
70 106 168
69 107 186
71 108 186
71 109 186
68 105 168
71 108 178
69 107 186
72 109 186
68 106 178
71 108 178
72 109 186
71 109 186
71 109 186
72 109 186
71 109 186
73 109 178
69 106 178
68 106 178
70 108 186
71 108 178
69 104 168
70 108 186
69 104 150
72 109 186
70 107 178
68 103 160
70 107 178
72 109 186
71 107 179
67 103 158
70 107 178
70 106 170
72 109 186
71 106 168
71 108 178
68 103 160
69 107 178
65 98 148
71 108 186
72 108 179
67 103 150
69 105 158
68 102 170
66 100 160
53 75 112
45 54 43
81 85 64
90 92 68
8 13 12
39 50 41
33 44 44
48 63 62
78 81 65
112 110 78
100 101 74
113 115 89
35 46 45
94 100 81
73 83 65
68 69 47
41 56 53
136 133 91
113 108 72
115 117 83
99 99 71
42 56 46
102 103 78
97 96 73
100 101 77
75 80 66
97 104 87
77 83 66
111 113 78
80 85 61
91 89 60
136 136 97
110 113 86
95 99 72
133 133 87
135 137 103
117 120 90
136 136 96
83 86 56
112 110 82
130 133 92
116 120 90
108 114 77
154 153 98
145 145 100
126 126 85
89 90 57
117 122 94
148 148 101
126 128 96
143 142 101
149 148 108
112 115 88
108 113 85
142 143 103
165 160 111
124 124 83
150 149 99
138 138 93
163 159 98
141 142 93
116 120 89
126 129 86
161 158 99
161 160 112
157 153 97
154 154 104
151 147 83
138 144 109
154 153 104
151 145 93
149 146 95
139 141 103
157 160 111
128 127 76
142 148 106
151 147 85
141 142 101
158 156 85
140 136 73
149 147 89
147 147 97
170 166 99
179 176 117
157 158 108
180 173 89
161 159 104
144 146 97
165 160 106
168 163 97
168 166 104
183 177 111
180 175 111
184 175 117
168 166 104
169 160 89
164 164 104
192 183 123
169 167 111
176 173 104
180 177 117
159 157 97
165 162 89
174 174 117
161 163 111
174 168 104
164 159 104
163 159 104
154 154 97
178 175 111
153 153 89
180 177 117
144 140 89
179 172 117
170 167 104
179 173 97
178 171 111
160 157 97
183 177 117
169 166 104
159 152 97
173 171 97
160 156 97
185 179 117
175 172 104
174 168 104
152 148 97
180 175 104
161 155 71
181 175 104
175 170 111
169 165 97
171 166 97
165 161 81
177 173 104
185 205 0
173 195 0
180 202 0
185 205 0
177 198 0
180 202 0
177 200 0
183 204 0
179 202 0
179 202 0
179 202 0
171 194 0
163 185 0
182 203 0
180 202 0
181 203 0
179 202 0
174 196 0
184 204 0
184 204 0
173 194 0
180 202 0
172 195 0
182 203 0
169 193 0
166 187 0
180 202 0
172 194 0
184 204 0
169 192 0
177 200 0
177 200 0
168 189 0
174 196 0
182 203 0
172 193 0
152 174 0
175 199 0
174 196 0
174 194 0
172 194 0
180 202 0
179 202 0
177 197 0
179 199 0
178 201 0
177 201 0
181 203 0
173 195 0
179 202 0
176 196 0
170 193 0
180 202 0
171 194 0
175 200 0
181 203 0
176 197 0
170 194 0
174 195 0
181 203 0
167 184 0
178 201 0
175 195 0
184 204 0
180 198 0
174 195 0
173 195 0
179 202 0
171 194 0
177 200 0
166 188 65
72 108 168
70 106 158
70 106 168
70 108 186
73 110 186
68 106 178
70 108 186
71 108 178
69 107 178
69 106 178
69 105 148
70 107 178
69 107 178
72 109 186
71 108 186
69 105 158
70 107 178
70 108 186
73 110 186
70 107 178
73 109 178
71 107 168
71 108 178
69 106 178
71 107 168
74 110 186
70 108 186
70 107 168
71 108 186
71 109 186
70 108 186
68 106 168
70 108 186
70 108 186
69 106 178
72 109 186
73 110 186
70 108 186
73 110 186
71 108 178
70 107 186
72 109 186
70 108 186
74 110 186
71 108 186
71 108 178
71 108 186
72 109 186
70 105 178
70 108 186
72 109 186
70 108 186
71 108 178
73 110 186
70 107 178
70 108 186
69 107 178
72 109 186
69 106 178
72 109 186
71 108 186
70 108 186
68 105 168
69 107 178
73 109 178
72 109 186
69 107 186
71 109 186
69 107 178
70 108 186
71 109 186
68 107 186
69 107 178
69 106 178
70 107 178
72 109 186
70 108 186
71 109 186
73 110 186
71 108 186
71 108 178
70 107 178
67 104 178
71 108 186
70 108 186
70 108 186
71 108 186
72 109 178
72 109 186
70 107 186
70 108 186
72 109 186
72 109 186
71 108 186
71 108 186
71 108 186
71 108 186
69 107 186
72 109 186
69 107 186
70 107 186
70 108 186
70 107 178
70 106 168
74 110 186
70 107 186
71 109 186
70 108 186
72 109 186
69 106 178
70 108 186
69 107 186
72 109 186
69 106 178
73 110 186
70 108 186
72 109 186
73 110 186
72 109 186
71 108 168
69 107 186
73 110 186
70 108 186
71 109 186
70 108 186
71 108 178
70 108 186
71 108 178
71 108 186
73 110 186
72 109 186
72 109 186
73 109 178
72 109 186
71 108 178
70 108 186
69 107 186
68 105 168
71 108 186
72 109 186
69 107 186
68 105 168
71 107 168
71 108 178
70 107 186
72 109 186
72 109 186
69 107 186
72 109 186
73 110 186
73 110 186
70 107 186
70 107 178
71 108 186
71 108 186
71 108 186
70 107 178
70 107 178
71 108 186
70 107 178
71 108 178
72 109 186
69 107 186
70 107 168
71 108 186
71 107 168
71 108 178
70 106 178
71 108 178
66 102 168
70 108 186
72 109 178
72 109 186
70 107 178
68 106 186
70 108 186
69 107 186
71 109 186
69 106 168
70 107 168
71 108 178
69 104 158
72 108 179
71 107 168
64 96 160
70 104 171
71 108 186
71 109 186
63 93 150
71 105 172
69 106 179
70 106 170
73 108 179
62 97 162
70 104 162
32 45 66
74 74 54
72 81 71
72 80 63
114 112 78
74 82 64
96 98 73
43 54 43
44 55 49
77 77 53
84 94 81
114 112 77
77 78 60
82 89 71
94 102 83
94 97 73
124 125 94
80 90 73
78 83 64
101 105 78
109 112 82
102 101 72
115 117 90
83 96 83
117 117 84
108 107 71
111 113 86
84 88 68
108 113 86
96 104 86
98 102 73
102 108 79
139 138 93
96 105 87
94 101 72
71 80 68
115 119 95
116 117 85
121 123 90
120 123 83
114 114 83
102 103 81
110 111 77
122 126 91
119 120 77
133 130 94
123 127 94
141 140 97
99 99 76
143 140 98
112 116 91
128 131 82
120 119 85
119 123 84
110 115 81
150 153 108
83 90 72
122 122 85
120 126 93
176 171 118
151 148 103
117 118 68
127 129 93
160 160 104
149 149 104
157 154 104
161 156 97
132 135 91
130 132 87
158 157 104
156 155 108
158 159 108
132 137 89
112 114 76
167 167 111
168 162 106
167 167 117
153 153 90
147 146 106
167 162 106
157 157 97
160 159 97
149 147 85
158 151 91
175 172 104
175 171 117
167 164 97
156 154 89
184 178 117
186 179 117
131 130 91
168 165 104
179 174 104
177 173 104
170 167 104
180 173 117
184 174 111
160 156 89
160 154 104
149 148 97
180 176 117
161 157 89
178 174 104
163 162 97
167 164 97
179 175 111
185 177 104
182 175 104
174 167 97
187 179 111
177 171 111
184 179 117
179 173 97
171 166 97
164 163 97
165 160 104
168 163 81
185 180 123
144 142 71
153 152 81
183 177 111
152 148 89
167 166 81
163 159 104
177 175 117
166 165 104
164 160 104
181 174 104
171 166 97
161 157 97
174 170 117
163 162 97
172 165 111
172 170 97
178 201 0
178 201 0
183 204 0
180 202 0
179 202 0
170 193 0
184 204 0
180 202 0
181 203 0
186 205 0
176 200 0
177 200 0
179 202 0
183 204 0
174 195 0
182 203 0
183 204 0
170 193 0
176 200 0
171 194 0
169 193 0
174 194 0
180 202 0
178 201 0
179 202 0
168 191 0
172 194 0
177 200 0
181 203 0
177 200 0
179 201 0
182 203 0
179 201 0
167 192 0
180 202 0
183 204 0
178 198 0
182 203 0
167 192 0
178 198 0
182 203 0
177 201 0
177 201 0
176 200 0
168 192 0
177 197 0
181 203 0
180 202 0
169 193 0
172 194 0
179 202 0
181 203 0
181 203 0
182 203 0
180 202 0
178 201 0
170 193 0
174 195 0
184 204 0
167 191 0
182 203 0
176 195 0
179 201 0
178 197 0
170 192 0
182 203 0
175 196 0
185 205 0
180 199 0
169 193 0
139 162 108
72 107 158
73 109 186
68 105 158
67 102 168
65 101 136
69 106 168
72 109 186
72 109 178
71 108 178
68 104 158
65 100 148
71 107 158
68 105 158
72 109 178
70 107 178
71 109 186
71 108 186
72 109 178
68 105 168
74 111 186
68 105 158
68 105 158
70 108 186
73 110 186
68 106 178
71 108 178
71 109 186
71 108 178
70 108 186
71 108 186
70 107 186
72 109 178
71 109 186
71 109 186
70 107 178
70 107 178
70 107 186
70 108 186
69 105 178
72 109 186
72 108 178
70 108 186
71 108 186
72 109 186
72 109 186
73 110 186
69 106 168
69 106 168
70 108 186
71 108 178
71 109 186
71 108 178
73 109 178
69 107 186
69 107 186
71 108 186
73 110 186
70 107 178
72 109 186
70 108 186
71 108 186
70 107 178
71 109 186
72 109 186
70 108 186
71 108 186
68 106 178
70 108 186
71 108 186
68 106 178
71 108 186
70 108 186
73 110 186
70 108 186
70 107 178
70 108 186
69 107 186
72 109 186
72 108 178
68 106 186
72 109 186
70 107 178
72 109 186
70 107 178
69 107 186
70 108 186
70 108 186
69 107 186
71 108 186
73 109 186
70 107 186
72 109 186
72 109 186
70 107 178
72 109 186
71 109 186
71 108 186
71 108 186
68 105 168
68 107 186
71 109 186
71 108 178
71 108 186
70 107 186
72 109 186
70 108 186
73 109 178
68 106 178
71 108 186
70 108 186
71 108 186
70 107 178
72 108 178
68 106 178
72 109 186
71 109 186
71 108 186
70 107 178
71 109 186
71 108 178
73 110 186
71 109 186
71 108 178
72 109 186
72 109 186
72 109 186
71 108 186
70 108 186
71 108 178
71 108 178
71 108 186
69 107 186
69 107 178
71 108 186
70 107 186
70 108 186
71 108 178
69 107 186
70 108 186
71 108 186
71 108 178
73 110 186
71 109 186
71 109 186
67 104 168
70 108 186
69 107 178
71 109 186
71 108 186
70 108 186
68 106 178
68 106 186
71 108 186
71 107 168
70 106 170
71 108 178
69 107 186
67 104 158
73 110 186
71 108 178
72 109 186
68 107 186
72 109 186
72 109 186
69 106 178
72 109 178
69 107 178
69 106 158
68 105 168
69 106 178
70 108 186
71 107 168
70 107 186
66 101 158
72 109 186
69 106 168
71 108 178
70 106 158
71 107 158
70 106 168
70 108 186
72 109 186
73 110 186
69 105 170
73 110 186
67 104 158
68 105 179
69 104 148
67 101 138
69 104 162
70 105 172
69 104 160
68 104 160
66 101 162
63 98 160
84 98 105
44 58 56
74 74 54
76 81 66
75 80 66
50 63 55
37 51 53
43 57 49
76 80 55
69 73 55
82 86 71
41 57 62
103 105 79
39 51 48
72 78 50
34 40 23
48 64 53
51 66 66
98 98 69
107 111 81
124 123 86
73 78 61
134 132 95
96 102 78
90 96 72
134 134 95
130 130 92
71 78 66
116 119 87
98 100 71
84 96 78
98 100 72
126 125 89
118 113 74
114 116 87
129 126 78
147 147 101
99 105 66
122 125 85
132 135 93
120 122 86
127 131 86
97 103 80
121 120 86
139 140 99
110 114 77
115 119 88
118 125 93
96 100 74
102 107 76
122 121 69
158 154 103
120 123 87
154 154 106
127 129 82
120 126 97
129 134 93
133 133 97
136 139 106
141 143 101
135 139 85
133 136 87
137 137 76
113 119 81
165 162 109
130 133 89
156 152 106
149 152 85
166 165 101
118 117 71
127 129 94
122 119 85
162 160 101
176 169 104
166 159 89
150 149 97
160 158 106
143 139 89
162 161 108
169 166 104
173 165 106
154 155 97
175 168 97
157 157 103
164 162 114
177 170 104
188 180 117
160 158 104
149 150 106
172 167 104
171 168 111
172 167 104
165 164 104
169 166 104
178 175 111
184 178 117
185 180 123
173 171 104
162 158 97
177 171 111
183 177 111
172 167 104
156 151 97
173 168 104
176 172 104
188 180 117
180 176 111
174 173 111
182 176 111
178 170 97
170 164 111
152 152 89
166 163 89
168 161 97
165 162 89
171 167 104
184 175 89
179 171 104
158 151 89
175 172 97
148 142 89
169 163 111
158 156 89
176 170 111
159 157 104
158 156 97
165 160 104
156 150 89
181 174 97
161 161 104
154 150 97
143 142 71
178 171 97
150 148 97
182 203 0
172 195 0
179 201 0
179 202 0
178 201 0
181 203 0
181 203 0
180 202 0
179 201 0
171 191 0
178 201 0
178 201 0
181 203 0
170 187 0
180 202 0
174 197 0
177 200 0
180 202 0
180 202 0
180 202 0
178 201 0
176 200 0
179 199 0
176 200 0
178 198 0
176 195 0
178 201 0
177 201 0
177 201 0
172 195 0
179 202 0
170 193 0
180 202 0
178 198 0
183 204 0
176 200 0
171 194 0
161 182 0
178 201 0
179 202 0
170 193 0
184 204 0
176 200 0
182 203 0
179 202 0
176 197 0
181 200 0
180 202 0
181 203 0
174 195 0
185 205 0
162 183 0
177 201 0
177 200 0
180 202 0
184 204 0
177 201 0
181 203 0
168 188 0
172 195 0
172 193 0
180 202 0
180 202 0
176 200 0
178 201 0
173 193 0
170 192 0
164 183 0
180 202 0
178 201 0
72 109 178
72 108 168
72 109 178
72 109 186
73 110 186
71 109 186
70 108 186
70 108 186
71 109 186
71 108 178
70 107 178
71 108 186
72 108 168
69 107 178
70 107 178
71 108 186
71 108 178
71 109 186
71 108 178
71 107 168
70 107 178
72 109 186
69 107 178
71 108 178
73 110 178
70 108 186
69 107 186
70 108 186
72 108 168
67 105 178
70 108 186
70 107 178
74 110 186
72 109 186
71 108 186
68 106 178
69 106 178
72 109 186
70 107 186
72 109 186
69 106 178
71 108 186
70 107 178
69 107 186
73 109 178
72 109 186
71 108 178
70 108 186
68 105 178
72 109 186
70 108 186
71 108 178
69 107 186
72 109 186
71 108 186
71 109 186
74 111 186
72 109 186
74 111 186
71 108 186
72 109 186
69 107 186
72 109 186
72 109 186
72 109 186
68 106 186
71 109 186
72 109 186
72 109 186
72 109 186
69 107 186
70 107 186
70 107 178
70 108 186
68 105 168
70 108 186
71 109 186
70 107 178
72 109 186
72 109 186
70 107 178
71 108 186
70 108 186
71 108 186
70 107 186
73 110 186
71 108 186
71 108 186
69 107 186
69 107 186
70 107 186
70 107 178
71 108 186
70 108 186
71 108 186
69 107 186
71 108 186
72 109 186
73 110 186
71 108 186
69 107 186
68 106 178
70 107 186
71 108 186
70 107 178
70 107 178
72 109 186
71 109 186
70 107 178
71 108 186
71 108 186
70 108 186
70 108 186
70 107 178
73 110 186
69 107 186
70 107 178
71 108 186
70 108 186
70 107 186
69 107 186
72 109 186
70 108 186
72 108 178
68 106 178
70 108 186
70 107 168
68 106 178
70 108 186
70 108 186
72 109 186
72 109 186
71 108 178
70 108 186
68 106 186
70 106 158
73 110 186
71 109 186
71 108 178
69 107 186
70 108 186
71 108 178
72 109 186
69 107 186
70 106 158
69 107 186
68 107 186
72 108 178
72 109 178
72 109 178
69 107 186
69 107 186
68 106 178
72 109 186
70 107 186
71 108 186
73 109 178
71 108 186
70 107 178
72 109 186
71 109 186
70 107 178
70 107 178
71 108 178
68 103 168
71 109 186
71 108 186
70 106 158
71 109 186
71 107 168
68 105 168
69 106 168
71 108 178
71 108 178
66 103 158
70 107 178
72 109 178
72 109 186
70 106 179
70 107 178
73 109 178
69 107 178
68 105 168
69 107 178
71 108 178
69 104 160
70 107 186
69 106 168
69 106 178
69 103 148
69 105 148
72 109 186
63 96 158
63 97 158
73 110 186
65 98 159
65 98 152
72 73 54
97 98 73
74 76 61
94 93 67
77 84 72
32 42 36
36 46 39
46 60 56
150 145 98
75 82 68
70 74 55
29 39 35
75 74 43
112 110 81
72 80 61
112 115 86
37 47 39
111 114 85
99 100 77
78 82 65
79 84 67
74 81 66
79 86 63
102 106 74
98 99 60
117 117 89
92 100 78
108 107 76
77 87 72
132 130 95
109 109 81
70 81 58
112 120 94
113 114 83
137 133 91
152 150 95
76 88 79
157 154 104
110 114 83
120 124 83
111 110 80
134 133 84
139 138 99
129 132 90
108 111 65
138 135 93
108 111 83
139 138 103
125 121 84
121 125 87
135 138 106
139 139 94
133 135 101
129 132 85
122 126 97
114 116 87
156 154 108
135 134 87
167 162 111
173 166 109
162 156 101
156 156 99
146 143 95
144 147 89
150 147 73
138 138 93
156 156 101
148 146 104
146 144 103
145 145 97
179 172 117
154 153 109
167 161 98
167 161 104
154 152 103
143 143 97
162 158 85
148 145 85
161 159 101
170 168 111
128 131 91
152 150 85
176 174 111
168 165 104
151 148 89
138 137 73
190 181 117
164 160 106
175 169 104
172 169 112
175 173 111
175 169 104
169 166 104
165 159 97
179 175 111
170 166 97
179 173 97
172 169 111
177 173 104
183 174 89
148 145 81
170 166 104
173 167 97
188 179 111
173 170 97
166 164 97
167 164 97
176 174 111
176 172 97
168 166 111
162 158 71
166 163 89
152 147 81
154 150 97
162 160 111
153 149 97
161 159 89
166 163 89
172 170 97
150 146 81
178 173 104
180 172 111
159 157 97
160 157 97
175 170 89
179 176 117
153 150 97
157 150 89
181 174 97
161 157 89
165 162 89
165 159 97
169 164 97
183 204 0
181 202 0
179 201 0
174 196 0
183 204 0
180 202 0
176 196 0
180 202 0
180 202 0
177 201 0
174 199 0
179 202 0
179 202 0
176 197 0
179 201 0
181 203 0
173 195 0
180 202 0
178 201 0
180 202 0
173 196 0
166 188 0
181 203 0
182 203 0
184 205 0
179 202 0
161 184 0
180 202 0
168 191 0
170 192 0
178 201 0
181 203 0
176 200 0
180 202 0
178 201 0
171 194 0
173 195 0
179 202 0
181 203 0
176 200 0
182 203 0
168 192 0
173 195 0
179 199 0
175 200 0
168 189 0
180 202 0
177 201 0
178 201 0
181 203 0
166 188 0
171 192 0
172 194 0
184 204 0
169 191 0
181 203 0
181 203 0
176 198 0
173 194 0
183 204 0
178 201 0
182 203 0
180 202 0
181 203 0
177 197 0
170 193 0
168 192 0
168 191 0
181 203 0
158 180 89
68 104 136
72 109 186
70 108 186
70 107 168
68 104 178
66 101 158
71 108 178
71 108 186
71 108 178
71 108 178
71 108 178
72 108 168
70 107 178
71 109 186
69 106 168
72 109 186
70 107 178
73 110 186
71 109 186
70 107 178
70 108 186
71 109 186
72 109 186
70 108 186
71 108 186
72 108 178
68 106 186
70 108 186
70 107 178
69 106 168
70 106 168
68 106 178
71 108 186
71 108 178
73 110 186
72 108 168
68 104 178
69 105 158
69 107 186
72 109 186
71 109 186
73 110 186
71 108 186
69 104 178
70 107 178
71 109 186
71 108 186
69 106 168
72 109 186
69 107 178
73 110 186
71 108 186
71 109 186
70 107 178
70 108 186
70 108 186
70 108 186
72 109 186
72 109 186
72 109 186
70 108 186
70 107 178
70 107 168
71 108 178
69 105 158
71 109 186
70 108 186
68 106 186
67 105 178
69 104 178
72 109 186
69 107 186
67 104 168
68 106 178
72 109 186
69 106 168
70 108 186
70 107 178
75 111 186
71 109 186
73 110 186
71 108 186
70 107 178
71 109 186
70 107 186
73 110 186
71 108 186
71 109 186
73 110 186
71 108 186
71 109 186
73 110 186
73 110 186
67 105 178
72 109 186
71 108 186
70 107 178
72 109 186
71 109 186
69 107 186
70 108 186
70 107 178
73 110 186
70 108 186
73 109 186
71 108 186
73 110 186
70 108 186
71 108 186
68 106 186
70 108 186
70 107 186
67 106 186
70 107 178
69 107 186
73 110 186
69 106 178
69 107 178
70 108 186
69 106 178
70 107 178
71 108 186
71 109 186
72 109 186
70 108 186
70 107 186
70 108 186
69 107 178
71 109 186
69 107 178
70 108 186
70 107 178
70 107 178
74 111 186
70 108 186
71 108 178
72 109 186
72 109 186
71 108 186
69 107 178
71 108 178
69 107 186
69 106 168
69 106 168
71 108 178
72 109 186
71 109 186
69 105 168
72 108 178
71 108 178
68 105 168
71 108 178
71 108 186
71 108 186
70 107 178
71 107 168
72 109 186
68 104 170
68 105 168
66 100 160
72 109 186
70 107 178
71 108 186
71 109 186
71 108 178
70 107 168
68 106 178
71 108 178
69 106 178
70 107 178
71 108 186
71 109 186
70 107 186
73 109 178
69 107 186
68 104 168
69 107 178
70 107 178
72 108 178
64 98 168
67 103 168
70 107 168
66 101 150
72 109 178
73 108 179
66 101 170
67 102 152
69 106 168
69 106 178
71 108 168
67 101 148
73 109 178
66 102 168
60 93 136
68 102 150
65 99 168
67 97 143
82 102 141
75 76 47
29 38 34
28 38 36
94 93 66
41 54 48
93 97 77
71 71 51
78 80 62
100 100 73
93 97 77
117 115 78
130 126 86
71 76 61
50 68 71
128 126 90
96 98 76
55 71 67
101 104 74
92 94 71
129 128 88
125 124 88
118 118 86
146 142 101
109 113 81
42 54 36
77 79 60
84 90 69
100 103 71
142 137 94
110 111 81
107 108 80
114 119 88
93 96 74
132 132 93
97 99 68
115 120 90
146 144 98
118 118 73
100 102 75
133 128 90
91 100 74
150 150 100
133 135 100
118 122 99
148 146 99
112 113 59
156 154 89
118 119 87
149 149 108
122 124 83
128 128 76
154 151 91
160 159 103
136 136 97
109 113 91
137 136 83
112 118 87
128 124 90
152 150 95
128 130 88
103 110 75
142 142 91
124 125 85
144 142 91
119 121 91
130 132 91
138 137 95
143 141 89
155 157 103
175 171 118
138 139 87
162 155 101
164 156 104
175 170 111
156 153 104
174 173 111
179 173 118
169 167 111
149 147 89
141 139 85
149 143 83
174 170 111
159 153 97
166 164 97
164 159 89
154 152 81
162 159 104
161 157 89
171 166 97
179 175 111
183 176 104
172 170 97
166 164 104
160 158 104
166 164 97
150 147 89
177 173 104
176 173 111
173 169 111
145 142 59
174 169 104
173 170 117
168 162 97
168 164 89
181 173 117
168 164 89
174 167 97
190 181 117
167 162 97
167 159 97
185 178 111
178 173 97
175 171 89
166 160 104
170 165 89
152 149 97
167 164 97
178 174 104
173 170 117
164 158 89
135 133 71
165 159 97
150 143 89
169 167 111
173 168 104
184 177 104
181 175 104
156 150 89
179 175 111
165 160 97
153 147 81
172 167 97
163 185 0
182 203 0
178 201 0
175 196 0
177 201 0
182 203 0
172 194 0
183 204 0
182 203 0
180 202 0
176 196 0
173 195 0
181 202 0
182 203 0
178 201 0
177 201 0
177 201 0
178 201 0
183 204 0
170 193 0
181 203 0
170 189 0
179 201 0
181 202 0
184 204 0
179 202 0
169 192 0
179 199 0
170 193 0
174 194 0
178 201 0
180 202 0
177 198 0
178 201 0
174 195 0
177 197 0
177 198 0
178 201 0
181 203 0
166 187 0
181 203 0
172 194 0
182 203 0
184 204 0
181 203 0
182 203 0
181 202 0
177 201 0
184 201 0
174 195 0
182 203 0
171 194 0
172 194 0
165 185 0
169 192 0
182 203 0
180 202 0
176 200 0
180 202 0
169 193 0
176 200 0
172 193 0
182 203 0
179 202 0
176 199 0
172 194 0
159 182 0
179 202 0
167 187 0
66 102 158
72 108 168
70 106 148
73 110 186
73 110 186
68 104 148
73 110 186
71 108 178
71 107 158
71 109 186
69 106 168
72 109 186
70 107 178
68 105 168
71 108 186
69 106 178
71 109 186
68 106 178
70 106 168
70 107 178
71 108 186
74 111 186
71 108 178
69 107 178
73 109 178
73 109 178
73 110 186
71 109 186
74 110 178
70 108 186
71 108 186
69 106 178
72 109 186
70 108 186
72 109 186
72 108 178
66 102 178
70 107 178
70 107 186
70 107 178
70 107 186
72 109 186
72 109 186
72 109 186
72 109 186
70 107 178
72 109 186
71 108 186
71 109 186
70 108 186
70 107 186
71 109 186
71 109 186
65 103 158
69 107 186
70 108 186
70 107 178
69 107 186
71 108 178
69 107 178
69 106 178
73 110 186
69 106 168
70 108 186
72 109 186
72 108 178
70 107 186
70 108 186
70 107 178
70 108 186
72 109 178
69 106 178
71 108 186
71 108 186
71 109 186
69 106 178
72 109 186
71 109 186
71 108 178
68 106 178
69 107 186
71 109 186
69 106 168
72 109 186
70 108 186
71 108 186
71 108 186
68 106 178
71 108 186
70 108 186
71 109 186
68 105 168
73 110 186
71 109 186
72 109 186
70 108 186
72 109 186
73 110 186
71 108 186
69 106 178
72 109 186
71 109 186
72 109 186
71 108 186
68 106 168
70 108 186
69 106 178
70 107 178
71 108 186
72 109 186
73 110 186
71 108 186
71 108 186
70 108 186
71 109 186
69 106 168
70 108 186
67 105 168
71 108 178
69 106 168
70 108 186
69 106 178
70 107 178
73 110 186
71 108 178
73 109 178
71 109 186
70 108 186
71 109 186
71 108 186
72 109 186
70 108 186
70 107 178
72 109 186
69 106 178
70 107 186
70 106 168
71 109 186
71 108 186
71 108 178
71 108 178
72 109 186
73 109 178
69 107 186
74 110 186
72 109 186
70 107 186
70 107 186
70 107 178
70 107 168
72 108 168
71 107 168
72 109 186
70 108 186
70 107 178
72 109 186
68 106 178
70 107 178
69 106 168
69 106 168
70 106 158
72 109 186
73 110 186
70 107 178
67 103 178
71 108 178
70 106 179
70 107 178
70 108 186
67 102 168
68 103 178
72 109 186
70 108 186
74 110 186
69 105 158
70 107 178
71 108 178
71 109 186
71 108 178
67 103 178
72 109 186
72 108 178
69 106 168
72 109 178
69 106 168
73 110 186
70 107 178
70 105 170
71 109 186
72 108 178
63 95 154
64 98 158
70 104 162
72 109 186
69 105 170
69 106 168
72 108 179
69 103 152
67 100 160
38 53 73
100 99 73
72 73 49
98 102 82
36 44 36
77 84 66
111 111 82
96 98 76
71 74 55
113 116 87
74 79 66
76 85 68
69 74 59
77 86 73
97 101 81
132 131 98
113 114 85
76 85 64
97 99 73
95 98 72
112 114 82
76 78 57
117 116 79
75 83 61
117 122 98
118 117 85
119 120 90
84 90 45
122 126 89
145 143 101
113 111 65
83 93 81
107 110 78
99 104 77
101 103 80
105 107 68
128 130 82
123 124 81
123 125 93
116 119 90
136 137 91
113 112 83
93 102 75
116 123 94
115 118 92
128 128 85
123 125 78
158 155 103
176 166 111
114 113 81
136 132 87
150 148 99
145 147 101
134 135 93
152 148 104
141 141 93
166 160 89
149 145 88
123 123 77
157 152 95
139 138 71
168 163 108
142 141 93
164 161 101
161 160 108
151 151 98
134 134 93
147 149 104
146 147 93
148 145 90
138 142 93
145 142 85
178 171 111
132 129 85
167 165 104
167 162 93
155 154 91
164 159 97
166 162 111
160 158 101
147 147 99
162 157 99
167 165 97
159 158 93
165 163 114
154 150 99
166 160 89
185 180 123
173 168 104
162 159 104
165 159 97
163 163 104
172 169 117
182 176 104
185 178 111
159 156 89
171 168 111
156 155 89
170 166 104
151 149 97
169 166 104
157 155 89
164 161 89
163 158 97
176 171 104
175 173 104
166 162 81
176 174 111
170 168 81
172 170 97
181 176 117
177 170 111
182 177 111
163 159 97
183 176 104
176 170 111
158 154 81
162 161 89
173 168 104
177 170 104
183 176 104
166 164 97
148 141 81
169 164 97
167 164 97
171 162 97
164 162 89
179 172 89
169 164 89
159 155 81
157 154 89
175 169 104
181 203 0
183 204 0
182 203 0
177 200 0
182 203 0
180 202 0
176 198 0
172 194 0
182 203 0
177 201 0
170 192 0
170 193 0
162 184 0
178 201 0
175 199 0
178 201 0
180 202 0
178 201 0
178 201 0
183 204 0
183 204 0
176 200 0
172 194 0
175 199 0
172 195 0
176 196 0
182 203 0
180 202 0
178 201 0
172 195 0
180 202 0
179 201 0
173 195 0
171 194 0
181 203 0
175 195 0
174 196 0
185 205 0
182 203 0
182 203 0
176 200 0
173 195 0
181 203 0
180 202 0
178 201 0
183 204 0
175 200 0
182 203 0
175 200 0
170 194 0
175 195 0
187 206 0
180 199 0
174 199 0
169 193 0
179 202 0
174 195 0
170 190 0
170 193 0
181 202 0
175 197 0
178 199 0
180 202 0
168 189 0
180 202 0
175 196 0
158 179 0
182 203 0
146 171 108
71 108 178
70 106 148
68 105 158
71 107 168
70 107 178
73 109 186
67 104 148
70 107 178
71 108 178
70 107 168
72 108 168
72 108 178
71 108 178
70 107 186
69 106 168
68 106 178
69 107 186
69 106 178
72 108 178
70 108 186
67 105 168
70 107 168
73 110 186
73 109 178
70 107 178
70 108 186
72 109 186
69 106 168
71 108 186
71 108 178
70 107 186
70 108 186
70 107 178
69 107 186
70 108 186
71 108 186
72 109 178
72 109 186
72 109 186
69 107 186
70 107 178
72 109 186
70 107 178
73 110 186
69 106 168
72 109 178
71 108 186
70 107 178
70 107 178
71 109 186
72 109 186
70 107 186
71 108 186
72 109 186
70 108 186
72 109 178
72 109 178
70 108 186
72 109 186
69 107 186
70 108 186
69 107 186
73 110 186
73 110 186
70 108 186
70 107 186
71 108 186
70 108 186
72 109 186
71 108 186
70 108 186
68 106 178
68 106 186
71 108 178
73 109 178
71 109 186
72 109 186
71 108 178
71 108 178
69 107 186
71 108 186
71 108 186
72 109 178
69 107 186
71 108 178
70 108 186
71 108 186
69 106 178
69 107 186
70 108 186
72 109 186
70 108 186
72 109 186
68 106 178
71 108 186
70 107 178
69 106 178
73 110 186
69 107 186
71 108 186
70 108 186
71 108 186
70 108 186
71 108 186
71 109 186
69 107 186
69 107 186
72 109 186
69 107 178
69 107 186
71 108 186
73 109 178
72 108 178
71 108 186
70 108 186
70 107 178
69 107 178
71 108 186
71 109 186
71 109 186
72 108 178
72 109 186
69 107 186
70 108 186
68 106 178
74 111 186
70 108 186
71 108 186
71 108 186
71 109 186
72 109 186
71 108 178
71 108 178
72 109 186
72 109 186
72 109 186
73 110 178
69 106 158
69 106 168
70 107 178
74 111 186
71 108 186
72 109 186
68 104 148
71 109 186
71 108 178
72 109 186
71 108 178
68 106 168
68 106 178
72 109 186
71 109 186
71 108 178
70 107 178
70 107 168
71 108 186
72 108 178
71 108 178
71 108 186
69 105 158
68 105 168
70 107 186
69 106 178
68 104 170
71 109 186
70 108 186
69 106 178
71 108 178
70 106 168
70 107 178
71 108 178
73 110 186
73 110 186
71 108 186
73 110 186
73 110 186
70 107 178
70 108 186
72 108 158
73 109 168
70 107 178
70 107 178
73 109 178
70 104 171
72 109 186
68 104 170
68 103 162
72 108 168
72 108 178
71 108 178
73 108 179
67 104 179
71 105 150
70 106 179
66 101 170
65 100 148
71 104 160
69 106 179
67 99 152
64 95 152
78 79 60
42 54 49
78 83 68
116 114 79
36 49 43
95 93 66
119 118 87
71 74 55
104 106 79
76 81 63
47 61 45
37 47 36
75 83 67
38 51 47
45 59 55
39 52 52
101 102 73
44 58 55
81 90 73
101 108 86
42 57 58
45 60 61
109 115 91
83 90 77
88 97 86
106 110 90
94 100 83
79 91 81
76 80 59
143 142 89
110 115 77
98 103 72
98 99 72
53 70 66
134 132 99
95 99 69
129 127 84
107 112 81
119 124 89
119 122 83
146 143 93
108 114 81
114 111 81
106 111 73
139 143 94
131 129 95
97 102 66
145 145 95
138 138 101
125 127 91
120 123 93
162 159 104
149 147 101
141 141 91
120 123 87
175 170 108
121 119 81
145 141 85
136 139 85
151 150 106
122 124 81
162 160 101
152 149 87
151 148 101
158 154 101
158 156 97
155 154 93
124 125 73
176 171 108
160 159 112
157 155 109
109 111 76
129 130 81
161 159 99
179 172 108
164 159 93
168 166 104
163 159 101
170 163 106
166 162 112
160 158 97
179 173 118
158 153 95
162 158 97
175 169 104
173 169 111
164 160 104
164 162 89
165 162 89
178 174 111
167 160 97
157 156 97
180 174 97
177 173 104
167 162 111
158 155 81
167 163 104
173 171 97
164 157 89
163 158 97
167 165 104
181 175 104
166 166 111
171 167 104
171 166 97
171 166 97
164 159 97
176 168 97
167 165 104
175 172 104
174 168 97
180 175 104
182 175 104
168 161 97
147 140 81
164 158 89
155 153 81
148 145 71
182 175 97
181 175 104
181 176 111
161 159 104
170 169 97
170 163 97
166 159 89
145 144 81
163 157 89
164 159 97
144 139 89
154 149 89
140 135 59
178 196 0
180 202 0
177 200 0
177 197 0
177 201 0
181 202 0
176 196 0
163 186 0
175 195 0
181 203 0
173 195 0
178 201 0
180 202 0
173 195 0
177 198 0
176 196 0
175 200 0
180 202 0
177 200 0
182 203 0
172 195 0
175 196 0
167 192 0
174 196 0
182 203 0
182 203 0
180 202 0
168 191 0
180 202 0
180 202 0
162 186 0
183 204 0
176 200 0
169 193 0
181 203 0
179 202 0
178 201 0
173 195 0
161 185 0
177 197 0
172 194 0
179 202 0
171 194 0
188 207 0
178 201 0
164 185 0
176 197 0
180 202 0
176 200 0
180 195 0
184 204 0
176 197 0
170 193 0
177 197 0
179 198 0
175 197 0
181 203 0
178 201 0
183 204 0
181 200 0
183 201 0
179 202 0
187 206 0
184 201 0
181 203 0
173 195 0
181 203 0
177 197 0
92 121 148
66 103 148
71 107 168
71 108 186
72 108 168
75 111 186
70 107 178
71 108 168
71 109 186
71 108 178
73 109 178
74 110 186
73 109 178
72 108 168
69 107 186
72 109 186
74 111 186
71 109 186
73 110 186
69 107 186
70 107 178
72 109 186
70 107 178
73 110 186
71 108 186
69 107 186
67 104 158
72 109 178
71 108 186
72 109 186
74 111 186
71 108 178
73 110 186
71 108 178
72 108 178
69 106 168
72 109 186
72 109 186
70 107 178
69 106 178
72 108 178
70 107 178
71 108 178
73 110 186
73 110 186
70 108 186
68 106 186
71 108 178
70 107 178
70 107 168
72 109 186
69 106 168
71 108 178
71 108 186
69 107 186
69 106 178
68 106 178
71 109 186
71 109 186
70 107 178
72 109 186
73 110 178
70 108 178
69 106 178
71 108 186
71 108 186
69 107 186
69 106 178
73 110 186
72 109 186
73 110 186
69 107 178
69 107 178
71 108 186
70 106 168
68 106 178
72 109 186
71 107 158
69 107 186
71 108 186
71 108 186
69 106 178
72 109 186
68 104 158
72 109 186
70 108 186
69 106 168
70 107 178
69 107 178
71 108 186
70 107 178
69 107 186
71 108 186
69 107 178
69 107 186
71 108 186
70 107 186
71 108 186
70 108 186
72 109 178
71 108 186
72 109 186
70 108 186
70 107 186
70 108 186
71 109 186
71 108 186
71 108 186
70 107 178
69 106 168
70 107 168
71 108 178
69 106 178
71 109 186
67 103 178
72 108 178
71 108 186
71 108 178
71 109 186
71 108 178
69 106 178
73 110 186
69 107 186
71 109 186
71 109 186
68 106 178
72 109 186
69 106 168
71 109 186
72 109 178
72 109 186
69 106 178
72 109 186
72 108 168
72 109 178
72 109 186
72 109 186
73 110 186
70 107 178
71 108 186
69 107 178
71 108 178
69 107 186
73 110 186
69 104 178
70 108 186
71 108 178
70 108 186
71 108 186
71 108 186
69 105 158
71 108 178
69 105 158
71 109 186
70 108 186
70 107 178
69 106 179
69 106 168
71 108 178
72 109 186
70 106 168
70 107 178
69 106 168
72 108 178
68 105 168
69 106 168
73 109 168
66 102 178
71 107 179
66 102 168
71 108 186
70 108 186
72 109 186
71 108 178
73 110 186
69 103 162
71 109 186
73 110 186
68 105 179
66 103 168
68 105 168
72 107 179
68 106 178
69 106 178
69 105 170
70 106 170
71 108 168
71 107 178
71 105 160
70 107 178
70 106 170
70 107 168
67 102 170
70 107 178
71 107 179
72 108 168
71 108 178
72 108 178
66 97 150
64 98 150
68 103 150
70 73 59
24 31 20
102 98 64
72 75 55
94 93 66
45 57 48
49 60 51
115 114 82
42 54 45
39 53 53
44 57 46
70 69 43
116 113 73
94 96 67
82 89 68
72 73 49
99 99 64
76 85 66
73 77 55
116 117 61
98 100 72
54 72 66
82 90 74
77 83 66
118 118 86
47 61 60
94 101 84
95 95 70
111 111 66
80 86 67
73 81 64
78 84 62
97 105 86
101 103 80
39 53 49
111 116 85
142 139 100
72 83 59
143 140 93
112 118 88
68 74 57
141 137 94
154 152 97
128 127 90
154 151 87
155 152 97
71 77 60
132 135 94
104 112 77
138 137 97
163 160 97
118 121 87
118 121 85
149 148 104
136 136 93
152 148 94
135 132 81
160 158 101
150 146 88
161 157 97
151 147 95
135 133 89
150 148 81
143 138 97
162 161 104
138 137 99
142 138 97
106 111 76
148 144 93
143 139 95
172 169 111
114 115 65
143 144 73
153 150 97
163 161 89
178 173 97
155 154 91
141 142 97
137 139 87
174 169 111
154 152 101
150 150 95
164 159 97
155 149 71
167 161 104
169 161 99
173 167 97
185 180 123
160 152 89
179 171 111
172 169 89
169 160 89
181 177 117
157 153 81
182 177 117
193 183 123
170 167 104
169 163 111
164 164 104
172 167 104
183 175 104
173 171 97
169 165 97
157 151 97
183 176 117
181 177 117
160 156 81
165 158 89
145 144 89
182 177 111
146 144 81
159 153 97
162 159 104
147 141 89
169 162 104
182 174 97
140 137 81
168 163 111
149 148 97
169 166 104
185 178 111
170 165 89
181 175 104
178 170 104
158 150 81
177 173 104
181 177 117
182 175 97
159 155 89
146 141 89
185 178 111
179 202 0
179 202 0
176 197 0
173 194 0
184 204 0
174 196 0
170 193 0
185 205 0
180 202 0
167 186 0
178 201 0
180 202 0
183 204 0
182 203 0
168 189 0
178 198 0
161 184 0
182 203 0
173 195 0
181 203 0
182 203 0
172 193 0
181 203 0
174 195 0
178 201 0
184 205 0
153 174 0
181 203 0
179 201 0
179 202 0
182 203 0
181 203 0
178 201 0
177 200 0
172 194 0
177 200 0
168 192 0
179 202 0
169 192 0
177 198 0
179 202 0
175 196 0
177 200 0
179 202 0
179 202 0
174 195 0
177 201 0
172 194 0
180 202 0
179 201 0
170 190 0
170 194 0
181 202 0
173 195 0
175 200 0
182 203 0
177 200 0
176 195 0
180 202 0
167 188 0
180 202 0
182 203 0
183 204 0
178 201 0
181 199 0
178 201 0
175 196 0
150 170 89
73 109 178
74 110 178
71 106 148
71 107 168
71 108 168
70 106 168
71 108 186
71 108 178
70 108 186
69 107 186
67 104 158
68 105 178
69 103 168
70 107 168
70 106 168
72 109 186
70 106 168
70 107 178
74 110 186
70 108 186
71 108 178
71 108 178
69 106 168
69 107 178
70 107 178
71 108 186
71 107 168
70 107 178
70 107 178
69 106 168
68 105 168
73 110 186
72 109 186
72 108 178
70 108 186
73 109 178
71 109 186
71 109 186
71 108 186
71 108 186
71 108 178
71 109 186
71 108 186
70 108 186
69 107 186
72 109 186
74 110 186
72 109 186
72 109 186
71 108 186
67 104 158
71 108 186
71 109 186
70 108 186
71 108 186
72 109 186
69 107 178
72 109 186
72 109 186
73 110 186
68 103 168
72 109 178
70 107 178
70 108 186
70 108 186
71 108 168
70 107 186
71 108 186
70 107 178
70 107 178
70 108 186
71 109 186
71 108 186
71 108 178
70 108 186
71 109 186
71 107 168
71 109 186
71 109 186
71 108 186
71 109 186
74 111 186
69 107 186
70 107 186
69 106 178
69 107 186
70 108 186
69 107 178
72 109 186
69 107 186
69 107 186
69 107 186
72 109 186
71 108 178
72 109 178
71 108 186
70 107 168
72 109 186
70 108 186
72 109 186
71 109 186
69 106 178
73 110 186
68 106 186
72 109 186
70 108 186
72 109 186
69 107 178
68 107 186
71 108 186
71 108 186
70 108 186
72 109 186
72 109 186
69 107 178
70 107 186
68 107 186
70 108 186
69 106 178
72 109 186
71 108 186
72 109 186
70 108 178
70 107 178
68 106 186
70 107 178
72 109 178
71 108 186
72 109 186
72 108 168
70 108 186
70 107 178
71 108 186
72 108 178
69 105 148
70 108 186
70 107 178
70 107 178
70 108 186
71 108 178
70 108 186
70 106 168
71 108 178
69 106 168
72 109 186
72 109 186
72 109 186
68 107 186
73 110 186
70 107 178
67 105 168
71 108 178
70 107 186
70 108 186
72 109 186
69 107 186
72 109 186
71 108 186
69 106 168
72 109 186
71 108 186
71 107 168
70 107 178
72 109 178
71 107 168
72 109 186
71 109 186
69 107 178
73 110 186
72 109 186
70 107 178
70 107 168
65 96 154
71 108 186
73 110 186
70 108 186
69 106 178
72 109 178
70 107 178
72 109 186
73 109 178
72 109 186
71 107 168
71 107 179
68 105 168
72 109 186
69 105 158
71 108 178
71 107 179
70 108 186
69 105 170
67 104 158
62 96 168
71 109 186
72 108 178
67 102 152
71 107 179
65 100 160
66 98 141
71 106 170
65 99 150
46 68 111
71 70 52
77 82 67
94 89 59
73 75 52
79 78 55
98 101 81
77 81 47
75 74 47
43 54 39
48 59 49
109 109 77
77 85 70
60 78 78
116 114 82
114 113 82
119 118 90
80 92 78
97 103 85
142 137 94
75 82 67
110 110 69
115 119 94
34 48 52
79 89 76
43 57 55
130 128 89
120 117 80
137 134 87
94 102 85
78 83 66
85 93 82
98 101 73
127 129 80
99 99 65
127 127 89
153 148 91
103 107 82
122 122 77
144 141 82
147 147 98
124 125 91
125 125 87
141 142 101
119 122 76
144 141 94
112 110 65
141 139 95
156 151 94
145 143 101
138 135 95
117 115 79
141 138 90
121 125 82
146 146 99
101 108 88
139 138 95
119 122 86
164 161 101
133 135 89
145 142 93
145 147 104
161 158 97
148 145 99
148 148 88
159 154 108
129 130 89
131 128 85
140 137 88
141 142 99
147 148 95
128 133 81
133 128 76
165 162 108
160 157 93
157 152 97
154 149 89
161 161 115
192 183 123
150 145 73
167 161 101
142 138 99
151 143 89
178 172 108
150 147 91
168 167 111
167 162 81
170 166 104
163 159 97
166 161 104
165 159 97
171 168 111
168 164 89
163 158 97
162 157 71
169 163 81
172 168 104
156 154 89
182 175 97
170 167 111
189 181 117
180 172 111
174 171 97
154 152 81
165 159 97
152 149 59
151 146 71
157 153 81
174 169 111
138 135 71
169 166 104
147 146 89
177 171 89
164 161 81
174 166 89
180 177 117
163 157 89
138 134 71
164 161 89
174 167 97
166 161 104
181 174 97
162 158 97
171 167 81
146 142 59
150 149 71
169 164 89
170 164 89
160 156 89
162 157 89
155 151 71
179 202 0
180 202 0
178 201 0
179 201 0
176 200 0
172 195 0
185 205 0
182 203 0
173 194 0
181 203 0
170 193 0
178 201 0
180 202 0
174 194 0
169 191 0
182 203 0
182 203 0
184 204 0
179 202 0
176 200 0
173 195 0
178 201 0
173 195 0
179 202 0
176 194 0
174 194 0
179 202 0
184 204 0
170 193 0
179 201 0
178 201 0
171 194 0
176 200 0
180 199 0
182 203 0
179 202 0
178 201 0
179 202 0
170 193 0
175 196 0
177 201 0
174 195 0
182 203 0
176 200 0
180 202 0
175 200 0
172 194 0
176 197 0
183 204 0
175 196 0
177 201 0
165 187 0
181 203 0
169 190 0
180 202 0
183 201 0
177 200 0
175 196 0
162 185 0
178 201 0
183 204 0
185 205 0
185 205 0
176 200 0
170 192 0
168 192 0
164 183 0
124 149 136
70 106 158
71 108 168
71 107 168
72 109 186
70 107 178
71 108 186
72 108 178
71 108 178
70 107 178
72 109 186
71 108 178
70 107 168
70 107 178
69 104 168
70 107 186
72 109 186
74 110 186
68 105 168
72 109 186
72 109 186
71 108 178
68 106 178
72 109 178
64 99 148
71 109 186
70 107 178
70 108 186
71 108 178
70 107 178
71 109 186
72 109 186
71 108 186
72 109 178
70 108 186
69 107 186
71 108 168
70 108 186
66 102 178
70 108 186
70 108 186
70 107 186
70 107 186
70 107 178
70 108 186
71 108 186
72 108 178
73 110 186
67 106 186
71 108 178
70 108 186
73 110 186
72 109 186
72 109 186
70 108 186
72 109 186
71 108 186
70 107 186
73 110 186
72 109 186
71 108 186
69 106 158
72 108 178
70 108 186
73 110 186
70 108 186
69 107 186
69 107 186
70 107 178
71 108 186
68 106 186
72 109 186
71 108 178
70 107 178
71 108 178
71 108 178
73 110 186
71 108 178
72 108 178
70 107 178
70 108 186
71 108 178
73 110 186
72 109 186
70 108 186
65 101 168
70 108 186
72 108 178
71 108 186
70 108 186
73 110 186
70 108 186
70 107 186
68 106 186
69 107 186
70 108 186
71 108 186
72 109 186
71 107 168
70 107 168
69 107 186
72 109 178
71 108 186
68 106 178
71 108 178
71 108 186
71 108 186
69 107 186
70 108 186
71 108 186
71 108 186
72 109 186
72 109 186
70 108 186
69 107 178
72 108 178
73 110 178
71 108 186
71 109 186
69 107 186
72 108 178
70 107 178
71 109 186
69 106 168
70 108 186
70 107 178
69 106 178
71 108 178
69 107 178
70 107 178
70 108 186
68 105 168
72 108 178
72 109 186
69 106 168
71 108 186
72 108 178
70 108 186
71 108 186
71 107 168
67 105 178
74 111 186
71 108 178
72 109 186
68 104 158
70 107 178
71 108 178
70 107 178
70 107 178
70 106 168
72 109 186
70 107 178
69 106 178
70 108 186
71 107 168
68 106 186
71 108 178
70 108 186
72 108 168
73 109 178
72 109 178
71 107 168
71 109 186
71 108 178
69 107 186
73 110 186
71 108 178
69 106 178
70 107 178
72 109 186
71 108 178
71 108 186
73 110 186
73 110 186
70 106 179
69 106 178
68 106 178
70 108 186
72 109 178
70 107 178
73 110 186
71 108 178
72 108 168
70 106 170
70 108 178
73 110 186
70 107 178
70 105 170
71 108 168
71 108 178
71 106 168
70 107 178
69 104 160
66 101 168
73 110 186
72 109 178
65 100 168
70 107 178
70 105 178
69 105 170
73 109 178
65 96 152
63 98 169
74 77 61
44 57 55
78 85 72
70 69 46
141 137 94
79 79 55
74 77 56
32 43 36
26 37 34
93 93 67
92 99 67
40 53 49
46 60 53
70 71 44
110 110 80
45 62 53
73 76 59
100 105 82
124 121 77
82 88 66
117 119 78
81 85 67
97 101 77
93 98 71
51 66 62
94 97 68
102 104 82
50 65 60
95 98 72
77 83 69
43 56 45
106 112 85
96 104 79
148 144 94
93 98 64
99 106 82
101 106 84
136 135 94
133 131 93
125 125 91
128 123 77
134 135 90
150 146 95
110 112 77
109 110 72
121 122 81
126 126 82
134 132 78
121 121 89
96 101 76
132 133 89
137 135 91
126 128 94
154 153 104
148 145 91
154 150 90
168 163 111
158 156 93
130 132 83
147 145 76
152 148 101
127 126 87
141 141 104
110 110 85
115 118 78
148 144 97
169 164 108
168 162 101
147 145 83
142 140 87
160 154 95
153 150 89
141 137 93
149 144 89
146 146 85
185 179 117
152 150 99
168 163 101
170 167 104
141 140 89
146 141 83
158 156 97
184 177 111
180 175 104
179 175 111
180 173 104
177 169 104
154 149 89
178 172 89
179 174 104
181 176 111
175 170 117
175 170 89
169 166 104
172 165 89
168 165 71
177 172 97
143 140 59
182 177 111
184 177 104
175 170 111
183 173 111
160 155 81
177 172 89
168 164 89
152 150 89
167 162 89
138 135 71
176 169 104
187 179 111
148 146 81
158 154 81
159 156 89
174 167 97
168 165 97
172 166 97
158 153 97
157 153 89
166 159 81
166 160 97
166 161 104
156 150 89
126 122 43
144 143 81
165 160 89
179 169 111
181 175 104
148 144 71
160 159 71
157 150 89
180 202 0
182 203 0
179 202 0
173 194 0
173 194 0
173 195 0
177 197 0
170 192 0
174 195 0
180 202 0
178 196 0
170 190 0
177 197 0
178 201 0
171 194 0
178 198 0
182 203 0
181 202 0
170 194 0
181 200 0
181 203 0
169 190 0
178 201 0
179 201 0
177 200 0
171 191 0
182 203 0
178 201 0
172 194 0
176 200 0
182 203 0
178 201 0
181 203 0
170 193 0
182 203 0
177 201 0
180 202 0
183 204 0
177 201 0
168 187 0
170 194 0
177 197 0
183 204 0
169 190 0
180 202 0
169 193 0
181 203 0
170 192 0
183 204 0
178 201 0
167 189 0
176 197 0
183 204 0
177 201 0
178 201 0
183 204 0
179 202 0
176 195 0
169 193 0
174 196 0
178 201 0
172 194 0
180 202 0
175 196 0
178 197 0
180 202 0
166 188 89
70 107 168
69 105 158
66 103 148
73 110 186
71 108 178
70 106 158
67 103 148
66 101 158
73 109 178
72 108 178
71 108 178
73 109 168
76 112 186
67 104 158
71 108 186
72 107 158
70 107 178
69 107 178
69 107 186
71 108 186
70 107 186
70 107 178
69 107 186
72 109 186
70 108 186
68 105 168
69 107 178
70 107 178
68 105 168
70 107 178
71 108 178
72 109 186
70 107 178
73 110 178
69 107 178
71 108 178
71 108 178
72 109 186
70 107 168
71 108 186
68 106 178
70 105 178
71 109 186
71 109 186
71 108 186
73 110 186
71 109 186
69 107 186
70 108 186
70 108 186
71 108 178
72 109 186
68 106 178
68 103 178
71 108 178
72 109 186
70 108 186
70 107 186
72 109 178
70 108 186
73 110 186
72 109 186
71 109 186
72 109 178
73 109 178
70 108 186
70 108 186
70 108 186
75 111 186
71 107 168
70 107 178
70 108 186
71 108 178
71 108 178
70 105 178
70 107 186
73 109 178
68 106 178
70 108 186
70 107 178
71 108 186
70 108 186
66 102 178
70 108 186
70 108 186
71 108 186
71 108 186
72 109 186
70 108 186
72 109 186
71 109 186
72 109 186
72 109 186
70 107 168
73 110 186
70 107 178
72 109 186
70 108 186
71 108 186
72 109 186
72 108 178
72 109 186
71 108 178
72 109 186
69 107 178
70 107 178
73 110 186
69 107 186
71 109 186
70 107 178
72 109 186
70 108 186
71 108 178
71 108 186
69 107 178
71 108 168
69 107 186
70 108 186
72 109 178
69 106 178
68 106 186
70 106 168
70 107 178
67 103 168
72 109 178
74 110 186
72 109 186
69 106 178
72 108 178
70 107 186
72 109 186
72 109 186
70 107 178
69 106 168
70 107 178
73 110 186
70 107 178
71 108 178
70 107 178
72 109 178
67 103 168
72 108 178
71 109 186
70 107 178
68 106 178
73 110 186
69 106 168
70 107 178
71 109 186
70 106 168
72 109 178
70 108 186
71 108 186
70 108 186
69 107 186
71 107 168
69 107 186
70 108 186
71 108 178
69 107 186
73 110 186
70 107 178
73 110 186
73 109 178
68 106 178
68 105 179
69 107 178
72 108 178
72 109 186
69 104 178
69 105 158
74 111 186
70 105 170
67 101 158
71 108 168
70 106 168
71 108 178
71 108 178
72 109 186
74 110 178
70 108 186
70 107 178
70 107 178
71 108 178
69 106 168
70 107 178
73 109 178
67 102 158
74 110 186
67 100 143
67 105 178
67 101 160
71 108 168
73 110 178
69 105 170
68 104 158
67 102 168
71 108 178
71 106 170
71 106 160
68 103 150
64 96 154
72 109 178
86 100 124
22 31 32
98 96 66
75 75 59
75 81 66
43 57 47
80 83 57
32 42 43
39 51 34
102 102 69
86 91 69
120 118 83
75 82 59
76 81 59
40 53 21
117 116 83
79 85 72
111 109 72
113 114 86
100 103 76
99 100 77
74 85 77
48 62 52
123 121 79
98 103 84
95 99 61
93 97 73
100 103 77
111 114 74
121 123 90
149 147 98
152 150 97
104 105 78
76 86 67
100 105 82
72 77 57
167 164 108
133 131 91
100 108 90
115 112 79
143 143 91
101 110 66
111 112 84
124 125 92
132 130 71
140 136 93
144 144 89
161 156 109
94 93 66
95 100 78
147 145 101
142 143 95
113 117 72
164 160 98
150 146 91
112 111 82
98 102 83
136 135 93
181 175 111
159 155 104
121 123 73
156 155 108
136 134 89
147 143 99
151 146 93
154 152 93
181 174 114
164 156 101
133 134 89
143 141 85
163 160 101
158 154 101
133 135 76
150 151 101
179 173 89
174 167 97
151 148 89
186 179 117
167 164 97
159 151 97
152 147 76
154 151 97
173 164 106
148 146 83
159 157 97
164 158 91
142 137 71
180 176 117
182 175 97
178 173 97
179 171 111
167 166 111
178 175 111
172 164 81
168 166 81
179 174 104
158 157 104
176 171 89
178 171 111
176 171 89
172 169 89
165 161 81
165 159 97
147 145 89
171 168 89
160 156 81
161 153 97
153 149 89
165 161 81
170 166 97
148 146 89
145 141 81
167 164 97
188 180 117
133 133 71
165 163 81
146 142 89
164 160 71
160 154 97
158 153 71
162 156 81
152 152 89
186 179 117
158 154 81
157 154 81
158 155 89
168 162 104
169 163 81
174 167 97
158 155 89
171 194 0
178 201 0
180 202 0
183 204 0
181 203 0
172 195 0
181 203 0
175 200 0
178 201 0
176 200 0
181 202 0
178 198 0
184 204 0
173 194 0
182 203 0
175 195 0
180 202 0
175 200 0
176 200 0
177 201 0
175 200 0
178 201 0
173 193 0
182 200 0
177 200 0
177 200 0
183 204 0
166 188 0
177 201 0
176 197 0
180 202 0
166 184 0
178 201 0
176 196 0
174 195 0
176 200 0
174 196 0
179 202 0
169 192 0
181 203 0
170 189 0
175 197 0
163 185 0
178 201 0
182 200 0
168 190 0
181 203 0
183 204 0
184 204 0
185 205 0
175 195 0
177 198 0
184 204 0
180 202 0
173 194 0
165 187 0
178 201 0
179 202 0
180 202 0
172 194 0
180 202 0
173 195 0
179 202 0
170 190 0
180 202 0
178 201 0
127 153 123
69 105 136
73 109 178
70 107 186
69 106 168
68 105 158
70 106 158
71 107 168
71 107 168
71 108 178
70 106 168
68 104 148
69 105 158
69 104 178
71 107 168
70 106 168
71 108 178
71 109 186
72 109 186
70 106 168
72 109 178
68 106 178
68 105 158
74 110 186
71 108 186
71 107 158
71 108 186
73 110 186
70 107 168
71 108 178
72 109 186
69 106 178
72 109 186
67 105 168
69 106 168
70 108 186
72 108 178
69 106 178
71 109 186
69 106 178
71 108 186
71 108 178
72 109 186
71 108 186
69 106 178
72 109 186
70 107 168
68 105 168
73 110 186
69 107 186
68 107 186
71 108 186
72 109 186
69 106 168
70 107 178
69 107 178
72 109 186
68 105 168
72 109 178
71 108 178
69 105 158
69 107 186
70 108 186
71 107 168
70 107 178
71 108 186
68 106 178
70 107 178
71 108 186
69 106 168
69 107 186
69 106 168
71 109 186
70 108 186
70 107 178
71 108 186
70 108 186
70 107 178
70 108 186
72 109 186
72 109 186
68 106 186
69 107 186
70 105 178
69 107 186
72 108 178
67 105 168
71 108 186
71 109 186
72 109 178
70 106 168
70 107 178
72 109 186
71 108 186
73 110 186
69 106 158
72 109 186
71 108 178
70 107 178
73 110 186
71 108 178
69 107 178
69 107 178
71 108 186
72 109 186
68 106 186
71 108 178
72 109 186
70 107 178
73 110 186
72 109 186
74 110 178
67 105 168
68 106 178
69 107 186
72 109 186
72 109 186
72 109 186
70 108 186
71 107 168
73 110 186
68 106 178
69 106 168
71 108 178
72 109 186
69 106 178
70 106 168
73 109 178
70 107 178
69 105 158
70 108 186
71 109 186
71 108 178
69 107 186
73 110 186
71 108 186
70 107 178
72 109 186
73 110 186
71 108 186
65 102 178
72 108 178
68 105 168
71 108 186
69 105 158
70 108 186
73 110 186
73 110 186
69 107 178
72 109 186
69 106 168
72 109 186
69 107 178
71 108 186
71 108 186
69 106 178
72 109 186
70 107 168
71 108 178
73 109 178
72 109 186
70 107 178
70 107 178
72 109 186
73 110 186
71 108 178
71 107 179
70 106 158
73 109 178
69 106 179
69 107 186
70 108 186
71 106 178
71 108 186
70 107 178
70 107 168
72 109 186
70 107 168
70 106 158
69 105 158
70 107 178
71 109 186
68 105 168
71 108 178
70 107 178
71 108 178
70 107 178
70 107 178
68 102 170
66 100 148
68 105 158
71 108 178
68 106 178
73 108 179
70 106 158
67 104 158
69 103 171
69 104 178
71 108 186
74 111 186
63 96 148
69 105 148
67 103 158
66 100 141
60 91 141
23 26 15
41 52 43
72 73 45
79 83 61
72 73 54
76 78 55
71 73 50
70 70 46
36 49 45
45 58 48
113 109 71
77 82 66
98 98 68
100 98 66
82 89 76
97 101 78
101 100 65
88 88 54
99 98 68
95 97 62
109 110 72
130 128 90
75 81 61
79 88 66
83 90 77
115 117 90
95 98 72
79 82 60
93 99 67
160 155 97
98 97 65
116 115 79
93 98 73
94 99 78
75 80 61
113 116 85
129 131 97
147 146 102
128 126 73
134 135 76
148 145 101
100 101 77
132 129 76
124 125 87
158 152 93
155 152 106
120 123 84
130 130 71
124 120 78
137 133 83
129 129 60
143 144 89
140 136 91
125 125 93
129 131 71
155 151 83
104 105 65
123 122 71
144 144 101
150 147 91
156 152 99
136 138 97
110 115 65
122 121 85
120 118 47
105 106 68
152 151 97
148 144 95
169 164 89
160 154 97
149 146 90
138 137 101
103 103 47
153 150 91
169 165 93
163 159 101
166 160 93
170 166 97
169 166 104
151 147 89
174 167 91
168 161 97
158 157 93
168 163 81
170 161 81
181 174 97
170 164 111
176 172 97
166 160 97
153 148 89
176 168 97
166 161 97
179 171 104
183 178 117
187 180 117
179 173 117
149 148 97
167 164 97
182 178 117
149 147 89
166 160 97
159 155 81
169 163 81
170 166 104
171 169 97
185 178 111
166 164 104
162 157 89
173 169 111
165 159 89
172 167 97
188 179 111
169 162 104
159 156 89
145 139 81
172 167 104
155 150 89
165 162 89
179 173 104
171 163 104
152 148 89
152 148 81
169 166 81
146 143 71
165 159 89
142 143 71
147 145 81
182 175 104
172 166 97
177 201 0
179 202 0
179 202 0
180 202 0
185 205 0
180 202 0
169 193 0
180 202 0
172 195 0
182 203 0
175 196 0
182 203 0
176 200 0
184 204 0
181 203 0
182 203 0
186 205 0
171 194 0
174 197 0
162 183 0
178 201 0
180 202 0
181 203 0
180 202 0
173 194 0
179 202 0
168 192 0
181 203 0
178 201 0
180 202 0
182 200 0
182 203 0
181 202 0
183 204 0
180 202 0
170 192 0
179 202 0
180 202 0
183 204 0
180 202 0
179 202 0
175 196 0
171 194 0
177 200 0
180 202 0
182 203 0
171 193 0
172 194 0
177 201 0
180 202 0
177 200 0
181 203 0
184 204 0
175 196 0
180 202 0
183 204 0
174 196 0
173 194 0
177 201 0
177 197 0
170 193 0
179 199 0
178 201 0
180 202 0
181 203 0
171 193 0
71 108 178
71 107 168
72 108 168
72 109 178
68 105 168
73 110 186
70 107 168
70 108 186
69 105 148
70 107 186
72 109 186
67 104 158
70 107 168
71 108 186
68 105 158
73 110 186
68 106 178
69 105 148
72 109 186
70 108 186
71 108 178
70 107 168
71 108 186
70 106 158
71 108 178
71 108 178
71 108 178
70 107 168
70 107 178
69 106 168
72 109 178
73 109 178
70 107 178
73 110 186
69 106 178
69 107 186
75 112 186
71 108 178
69 106 178
72 109 186
73 109 178
73 109 178
71 109 186
72 109 178
71 108 178
72 109 186
72 108 178
71 108 186
69 107 178
68 104 178
71 107 168
75 111 178
70 108 186
71 108 186
72 108 178
69 107 178
73 110 186
69 107 178
73 110 178
72 109 186
72 109 186
73 110 186
72 109 186
71 108 186
70 108 186
71 108 178
70 107 178
71 108 178
71 108 178
70 107 178
69 107 186
71 108 186
71 108 178
72 109 186
69 106 178
69 107 178
70 107 178
70 107 186
70 107 186
69 106 178
73 110 186
71 108 186
69 107 178
72 109 186
70 107 178
72 109 186
71 108 186
69 106 178
69 107 178
71 108 178
69 107 186
69 107 186
70 108 186
70 108 186
71 108 186
73 110 186
69 107 186
70 108 186
71 108 186
72 109 186
70 107 178
71 108 178
70 107 178
72 109 186
72 109 186
69 107 186
68 105 178
69 107 186
72 109 186
71 108 186
72 108 178
71 108 178
70 107 186
72 109 186
72 109 186
70 108 186
71 109 186
70 107 178
71 108 178
69 106 168
71 108 178
68 106 178
71 109 186
73 110 186
71 109 186
72 109 186
71 109 186
71 109 186
70 108 186
72 109 186
71 108 178
71 108 186
72 109 178
69 106 168
68 105 168
72 109 178
72 109 186
73 110 186
71 108 178
70 108 186
68 106 178
74 111 186
70 107 168
72 108 178
70 107 168
71 108 178
70 107 178
68 107 186
71 108 186
71 109 186
69 106 168
69 107 178
69 107 178
71 107 168
72 109 178
70 107 178
70 108 186
71 108 178
70 106 168
72 108 178
70 108 186
69 106 168
71 108 178
70 107 168
69 106 178
71 108 178
69 107 178
71 108 178
70 108 186
69 106 178
70 107 178
70 107 186
71 107 168
71 108 186
72 108 168
70 108 186
71 108 178
68 105 168
71 108 186
72 109 186
70 107 178
68 105 168
70 107 178
70 106 158
72 108 168
71 108 168
72 109 186
70 107 178
71 108 178
70 106 168
71 107 179
70 106 168
71 108 178
69 106 178
66 100 150
71 109 186
66 100 160
63 96 136
66 101 148
69 104 172
67 101 160
67 100 148
65 99 148
59 90 137
68 101 160
78 82 55
32 42 43
100 101 77
77 81 67
38 52 44
75 74 49
30 42 43
95 96 72
101 105 83
100 99 64
31 42 34
37 49 52
31 42 43
75 76 46
96 101 77
46 60 53
99 100 76
89 94 46
104 101 63
103 106 60
84 92 77
41 55 47
74 81 61
135 131 90
50 67 64
130 128 91
96 102 66
118 116 85
73 82 68
139 138 89
77 85 66
155 150 94
93 101 71
128 126 89
71 75 60
112 114 88
104 108 83
141 138 89
111 110 72
120 117 79
136 135 92
149 142 89
123 124 81
96 94 65
133 135 89
127 127 91
115 117 87
126 125 91
142 142 94
121 123 76
147 146 95
157 152 107
133 132 55
138 138 99
122 123 79
121 122 77
153 150 104
115 117 81
129 126 82
119 122 83
142 140 95
142 139 85
146 144 85
151 150 89
129 131 89
147 144 103
160 153 97
129 129 83
134 132 81
153 149 91
155 154 106
154 149 104
156 152 97
173 169 114
153 154 97
168 162 106
158 155 78
154 150 89
167 163 106
152 150 85
166 161 106
141 139 78
141 135 59
155 153 81
165 156 89
176 170 89
174 168 104
174 169 104
179 174 104
175 171 89
166 162 81
158 155 89
171 165 111
171 165 89
166 163 81
175 172 97
178 172 89
140 137 81
174 168 104
169 166 104
177 173 104
172 166 89
179 172 117
180 175 104
152 147 71
146 142 97
157 152 89
162 156 89
178 172 111
176 172 104
166 160 97
165 158 89
161 157 89
156 153 81
180 174 104
151 148 89
158 157 59
164 161 81
131 128 81
167 162 81
175 168 97
171 166 97
142 141 71
159 155 89
165 158 71
158 155 89
143 142 71
165 158 89
165 158 59
180 202 0
181 200 0
179 202 0
179 201 0
182 203 0
177 201 0
182 203 0
174 195 0
171 194 0
183 204 0
178 201 0
177 199 0
178 201 0
182 203 0
173 195 0
171 193 0
181 203 0
183 204 0
183 204 0
169 192 0
178 201 0
184 204 0
182 203 0
179 202 0
179 202 0
185 205 0
160 183 0
183 204 0
174 192 0
177 201 0
167 188 0
178 198 0
180 202 0
167 192 0
182 203 0
172 194 0
179 202 0
175 200 0
184 204 0
171 194 0
169 192 0
182 203 0
160 185 0
171 194 0
182 203 0
182 203 0
169 192 0
181 203 0
177 201 0
179 202 0
169 193 0
174 194 0
165 188 0
181 202 0
182 203 0
182 203 0
166 189 0
180 201 0
171 194 0
181 203 0
183 204 0
177 197 0
179 202 0
177 197 0
180 202 0
147 172 123
71 108 178
69 104 168
65 100 148
73 110 186
73 110 186
69 106 168
70 107 168
70 106 158
70 107 178
70 107 178
69 106 168
70 108 186
69 107 186
72 108 178
70 107 178
69 106 168
73 109 168
70 107 178
71 109 186
72 109 178
73 109 178
69 107 186
68 103 168
70 107 178
70 107 178
71 108 186
71 109 186
70 107 168
71 108 178
69 107 186
69 106 168
72 109 178
70 107 186
67 102 168
69 107 178
71 108 178
71 107 158
70 108 186
72 109 178
70 108 186
71 109 186
71 108 178
71 108 178
70 107 178
68 105 168
71 109 186
71 108 186
70 107 168
71 108 186
71 109 186
70 106 168
70 108 186
71 108 178
70 107 178
72 109 186
72 109 186
71 109 186
69 106 178
73 110 186
73 110 186
69 107 186
72 109 186
72 109 186
70 108 186
70 108 186
71 108 178
69 106 178
71 109 186
68 107 186
70 108 186
73 110 186
73 110 186
72 109 186
71 109 186
69 106 168
66 102 178
70 105 178
72 109 186
70 107 178
71 109 186
70 107 178
70 108 186
72 108 178
69 107 186
71 107 168
70 107 178
71 108 186
69 107 178
69 107 178
68 105 168
69 107 178
69 106 158
69 107 186
71 108 186
68 106 178
71 109 186
69 107 186
70 108 186
70 108 186
69 107 186
70 107 178
69 106 168
71 108 186
70 108 186
71 108 178
71 109 186
71 108 186
70 108 186
72 109 186
68 106 186
70 108 186
71 109 186
70 107 186
72 109 186
71 108 186
72 109 186
72 109 186
70 108 186
72 109 186
69 107 186
71 109 186
72 109 186
73 110 186
73 110 186
74 111 186
70 107 168
71 108 178
72 109 186
69 107 186
70 108 186
71 108 186
69 107 186
71 109 186
71 108 178
71 108 186
71 109 186
72 109 186
70 108 186
70 108 186
70 107 168
68 106 186
70 107 178
71 108 178
72 109 186
71 108 186
70 106 168
70 108 186
73 110 186
70 108 186
69 107 186
71 109 186
70 108 186
69 106 178
71 108 186
71 109 186
71 108 178
71 106 160
69 107 178
70 107 178
69 106 168
71 108 178
67 104 158
72 109 186
75 111 186
72 109 186
70 107 168
70 107 168
71 108 186
71 109 186
73 110 186
72 108 168
72 108 178
71 106 178
68 106 178
70 107 178
70 107 178
70 106 168
70 107 178
69 107 186
71 107 168
68 103 160
71 108 178
74 111 186
68 103 150
70 107 178
71 107 168
71 108 178
73 109 178
72 108 168
70 107 178
68 104 178
67 104 170
70 107 178
73 110 186
72 108 179
71 108 178
70 104 172
69 106 168
68 105 158
68 104 160
69 105 170
72 107 179
67 100 160
68 101 160
64 96 141
45 64 65
33 43 37
71 73 48
93 91 61
29 37 18
46 58 46
36 46 38
75 78 59
75 72 46
24 33 33
96 97 72
74 74 47
71 73 52
98 99 73
90 92 53
118 119 87
81 85 67
51 64 41
78 85 63
73 81 69
87 89 53
53 67 48
98 99 67
128 124 77
97 101 77
103 104 76
129 127 76
107 109 57
88 90 67
109 109 76
124 122 77
124 128 93
112 113 61
105 107 59
104 107 78
48 63 57
118 120 93
137 135 76
116 119 85
111 115 78
69 77 53
83 89 76
115 119 90
159 151 89
145 145 104
142 138 74
135 133 60
131 129 96
146 145 91
126 126 81
134 132 81
134 132 87
140 141 85
151 147 85
129 124 87
161 155 89
112 115 52
96 102 73
130 127 85
172 166 97
151 150 101
152 151 91
160 154 71
143 140 85
141 137 91
144 141 87
129 132 85
156 154 104
135 135 68
168 166 101
120 121 81
145 141 83
157 158 103
136 136 85
142 142 93
183 179 123
131 126 71
168 163 97
171 165 89
173 169 108
174 168 104
174 169 111
180 173 97
166 161 104
174 170 108
175 172 104
178 174 104
161 157 89
162 158 89
166 163 89
178 170 104
175 165 104
148 147 59
162 155 89
160 156 89
157 154 81
165 160 71
168 162 97
177 171 89
177 170 104
170 166 97
173 166 89
169 164 89
176 173 104
187 180 117
162 157 89
180 174 97
172 165 81
177 170 104
174 167 97
173 168 104
174 166 89
162 157 89
166 162 81
157 154 81
151 147 81
178 172 89
147 143 59
175 168 97
165 162 89
159 149 89
181 175 104
166 160 97
164 159 97
181 174 97
165 159 97
124 122 59
122 117 71
164 158 89
179 202 0
177 201 0
177 201 0
172 195 0
181 203 0
177 201 0
180 202 0
184 204 0
165 186 0
174 194 0
177 201 0
171 190 0
175 196 0
164 184 0
175 200 0
178 201 0
165 186 0
173 195 0
180 202 0
171 194 0
181 203 0
173 195 0
183 204 0
168 192 0
171 194 0
180 202 0
171 191 0
182 203 0
180 199 0
176 200 0
179 202 0
181 203 0
182 203 0
178 201 0
179 202 0
183 204 0
177 198 0
180 202 0
171 194 0
176 200 0
179 202 0
182 203 0
183 204 0
182 202 0
179 202 0
174 197 0
180 202 0
178 201 0
177 201 0
171 194 0
166 187 0
174 196 0
167 188 0
169 192 0
174 199 0
179 202 0
181 203 0
180 201 0
169 192 0
170 189 0
174 195 0
183 204 0
176 200 0
174 199 0
173 195 0
115 143 158
70 107 168
70 105 136
70 106 158
69 106 168
67 104 148
71 108 178
74 110 178
73 110 186
71 107 168
72 108 178
71 107 158
71 107 168
72 109 186
70 108 186
72 109 178
69 106 168
71 107 158
72 109 178
68 105 168
69 107 186
74 110 186
70 107 178
70 108 186
70 106 168
71 108 178
73 110 186
70 107 178
71 108 186
69 107 178
69 107 186
70 107 178
73 109 178
71 109 186
72 109 186
69 107 178
71 108 186
72 108 178
71 108 186
71 108 186
71 108 186
72 109 178
71 108 186
71 108 186
70 108 186
69 107 178
72 109 186
71 108 186
69 107 186
71 108 178
72 109 186
71 108 186
71 108 178
71 109 186
72 109 186
72 109 178
72 109 186
69 107 186
72 109 186
71 109 186
70 108 186
70 107 178
72 109 186
69 107 186
71 108 186
70 108 186
72 109 178
72 109 186
69 106 168
72 109 186
69 107 178
70 108 186
72 109 186
69 107 186
70 107 186
71 108 186
70 107 186
68 106 178
71 108 178
70 107 178
71 108 186
68 103 178
71 108 178
72 108 178
70 108 186
70 107 178
71 108 186
72 109 186
71 109 186
72 109 186
72 109 186
71 109 186
72 109 186
71 108 178
70 107 178
71 108 178
69 107 178
71 108 186
72 109 186
67 104 158
70 108 186
69 107 178
73 110 186
70 108 186
69 107 186
71 109 186
71 109 186
72 109 178
72 109 178
73 110 178
70 108 186
73 109 178
71 108 186
71 109 186
69 107 186
71 108 178
70 108 186
72 109 178
72 109 186
69 107 186
70 107 168
70 107 178
70 108 186
71 108 186
68 106 178
68 105 168
72 109 178
70 108 186
73 110 186
70 108 186
72 109 186
74 110 186
72 109 186
72 108 178
72 109 186
70 107 178
72 109 186
68 106 178
73 110 186
72 109 186
72 109 186
72 109 186
70 107 178
70 107 186
69 106 168
69 107 178
69 106 178
73 110 186
70 108 186
71 109 186
70 107 178
69 106 168
69 106 168
69 106 168
73 109 178
71 108 186
68 105 168
73 110 186
71 108 178
71 109 186
70 108 186
70 107 178
70 107 179
72 109 186
70 107 178
68 105 168
69 106 178
71 108 186
73 110 186
69 106 168
72 109 186
72 109 186
71 107 179
71 108 178
70 107 168
69 106 168
70 107 168
69 107 178
69 106 168
70 107 178
70 108 186
71 106 158
72 108 168
70 107 168
74 111 186
69 105 158
69 105 158
70 107 178
70 106 178
70 106 179
69 104 178
68 102 158
72 108 168
69 106 168
70 106 168
69 103 136
72 108 179
69 106 179
59 90 136
70 104 162
70 105 158
70 105 160
65 98 138
69 105 148
70 104 172
69 104 169
68 103 168
36 46 36
93 92 66
76 78 54
76 75 49
82 89 72
28 39 31
80 83 62
98 100 77
74 78 65
74 77 55
52 65 48
77 83 61
71 76 52
79 86 67
41 54 53
116 114 82
78 77 55
56 74 60
76 82 65
75 79 65
96 98 67
91 92 62
73 76 53
77 85 66
99 105 82
103 103 76
47 64 53
127 125 89
77 84 60
78 83 52
93 97 76
91 97 67
109 111 76
114 114 72
137 135 92
91 97 68
143 141 86
99 101 72
95 98 74
128 127 91
109 110 71
154 151 90
134 133 86
128 125 78
157 154 93
137 132 81
136 139 97
141 140 99
127 127 81
165 161 103
132 129 93
142 138 88
142 141 76
183 177 111
134 135 78
133 132 83
147 147 76
120 122 77
95 99 31
117 119 77
158 154 104
155 148 95
124 122 85
124 124 78
116 115 62
168 163 111
159 157 93
157 150 81
182 176 111
161 156 108
141 142 65
159 153 99
167 163 111
158 151 91
173 164 104
178 170 104
192 180 104
163 157 89
143 138 81
144 144 76
183 177 111
177 170 106
164 163 97
191 181 111
181 173 97
147 140 81
140 136 71
182 177 111
160 153 97
170 167 111
180 176 111
159 156 89
163 158 89
148 149 71
187 181 123
162 159 81
170 165 97
177 171 89
169 162 81
162 158 97
182 176 104
160 157 97
168 161 97
155 153 71
182 177 111
176 172 97
171 167 104
177 171 111
151 145 71
161 157 89
165 156 89
160 158 71
155 150 89
147 140 81
162 155 81
158 150 71
173 166 89
179 172 104
169 165 97
159 156 97
171 164 81
142 139 71
176 173 104
180 171 97
168 163 81
176 171 89
152 145 81
140 137 71
178 201 0
180 202 0
183 204 0
178 198 0
186 205 0
180 202 0
179 202 0
181 202 0
180 202 0
173 188 0
181 203 0
172 194 0
170 194 0
181 203 0
172 194 0
180 202 0
182 203 0
178 201 0
183 204 0
177 201 0
180 202 0
176 200 0
172 194 0
179 202 0
181 202 0
163 185 0
172 194 0
177 198 0
172 194 0
171 193 0
162 184 0
177 201 0
178 201 0
183 204 0
180 202 0
174 194 0
176 195 0
178 201 0
178 201 0
176 197 0
182 203 0
182 203 0
175 197 0
175 199 0
178 201 0
179 202 0
163 186 0
176 197 0
178 201 0
167 192 0
179 202 0
175 196 0
171 193 0
178 197 0
183 204 0
161 183 0
166 190 0
180 202 0
179 201 0
173 195 0
174 196 0
176 200 0
179 201 0
172 194 0
154 176 0
69 106 168
71 108 168
71 107 168
72 109 186
70 107 168
70 107 178
71 108 178
72 109 186
71 107 168
69 105 158
68 105 168
70 107 168
70 107 178
69 107 186
72 108 178
69 104 136
70 107 168
70 107 168
72 109 186
72 108 178
70 107 168
71 108 168
73 110 186
71 109 186
75 111 186
70 108 186
70 106 168
69 106 168
72 109 186
69 107 186
72 109 178
70 108 186
71 108 186
72 109 186
72 109 186
69 106 168
70 107 168
71 108 186
71 108 186
70 108 186
70 108 186
71 109 186
70 108 186
72 109 186
71 108 178
70 107 178
70 108 186
72 109 186
69 106 168
72 108 178
69 107 186
71 109 186
71 109 186
70 108 186
71 108 186
70 107 178
71 108 178
70 108 186
70 107 168
71 108 178
73 110 186
71 109 186
71 108 178
70 108 186
71 108 186
70 107 186
71 108 178
70 108 186
72 109 186
68 105 158
71 108 186
68 107 186
72 109 186
69 107 186
72 109 186
71 109 186
71 108 178
68 107 186
71 108 178
70 107 186
67 104 158
74 111 186
71 108 186
70 107 178
72 109 186
72 109 178
72 109 178
70 107 178
72 109 186
68 106 178
73 110 186
69 107 186
73 110 186
70 108 186
69 106 168
69 107 186
71 108 178
71 107 168
70 107 178
70 107 186
72 109 186
72 109 178
71 109 186
71 107 168
70 107 178
72 109 178
71 108 178
70 107 178
70 104 168
68 107 186
73 110 186
70 107 178
69 107 178
70 108 186
72 109 186
71 108 186
71 108 186
71 108 178
70 107 178
71 108 186
68 105 168
69 106 168
70 107 178
71 108 186
72 109 186
71 108 178
71 108 178
70 108 186
71 108 178
71 109 186
71 107 168
71 108 186
71 108 186
70 106 168
68 106 178
70 108 186
71 109 186
69 105 158
69 106 178
71 108 178
69 107 178
71 109 186
73 109 178
69 106 178
73 110 178
69 107 178
72 108 178
70 108 186
73 109 178
72 109 178
72 109 186
67 104 158
70 107 178
70 107 178
73 110 186
70 107 178
70 107 178
73 110 186
70 107 178
72 109 186
72 109 178
68 105 178
73 110 186
69 107 186
70 108 186
69 106 168
70 107 178
69 107 186
71 107 158
68 106 178
69 105 179
69 105 158
72 109 186
71 109 186
72 109 178
71 107 168
73 110 186
74 110 186
74 109 168
70 107 178
71 108 178
66 101 158
73 109 178
72 107 170
69 105 178
72 108 178
70 107 178
69 106 168
70 106 158
72 109 178
71 108 178
70 108 186
71 106 178
71 107 168
67 103 160
69 105 170
69 106 158
68 104 160
68 105 158
67 102 168
70 105 168
70 107 168
70 107 168
70 103 150
67 98 150
62 93 141
64 95 152
77 85 98
72 73 48
94 92 66
67 68 25
75 74 45
61 66 31
98 100 68
43 54 37
99 102 81
83 93 76
33 43 33
76 79 53
78 82 67
74 79 66
92 97 71
73 78 66
81 90 77
94 98 66
48 61 55
85 94 73
108 108 71
102 105 85
125 123 73
81 87 72
72 82 55
99 102 76
132 130 87
34 44 28
117 117 90
110 112 81
78 88 69
106 107 59
106 111 82
115 118 82
114 120 90
97 96 69
88 89 59
105 109 86
85 94 76
125 123 78
147 142 93
105 111 71
150 146 86
89 92 53
144 141 85
148 145 101
121 121 76
163 157 104
135 134 93
131 132 82
136 132 93
131 130 73
92 97 67
129 127 90
132 133 65
121 120 81
132 128 73
140 138 71
138 138 65
135 135 89
144 138 85
145 143 81
145 146 81
169 163 83
112 111 59
143 140 78
138 138 78
154 152 101
137 135 89
159 154 98
174 169 104
144 141 85
139 134 87
174 168 104
147 142 95
154 153 89
158 155 83
148 147 101
166 159 89
179 172 104
160 155 103
162 155 104
139 136 73
169 165 97
164 159 97
185 179 117
187 180 117
178 173 97
175 172 104
174 168 104
166 161 104
163 158 81
176 171 89
174 169 89
174 170 97
173 169 111
178 174 104
161 155 81
146 142 59
171 166 97
173 169 89
167 162 81
176 169 104
150 145 81
175 170 89
161 158 59
192 182 117
147 143 71
173 165 111
166 162 81
160 154 71
169 161 97
171 166 97
168 165 97
152 147 81
158 155 89
154 149 89
169 164 89
162 156 81
171 165 89
151 150 71
148 144 71
169 164 89
169 164 89
148 144 71
164 161 81
173 168 104
178 172 89
175 196 0
185 205 0
178 201 0
178 201 0
172 194 0
176 200 0
171 194 0
177 201 0
185 204 0
178 201 0
184 204 0
180 202 0
176 200 0
184 204 0
177 200 0
181 202 0
184 201 0
180 202 0
171 194 0
179 199 0
180 202 0
180 202 0
153 173 0
184 204 0
169 192 0
184 204 0
179 202 0
181 203 0
182 203 0
180 202 0
177 198 0
180 202 0
181 203 0
178 201 0
173 194 0
184 204 0
179 199 0
182 200 0
178 201 0
179 202 0
161 183 0
181 203 0
180 202 0
184 204 0
182 203 0
184 204 0
181 202 0
175 199 0
175 195 0
175 196 0
185 205 0
177 201 0
186 205 0
178 201 0
177 200 0
180 202 0
176 199 0
178 201 0
184 204 0
162 184 0
185 205 0
179 201 0
183 204 0
176 196 0
146 170 89
70 106 148
73 110 186
70 108 186
68 105 158
72 108 178
69 106 158
70 105 178
68 105 178
69 106 168
68 105 158
69 107 186
69 107 178
67 103 148
71 108 178
71 108 178
70 107 168
71 108 186
73 110 186
72 108 168
73 110 186
70 107 168
70 105 178
70 108 186
68 103 168
68 106 178
71 107 168
71 108 178
71 109 186
69 107 178
74 110 178
73 110 178
70 108 186
72 109 186
70 108 186
72 109 186
71 108 186
71 108 178
69 106 178
72 108 178
69 106 168
72 109 186
70 107 168
71 108 186
71 109 186
73 110 186
69 107 186
70 107 178
73 110 186
71 109 186
72 109 186
69 106 168
71 109 186
69 107 178
69 107 178
70 106 168
71 108 186
71 109 186
68 106 186
72 109 186
71 107 168
71 108 178
70 107 178
73 110 186
71 108 186
73 110 186
69 106 178
67 103 178
72 108 178
72 109 186
69 107 178
71 108 178
68 106 186
72 109 186
72 109 186
72 109 186
71 109 186
72 109 186
72 109 186
72 109 178
70 107 178
70 107 178
69 107 186
70 107 168
70 108 186
71 107 168
70 108 186
71 108 178
69 107 178
72 109 186
72 109 186
72 109 186
72 109 186
70 107 178
71 109 186
69 106 178
70 107 178
74 110 186
70 108 186
70 107 178
71 108 186
72 109 186
72 109 186
69 106 168
68 106 186
72 109 186
68 106 168
70 108 186
69 107 178
69 107 178
70 107 168
71 108 186
69 106 178
71 108 186
70 107 178
70 107 168
71 109 186
70 108 186
72 109 178
71 108 186
72 109 186
70 108 186
71 109 186
70 107 178
70 107 178
72 108 178
71 108 178
71 108 178
73 110 186
72 108 178
73 109 178
71 108 186
71 109 186
71 109 186
70 108 186
71 108 186
70 107 186
68 106 178
72 109 186
70 107 186
71 108 186
71 107 158
70 106 158
71 108 186
71 108 178
70 108 186
75 111 178
71 108 178
70 107 186
71 108 186
71 108 178
69 106 168
70 107 178
70 107 178
72 109 186
67 104 158
73 110 186
71 107 168
72 109 186
70 107 178
71 108 168
71 108 178
69 106 168
72 109 186
70 107 178
69 106 179
73 110 186
69 106 168
68 104 148
68 105 168
69 106 178
70 108 186
73 110 186
71 109 186
70 106 168
70 108 186
71 108 178
72 108 179
70 108 186
69 103 150
67 104 148
71 108 178
66 103 148
70 107 178
68 104 170
70 107 168
72 109 186
70 107 168
72 109 178
71 108 178
71 108 186
69 106 168
70 107 168
72 108 178
70 106 179
71 109 186
67 103 168
72 107 170
70 105 160
72 107 179
70 106 168
65 100 148
69 106 168
72 108 168
71 108 186
69 104 160
71 108 178
68 102 160
52 75 108
73 70 47
21 25 17
96 90 59
34 47 43
38 46 36
40 51 46
70 69 43
41 54 44
63 70 35
74 76 54
112 109 76
100 100 76
110 108 62
47 60 34
79 81 61
91 93 60
80 85 61
37 48 34
100 100 66
49 65 53
81 88 75
127 124 83
124 122 71
92 95 66
107 107 71
108 109 72
106 110 72
139 135 93
90 96 69
81 88 68
120 120 83
123 120 60
117 116 85
111 108 59
95 100 68
116 112 65
97 101 65
128 129 86
81 88 60
103 108 69
138 134 83
114 109 68
134 135 85
89 96 82
163 160 101
139 136 90
147 145 95
153 149 97
120 122 80
131 127 76
151 147 90
119 119 81
128 124 78
131 131 77
135 136 68
163 159 99
173 166 89
146 144 78
163 157 103
140 139 103
139 139 76
177 171 117
127 123 71
118 122 76
132 132 81
158 157 95
158 156 81
144 138 73
159 156 110
151 148 104
164 160 97
138 138 99
168 162 99
170 164 111
161 156 89
135 132 89
173 167 97
179 172 111
168 162 104
136 135 71
176 168 97
175 169 104
172 165 91
180 175 111
150 146 81
169 163 97
163 159 89
172 169 89
171 166 97
172 169 89
167 166 81
142 137 71
156 151 97
172 164 97
166 162 81
157 154 89
162 157 89
170 165 89
154 152 81
163 158 97
171 166 97
174 167 97
175 169 81
182 175 97
172 168 104
183 176 104
182 176 104
168 163 71
166 163 89
154 149 89
146 140 71
173 166 89
167 161 71
155 150 89
166 162 89
166 163 89
168 161 97
174 168 97
165 160 104
135 132 59
176 167 71
160 155 81
156 150 81
167 162 81
153 149 59
167 160 97
172 167 97
169 189 0
179 202 0
181 203 0
180 202 0
177 201 0
179 201 0
179 198 0
166 190 0
168 191 0
185 205 0
183 204 0
180 202 0
173 194 0
180 202 0
181 203 0
180 202 0
182 203 0
176 197 0
172 193 0
185 205 0
182 203 0
166 186 0
170 191 0
182 203 0
181 202 0
179 202 0
181 203 0
181 199 0
181 203 0
161 183 0
183 204 0
175 199 0
179 198 0
179 202 0
176 197 0
173 195 0
163 186 0
172 194 0
179 199 0
172 194 0
179 201 0
184 204 0
181 200 0
179 202 0
170 189 0
163 185 0
174 195 0
173 193 0
170 193 0
170 193 0
178 201 0
173 194 0
180 202 0
180 202 0
175 196 0
169 193 0
168 192 0
170 192 0
180 202 0
164 184 0
179 202 0
170 193 0
180 202 0
174 195 0
88 121 168
73 109 178
71 109 186
68 104 148
71 108 168
71 107 158
70 106 168
70 107 178
69 105 158
70 106 158
71 108 178
71 108 186
69 106 168
71 107 158
70 107 168
72 109 186
68 106 178
68 105 168
71 109 186
70 107 178
71 108 178
69 106 178
72 109 186
69 106 168
70 106 158
68 103 178
70 108 186
71 108 178
74 111 186
72 109 186
73 109 178
68 105 168
71 108 178
70 108 186
71 108 186
69 107 178
71 108 168
71 109 186
70 107 178
72 109 178
70 107 168
72 109 186
71 109 186
70 107 168
72 109 186
74 111 186
70 107 186
73 109 178
72 109 186
69 106 178
69 107 186
72 109 186
70 107 178
73 110 186
70 108 186
72 109 186
71 108 178
72 109 186
69 107 186
73 110 186
72 109 186
69 107 186
70 108 186
72 109 186
70 108 178
70 107 186
71 108 186
72 109 186
71 108 178
68 103 178
71 108 186
70 108 186
71 108 186
71 108 178
69 107 186
71 108 186
73 110 186
72 109 186
72 109 186
71 108 178
70 107 186
70 108 186
69 107 178
71 108 186
70 108 186
70 108 186
69 107 186
70 106 168
71 108 178
70 107 178
71 108 186
69 106 158
72 109 186
71 108 178
69 106 178
69 107 186
69 107 186
72 109 186
70 108 186
67 105 168
72 109 186
70 108 186
74 111 186
70 108 186
69 106 158
70 108 186
71 109 186
72 109 186
70 107 178
72 109 186
71 108 178
72 109 178
70 108 186
73 110 186
67 104 158
69 107 186
71 109 186
70 107 168
70 107 186
70 107 178
70 106 168
70 107 178
70 106 168
70 108 186
71 109 186
69 107 178
70 107 178
70 108 186
66 104 168
73 109 178
70 107 186
71 108 178
72 108 168
71 108 186
71 108 186
71 109 186
71 108 178
71 108 168
72 109 178
73 109 178
69 105 178
74 111 186
70 107 178
72 109 186
71 108 186
72 109 186
73 110 186
70 106 158
71 108 178
73 110 186
71 108 186
72 109 186
70 107 168
73 110 186
71 109 186
69 106 168
72 109 178
71 108 178
73 110 186
73 110 186
72 108 168
71 108 178
72 109 178
71 108 178
70 107 178
71 108 178
71 108 178
69 105 158
73 110 186
72 109 186
71 108 178
72 108 168
72 109 186
72 109 186
72 109 178
68 105 168
70 106 170
72 108 178
71 108 178
72 109 186
70 106 158
71 108 178
73 110 186
66 102 168
69 105 170
70 107 178
69 106 168
71 108 178
73 109 168
70 108 186
72 108 178
70 106 168
70 106 158
70 105 170
70 107 168
73 109 168
69 105 170
69 105 148
69 106 168
68 103 148
71 107 168
73 109 178
68 103 170
70 105 160
68 102 138
71 107 168
59 89 125
68 101 158
66 101 152
71 72 47
23 31 21
41 52 45
76 79 54
33 44 34
77 78 52
96 96 66
79 84 67
99 97 72
36 43 26
71 72 46
115 114 83
99 99 76
82 88 65
118 118 89
78 82 63
125 122 72
93 93 53
65 71 36
114 111 77
78 86 61
119 118 83
84 91 37
42 54 40
83 87 69
110 110 63
108 113 73
123 124 86
86 88 52
140 137 86
91 96 71
155 152 93
112 107 66
91 91 59
52 68 63
125 124 85
114 116 86
108 114 85
108 109 72
119 117 77
104 108 63
130 125 85
136 132 89
133 133 76
102 103 74
121 124 83
148 147 85
137 132 79
131 134 89
116 114 81
141 134 77
151 150 91
103 106 60
106 105 55
135 132 68
126 126 78
139 136 76
119 122 78
142 137 85
132 133 88
165 162 108
116 116 71
127 126 59
170 164 89
137 135 76
150 146 93
146 142 85
142 140 83
155 153 103
166 163 85
176 168 97
161 156 101
150 147 73
145 143 85
168 163 83
146 140 81
165 163 97
168 161 97
131 132 89
172 166 97
169 163 111
157 152 93
163 155 99
130 124 76
181 172 111
176 171 89
164 160 71
182 175 104
177 169 97
167 161 71
142 140 97
163 158 89
155 148 81
176 170 111
180 172 111
141 140 59
181 173 117
174 170 89
160 155 81
168 163 89
187 178 104
165 162 89
178 169 97
143 142 71
171 163 104
166 163 89
157 152 71
173 167 97
170 164 89
171 168 81
164 159 81
162 156 89
141 136 71
189 181 117
186 177 104
180 172 97
186 178 111
154 148 97
178 173 97
176 172 97
162 158 59
162 157 89
184 177 104
168 165 89
160 155 81
146 144 81
170 165 97
176 200 0
171 194 0
175 195 0
178 201 0
178 198 0
174 195 0
183 204 0
179 202 0
179 202 0
179 201 0
177 201 0
183 204 0
180 202 0
170 192 0
181 203 0
168 192 0
164 188 0
172 194 0
180 202 0
180 202 0
179 202 0
182 203 0
179 201 0
179 202 0
177 201 0
172 194 0
178 201 0
171 194 0
164 186 0
178 201 0
176 195 0
171 192 0
164 185 0
172 194 0
174 195 0
180 202 0
176 199 0
178 201 0
172 193 0
171 194 0
180 202 0
177 195 0
176 195 0
173 194 0
176 195 0
177 201 0
177 200 0
186 205 0
170 193 0
180 202 0
177 201 0
177 201 0
177 198 0
182 203 0
172 195 0
171 190 0
184 204 0
166 186 0
177 198 0
179 202 0
161 184 0
176 200 0
176 196 0
156 180 89
69 106 168
70 107 168
71 107 158
67 103 136
68 104 148
70 107 168
72 109 178
70 106 158
67 104 158
74 110 178
69 106 168
71 108 178
73 109 178
70 108 186
71 108 178
72 109 178
72 108 178
71 107 158
70 107 186
71 108 178
70 107 178
68 106 186
70 108 178
71 108 178
70 107 178
70 105 178
70 108 186
68 105 168
69 106 168
72 109 186
70 106 168
70 107 178
69 107 178
68 105 168
71 107 168
71 108 168
67 105 168
70 107 178
72 109 186
69 105 158
71 108 186
69 106 168
71 108 186
68 106 178
72 109 186
69 106 168
70 107 168
69 107 178
69 107 186
70 108 186
71 108 178
70 106 168
71 108 178
71 108 186
71 109 186
70 107 178
70 107 168
72 109 186
70 107 178
66 102 178
67 103 173
72 109 186
74 110 186
71 108 186
71 108 178
69 106 168
71 108 178
71 109 186
71 108 178
72 108 178
72 109 186
71 109 186
70 108 186
72 109 186
71 108 186
73 109 178
72 109 186
68 103 178
72 109 186
71 108 186
70 108 186
71 108 178
67 103 178
69 107 186
70 107 178
70 107 186
70 107 178
71 109 186
72 108 178
72 109 186
71 108 186
71 109 186
69 107 178
70 108 186
70 107 178
69 107 186
71 108 186
70 107 178
72 109 186
73 110 186
70 107 178
69 107 186
71 108 178
68 104 158
71 109 186
71 109 186
70 107 186
71 108 178
70 107 178
67 105 168
71 108 178
71 108 178
65 101 168
70 107 178
71 108 186
73 110 186
69 107 186
72 109 186
69 106 178
70 107 178
70 107 186
70 108 186
71 108 186
69 106 168
72 109 186
71 108 186
71 108 178
71 108 168
70 106 168
70 107 178
71 109 186
72 109 186
70 108 186
70 108 186
71 109 186
68 105 168
73 110 186
70 108 186
70 108 186
69 106 178
71 108 178
70 108 186
71 108 186
70 108 186
71 108 178
70 108 178
72 109 186
69 107 186
69 106 178
69 106 168
72 108 178
70 108 186
70 106 168
71 109 186
69 107 178
71 108 178
72 109 186
72 108 178
71 107 168
72 109 178
71 108 178
71 109 186
70 106 158
70 108 186
70 107 178
70 108 186
71 108 178
71 108 178
70 108 186
70 106 168
70 107 178
72 109 186
70 106 179
70 107 168
71 107 168
68 105 168
70 107 178
71 107 168
71 107 179
67 104 158
70 108 186
73 110 186
73 108 179
73 108 168
69 106 168
72 108 178
68 104 168
68 106 178
71 107 168
71 107 168
70 107 178
73 109 178
67 102 168
67 101 158
70 106 158
68 105 168
67 102 168
68 101 160
71 107 168
69 105 148
69 107 178
72 107 179
65 96 133
66 101 158
70 106 158
67 102 149
70 106 178
66 101 161
63 95 150
80 88 101
76 78 45
22 30 31
49 61 43
26 32 20
39 50 37
78 81 62
80 84 66
62 61 18
99 94 61
73 78 53
73 77 47
49 64 53
69 72 35
119 115 72
141 136 71
78 83 67
52 67 47
81 85 62
95 99 72
98 100 72
86 91 52
118 116 82
76 77 60
90 93 63
114 115 77
148 144 94
137 137 87
66 72 20
75 82 62
118 117 81
128 127 74
130 129 90
121 122 74
135 136 87
56 72 64
112 114 79
160 156 109
162 156 98
104 107 60
101 101 66
143 138 94
118 117 86
136 134 82
130 131 76
119 119 82
145 141 83
103 103 62
102 106 82
122 122 63
159 155 94
117 117 85
77 79 59
123 122 76
120 123 59
136 136 85
143 143 71
152 148 90
153 150 101
141 140 90
150 148 81
121 119 65
140 136 85
152 148 81
169 165 89
161 159 101
150 146 71
167 164 89
160 156 91
179 172 89
124 124 76
168 163 101
158 155 104
141 138 65
165 159 97
155 151 81
163 160 97
166 160 71
159 154 101
152 150 97
176 168 97
130 128 76
156 154 89
149 146 81
168 161 89
180 175 111
176 167 104
172 165 89
179 172 89
183 176 111
146 141 89
172 167 97
172 166 97
174 170 89
167 161 71
145 139 81
174 170 97
162 159 71
163 160 81
159 156 89
177 171 111
171 163 104
154 148 81
177 169 97
159 154 81
179 173 97
173 168 104
169 164 89
160 159 81
163 156 59
141 139 43
152 151 59
161 156 89
171 165 89
153 151 71
172 165 89
171 165 89
188 179 111
175 169 71
166 163 89
162 156 81
132 130 43
156 152 71
171 163 97
187 178 104
160 156 89
149 142 89
175 196 0
180 202 0
174 195 0
182 203 0
181 203 0
175 199 0
176 197 0
183 204 0
175 194 0
181 203 0
182 203 0
166 192 0
181 200 0
181 203 0
184 204 0
179 202 0
180 202 0
174 196 0
175 200 0
174 192 0
175 196 0
164 184 0
178 201 0
179 202 0
175 200 0
178 201 0
146 167 0
178 201 0
169 192 0
162 185 0
171 194 0
166 186 0
183 204 0
180 202 0
169 192 0
184 204 0
179 198 0
180 202 0
178 201 0
182 203 0
178 201 0
181 203 0
178 201 0
186 205 0
179 202 0
180 202 0
165 186 0
171 194 0
175 196 0
178 201 0
175 196 0
179 201 0
177 201 0
170 192 0
182 203 0
182 203 0
183 204 0
179 202 0
179 198 0
179 202 0
164 186 0
176 196 0
176 200 0
144 165 123
71 108 168
70 106 158
70 107 178
69 106 168
69 106 168
71 107 158
73 110 178
70 107 168
68 104 148
70 106 158
72 109 178
73 110 186
69 104 168
72 109 186
70 107 178
72 109 186
69 106 178
72 109 178
71 108 178
73 110 186
69 105 158
71 108 186
72 108 178
72 109 186
71 108 178
70 108 186
71 107 168
74 110 186
70 107 178
72 108 178
70 107 168
69 106 168
70 108 186
71 108 186
71 109 186
69 105 158
71 108 178
70 107 178
70 106 168
72 109 186
72 109 186
71 108 178
73 110 186
70 107 178
72 108 178
70 108 186
71 109 186
71 108 178
70 108 186
70 107 178
71 108 178
71 109 186
70 108 186
73 110 186
68 106 178
70 107 178
73 110 186
72 109 186
72 109 186
71 108 186
70 107 178
70 107 178
73 109 178
72 109 186
70 107 178
70 107 178
70 108 186
73 109 178
71 108 178
68 106 178
71 109 186
69 106 168
71 109 186
70 107 178
72 109 186
69 106 178
74 111 186
72 109 186
70 107 186
70 107 178
71 108 186
70 107 178
72 109 186
69 107 178
72 109 186
72 109 186
73 110 186
75 112 186
72 109 186
72 109 186
70 107 178
73 110 178
73 110 186
70 108 186
74 110 186
71 108 186
72 109 186
68 105 168
71 108 186
68 107 186
70 108 186
65 102 178
68 107 186
71 108 186
70 107 186
72 109 186
68 106 178
69 107 178
71 108 178
70 108 186
71 108 186
69 107 186
69 106 168
71 108 178
70 107 178
72 109 178
73 109 178
70 107 178
68 106 186
72 109 186
72 109 186
70 107 186
71 108 186
69 106 168
70 107 178
70 107 178
70 107 178
72 109 178
73 110 186
70 108 186
72 109 186
71 109 186
71 108 178
70 107 178
71 108 186
70 107 178
73 109 178
70 107 178
71 108 178
70 107 178
70 107 178
69 107 186
71 108 178
70 108 186
70 108 186
72 109 186
71 109 186
71 109 186
72 109 186
72 109 178
69 107 178
70 108 186
71 109 186
70 107 178
72 109 186
69 106 168
72 109 186
69 106 158
71 108 178
70 107 186
68 105 168
71 108 178
70 106 158
71 108 186
71 107 179
70 105 148
72 109 186
71 108 178
69 106 178
68 106 178
69 106 168
69 106 178
70 107 168
70 107 168
70 107 178
74 111 186
72 108 168
72 108 178
70 107 168
68 105 168
70 107 168
71 108 178
69 107 178
73 109 178
69 106 168
71 108 178
72 109 186
69 105 158
70 107 178
72 108 179
72 108 168
73 109 168
70 107 178
70 107 178
69 105 178
71 107 168
70 107 178
71 108 178
67 102 168
71 108 186
64 100 148
71 107 168
70 107 178
73 106 172
71 108 186
69 104 168
69 102 125
68 105 168
64 96 143
52 77 113
73 71 47
95 92 61
74 75 59
76 78 56
29 40 12
76 80 65
95 92 60
34 45 39
44 54 36
98 100 73
100 100 72
36 45 34
37 48 23
88 90 47
93 96 60
92 97 68
50 65 60
92 96 61
117 118 86
95 97 56
103 103 74
50 66 62
80 84 53
89 96 60
127 125 85
101 101 36
99 107 89
108 110 81
147 142 95
129 128 94
126 123 66
120 119 73
142 140 93
120 118 83
108 111 59
81 88 71
127 126 83
125 120 83
154 150 83
84 88 43
114 114 83
130 125 81
155 150 84
156 150 101
162 156 97
133 133 89
140 136 71
143 140 94
161 155 98
94 98 59
162 160 103
134 130 79
116 119 63
165 160 104
161 155 89
121 123 78
148 146 91
161 157 89
137 134 83
172 165 108
128 129 93
143 142 93
155 153 71
148 143 81
144 143 93
148 142 91
168 163 97
173 165 101
140 138 76
165 160 93
147 145 93
138 136 68
148 144 73
149 143 81
161 156 89
163 160 101
155 149 83
169 163 111
153 149 91
147 141 89
177 170 106
170 165 89
168 160 89
152 148 89
167 166 81
178 173 97
174 167 97
160 156 89
171 164 104
174 167 104
169 163 89
164 159 89
182 176 104
176 168 97
185 178 111
179 174 104
176 170 89
174 170 89
162 160 81
174 170 111
170 165 89
168 162 104
170 167 104
158 154 81
170 166 97
173 169 89
161 156 89
164 156 89
166 163 89
171 166 97
173 168 71
162 156 81
176 168 97
170 164 81
172 164 104
159 153 89
176 171 89
145 140 81
168 160 81
172 165 81
158 155 89
146 142 59
150 145 71
158 151 43
147 144 71
175 168 97
181 200 0
180 202 0
172 194 0
175 200 0
183 204 0
182 203 0
172 194 0
182 203 0
180 202 0
183 204 0
179 202 0
178 201 0
162 185 0
175 193 0
184 204 0
182 203 0
172 195 0
180 202 0
171 194 0
182 203 0
167 190 0
183 204 0
174 197 0
185 205 0
179 201 0
164 184 0
185 205 0
180 202 0
181 202 0
179 202 0
179 202 0
180 202 0
184 204 0
184 204 0
168 188 0
182 203 0
182 203 0
171 193 0
182 203 0
175 199 0
181 203 0
163 185 0
175 200 0
173 195 0
183 203 0
170 193 0
174 195 0
168 192 0
178 201 0
173 194 0
170 193 0
179 202 0
185 205 0
160 185 0
180 202 0
181 199 0
177 200 0
182 203 0
177 200 0
176 195 0
172 193 0
185 205 0
181 203 0
127 153 136
69 105 148
71 107 168
70 106 158
70 107 168
65 100 158
66 102 178
70 107 168
71 107 158
73 110 186
70 107 178
69 106 158
66 102 168
72 108 178
70 106 168
69 105 148
73 109 178
73 109 178
70 105 168
70 107 178
69 106 168
71 108 168
70 108 186
72 108 168
70 107 178
69 104 178
69 106 168
69 105 148
71 108 178
70 108 186
69 105 158
69 107 186
68 106 178
69 107 178
71 108 186
69 104 168
67 103 173
69 106 178
72 109 186
72 109 186
69 106 168
68 106 178
71 108 186
67 103 178
69 107 186
71 108 186
73 109 178
68 106 186
71 109 186
69 106 178
75 111 186
69 107 186
72 109 178
73 110 186
69 106 178
72 109 178
70 107 178
72 109 186
71 108 178
68 106 178
70 108 186
69 107 186
70 107 178
70 107 178
66 102 168
71 108 186
69 107 186
71 109 186
69 107 178
74 111 186
69 107 186
71 109 186
71 109 186
68 104 158
69 107 178
69 106 178
72 109 186
69 107 178
71 108 178
71 108 186
71 108 178
72 108 178
71 109 186
71 107 168
74 111 186
70 108 186
72 108 178
71 109 186
70 108 186
67 105 168
70 107 178
72 109 186
69 107 186
68 106 178
73 110 186
72 109 186
68 103 178
72 109 186
73 110 186
71 108 178
71 108 186
72 109 186
71 108 186
73 110 186
70 107 168
71 108 178
69 106 178
70 107 178
69 107 186
70 107 178
70 107 178
68 106 178
70 108 186
73 110 186
73 110 186
70 107 168
72 109 186
71 108 186
71 108 186
69 107 186
72 109 186
70 108 186
72 109 178
70 106 168
70 108 186
70 107 178
70 107 178
71 108 168
71 108 178
72 109 178
70 108 186
71 108 186
72 109 186
71 108 186
73 110 186
73 110 186
71 108 178
72 109 186
72 108 168
69 106 168
70 107 168
68 105 158
70 107 178
69 107 186
72 109 186
75 112 186
74 110 186
72 108 168
69 105 158
68 105 168
69 106 168
70 107 178
72 109 186
71 109 186
72 109 186
70 107 168
69 105 158
71 108 186
69 106 168
70 107 178
69 104 148
70 108 186
72 109 186
70 107 178
68 104 148
72 109 186
73 109 178
69 105 170
71 108 178
73 109 178
70 106 158
73 109 178
72 109 186
70 106 168
70 107 168
70 107 186
74 111 186
70 107 168
72 108 168
70 106 168
69 105 170
71 108 178
71 109 186
73 108 170
70 106 168
71 108 178
64 99 136
70 108 186
71 108 178
65 99 150
73 109 178
65 98 159
69 104 160
70 105 158
70 106 168
68 103 168
69 107 178
71 108 178
71 108 168
73 110 178
70 106 148
72 109 186
70 107 178
69 103 172
65 98 159
69 103 152
67 102 170
53 78 95
69 103 152
68 105 168
56 83 126
80 85 63
23 30 11
29 38 34
41 51 47
37 46 26
41 54 36
36 48 20
100 100 66
98 96 60
81 86 63
141 139 90
88 93 52
44 59 60
70 77 46
107 109 76
115 116 86
74 77 60
110 108 66
82 89 60
101 103 78
100 97 43
92 94 52
93 94 60
114 113 72
95 99 69
81 88 70
97 102 63
99 101 73
112 114 77
46 63 59
125 124 83
149 145 87
132 129 86
139 135 88
127 128 87
128 128 89
133 131 94
103 107 84
111 115 71
137 135 91
133 129 90
138 139 82
125 123 78
115 115 85
116 119 66
94 96 78
105 106 61
105 106 73
153 148 71
135 132 76
152 147 91
107 108 73
129 123 81
128 126 76
102 107 59
161 156 97
147 143 86
175 167 108
154 152 81
165 160 93
168 164 108
143 140 85
153 150 93
147 145 97
163 158 91
143 139 94
130 132 93
154 148 83
160 158 93
172 165 81
141 135 85
175 169 97
149 147 78
158 154 71
148 143 91
143 141 91
171 165 97
187 179 111
160 156 81
171 165 89
158 156 91
166 164 89
180 174 97
172 166 97
185 178 111
175 168 97
170 167 104
167 162 81
155 152 71
163 157 89
161 158 71
170 165 97
170 163 81
173 167 97
160 153 71
169 164 89
180 175 111
161 159 81
181 175 97
176 170 81
178 171 111
158 151 81
166 162 89
150 145 71
183 176 104
154 149 89
144 142 81
156 153 81
149 146 81
169 163 81
174 170 89
166 159 89
149 145 59
168 163 81
162 157 89
166 162 89
160 155 71
179 174 97
166 163 89
181 173 89
156 150 89
172 165 89
166 160 97
172 166 89
165 161 81
164 158 89
172 194 0
179 202 0
184 204 0
169 191 0
178 201 0
169 192 0
163 185 0
181 203 0
177 201 0
172 193 0
178 198 0
176 200 0
164 185 0
178 201 0
172 194 0
178 201 0
180 202 0
174 196 0
177 197 0
163 185 0
182 203 0
179 202 0
178 201 0
164 187 0
177 201 0
179 201 0
168 192 0
174 199 0
187 206 0
167 187 0
177 198 0
178 197 0
182 203 0
170 193 0
174 194 0
177 201 0
176 196 0
181 203 0
181 203 0
166 186 0
175 196 0
178 201 0
169 189 0
183 204 0
181 203 0
171 193 0
172 194 0
177 200 0
173 195 0
183 204 0
176 200 0
172 194 0
174 194 0
170 194 0
178 201 0
177 201 0
173 194 0
169 189 0
175 197 0
180 202 0
177 196 0
157 175 0
154 174 65
89 120 148
69 106 158
72 109 178
66 103 148
73 109 168
69 106 178
70 107 178
71 108 168
72 109 178
71 107 158
71 108 178
73 110 186
71 108 178
68 105 168
70 107 178
73 110 186
70 107 178
68 103 168
72 109 178
72 109 186
72 109 186
72 109 178
70 107 178
71 109 186
71 108 168
71 108 186
68 105 158
72 109 186
70 107 178
71 108 178
69 107 178
71 108 178
72 109 178
72 109 186
69 107 178
70 108 186
71 108 186
72 109 186
73 110 186
68 104 158
71 109 186
71 108 178
72 109 186
72 109 186
68 106 186
72 109 186
74 110 186
71 108 178
68 106 178
69 106 168
71 108 178
70 108 186
70 108 186
73 110 186
70 107 178
66 102 178
73 110 186
68 105 168
69 107 178
70 108 186
73 110 186
70 107 178
71 108 178
68 104 178
71 108 178
70 107 168
69 106 178
72 109 186
72 109 186
71 108 178
71 108 178
70 107 178
73 109 168
72 109 186
71 108 178
70 108 186
69 106 168
73 110 186
70 107 178
74 110 186
71 108 186
69 107 186
71 108 186
68 106 178
70 108 178
72 106 178
70 108 186
68 105 168
74 111 186
69 106 168
69 107 186
72 108 178
70 107 178
71 108 186
72 109 186
69 104 178
72 109 186
74 110 186
73 110 186
71 108 178
70 107 178
72 108 178
70 107 178
71 108 186
70 107 178
67 104 168
67 103 178
72 108 178
70 107 178
69 106 178
74 111 186
73 110 186
70 107 178
69 107 186
71 109 186
73 110 186
71 108 178
72 109 186
72 109 186
72 108 178
72 109 186
72 108 168
71 108 178
72 108 178
71 108 186
72 109 178
69 106 178
72 109 186
70 107 168
72 109 186
70 108 186
68 105 168
72 109 186
71 108 178
70 107 186
71 109 186
71 109 186
72 109 186
70 107 178
69 104 178
69 107 178
72 109 186
69 107 186
71 107 168
72 109 186
71 108 186
71 108 178
72 109 186
69 107 186
70 107 178
71 108 178
69 107 178
71 108 178
71 109 186
71 108 168
69 107 186
74 111 186
71 108 186
71 108 178
70 107 168
71 108 178
73 110 186
69 106 158
72 108 168
72 109 186
69 106 158
70 107 178
68 104 148
73 110 186
69 106 158
69 106 168
72 108 178
72 109 186
70 107 168
68 103 168
69 106 168
69 107 178
67 104 158
72 108 158
65 100 123
72 109 186
70 105 148
69 106 168
67 102 168
70 107 178
71 108 178
68 104 148
73 109 178
72 108 168
67 102 168
70 107 178
68 104 178
70 106 158
70 107 178
69 105 158
70 107 178
70 105 160
70 108 178
66 101 158
66 100 168
71 106 168
70 105 158
69 105 170
67 100 150
73 110 186
68 103 178
69 107 178
68 103 158
66 99 159
66 102 168
68 101 162
37 52 71
80 82 56
40 50 40
74 75 45
91 88 59
40 53 45
98 94 60
94 95 55
46 56 48
75 77 53
89 89 46
99 97 68
98 96 67
30 40 18
110 110 71
75 80 55
88 99 53
89 90 55
102 101 73
112 114 78
95 97 52
80 88 72
80 86 65
110 108 59
116 115 61
115 115 80
113 116 80
77 85 66
106 108 63
128 123 73
77 78 53
109 111 82
109 108 59
128 125 82
125 126 82
137 137 93
97 98 71
112 111 74
122 124 90
79 86 69
125 129 90
109 113 71
145 142 93
98 103 62
138 135 87
155 153 99
137 134 52
127 129 65
136 133 72
178 171 108
122 120 73
141 136 85
131 127 59
168 160 103
151 148 93
138 139 76
139 136 81
120 121 68
142 140 71
165 161 101
140 139 87
148 144 93
148 142 91
163 159 95
145 142 81
138 135 71
153 147 95
159 154 103
135 134 89
163 159 97
158 155 83
173 165 108
164 160 93
155 152 97
158 155 81
129 128 93
165 160 89
164 160 106
158 150 81
167 161 93
172 166 89
174 167 97
173 166 89
178 171 111
152 150 71
153 151 71
170 163 81
178 175 111
159 155 89
165 160 71
172 165 89
161 157 89
164 162 89
143 141 59
169 164 89
166 161 71
155 148 81
178 172 89
125 122 59
180 170 97
167 161 71
163 155 71
159 157 97
174 168 89
170 165 71
151 145 71
162 156 81
168 161 89
149 147 43
177 169 97
174 169 81
159 157 59
169 167 81
180 174 97
173 166 89
151 149 59
149 142 71
137 135 71
153 146 71
147 143 71
145 142 43
152 146 59
159 151 71
158 154 81
158 155 59
165 160 97
182 203 0
179 202 0
175 200 0
178 198 0
180 202 0
162 185 0
182 203 0
178 201 0
180 200 0
181 203 0
183 204 0
179 202 0
185 202 0
171 194 0
170 194 0
171 191 0
179 201 0
163 184 0
184 204 0
177 200 0
172 198 0
180 202 0
178 201 0
171 192 0
177 201 0
180 202 0
174 195 0
180 199 0
181 202 0
171 194 0
181 203 0
170 193 0
178 198 0
182 203 0
171 193 0
176 196 0
184 205 0
170 194 0
169 193 0
180 202 0
178 201 0
180 202 0
178 201 0
172 195 0
181 202 0
179 199 0
179 202 0
183 204 0
172 194 0
158 178 0
170 193 0
162 184 0
179 202 0
181 203 0
181 203 0
161 184 0
168 188 0
183 204 0
179 202 0
183 204 0
180 202 0
180 202 0
141 164 136
70 106 158
69 106 158
66 101 158
71 108 178
71 107 158
67 103 136
70 107 178
68 105 158
70 107 168
67 103 168
69 106 158
71 108 178
68 105 168
66 103 158
70 107 168
73 109 178
69 105 158
71 108 186
70 107 168
72 108 168
71 108 186
71 108 186
69 106 178
71 107 168
71 108 178
67 101 158
72 109 186
71 108 178
70 104 168
71 108 168
73 110 186
70 107 178
70 108 186
71 109 186
72 109 186
70 108 186
71 109 186
70 107 168
71 108 186
67 104 168
71 109 186
72 109 186
70 108 186
70 108 186
71 108 178
72 109 186
72 108 178
71 108 178
68 105 168
71 109 186
69 107 186
72 109 186
68 106 186
70 108 186
72 108 168
71 108 186
73 110 186
73 109 178
72 109 186
69 106 178
70 108 186
71 109 186
68 105 168
68 105 168
67 103 178
71 109 186
69 106 168
70 107 178
71 108 178
71 109 186
72 109 186
71 108 178
72 109 186
71 108 186
71 108 186
70 107 178
69 104 178
71 108 178
71 108 186
70 107 178
72 109 186
70 108 178
69 104 178
68 106 186
69 107 178
69 107 186
68 105 158
71 108 178
71 108 178
72 109 186
69 106 168
72 108 168
67 102 158
71 108 178
71 108 178
69 106 178
72 109 186
72 109 186
70 107 178
72 109 186
69 107 186
70 107 178
70 108 186
70 108 186
72 108 168
70 108 186
72 109 186
70 108 186
73 109 178
70 107 178
71 108 178
68 105 168
67 103 178
71 108 186
71 108 186
70 106 158
73 110 186
71 108 186
71 108 186
71 108 186
70 107 178
70 107 178
72 109 186
69 107 178
70 106 168
70 108 186
70 107 178
69 105 158
70 108 186
70 108 186
69 105 158
72 109 186
72 109 186
70 108 186
70 108 186
72 109 186
71 108 178
72 108 178
70 108 186
73 110 186
74 110 178
70 108 186
70 108 186
72 109 178
73 110 186
71 108 178
70 107 178
72 109 186
72 109 178
72 109 178
71 108 178
71 108 178
71 108 178
68 105 168
69 106 178
70 107 178
72 108 168
70 107 178
72 109 186
72 109 186
73 110 178
70 106 158
73 110 186
69 107 186
70 107 178
69 106 178
72 109 186
72 109 186
73 110 186
72 108 168
70 105 160
71 107 168
72 109 186
70 107 178
70 107 178
71 108 178
72 109 186
69 106 168
72 108 168
73 110 186
72 109 186
70 106 158
72 108 178
70 108 186
71 107 158
71 107 168
71 108 178
71 107 168
70 107 178
72 109 178
69 106 178
68 103 168
70 106 158
70 107 178
69 106 178
69 106 178
74 111 186
64 98 136
68 101 150
73 109 178
70 107 178
69 105 158
68 100 138
67 102 168
71 108 168
70 104 158
61 93 158
57 87 128
72 107 179
65 97 160
66 101 138
45 68 111
41 53 35
72 72 45
92 90 59
79 81 56
95 91 60
76 81 66
43 55 45
24 30 0
40 52 48
91 91 52
114 114 74
34 44 32
43 55 37
73 81 54
92 94 56
80 86 72
99 100 77
96 98 66
92 94 63
99 100 69
120 116 72
118 113 77
94 97 60
74 79 34
79 88 69
105 108 75
82 93 82
112 109 76
105 106 77
125 123 74
96 103 43
116 121 93
94 100 65
100 100 71
133 129 71
86 92 49
132 132 79
127 127 81
75 82 65
101 106 76
124 122 71
153 151 90
128 130 93
100 100 68
173 166 108
141 139 65
127 124 82
139 138 93
145 142 81
122 122 76
150 147 89
160 156 103
131 132 83
139 138 89
167 161 91
157 155 81
136 133 76
162 158 112
152 148 95
125 125 76
141 138 71
148 146 93
167 161 97
149 145 95
168 162 97
151 148 71
185 176 97
155 150 85
166 161 104
176 172 97
172 163 104
122 120 73
155 152 71
166 162 81
162 159 89
136 136 71
135 132 76
167 160 83
164 157 81
172 169 112
170 164 83
159 155 71
172 169 89
160 154 71
174 167 97
181 173 89
176 171 89
178 172 89
177 170 111
139 137 71
171 168 104
156 150 59
168 165 97
178 173 97
159 154 71
175 167 81
165 158 89
167 161 71
153 152 81
173 167 97
184 177 104
158 151 81
149 145 81
154 150 59
156 154 89
162 159 71
167 164 59
166 162 89
148 143 89
148 147 59
154 149 81
177 172 89
163 159 71
177 171 111
156 152 71
167 160 97
167 162 81
163 157 81
141 139 43
127 122 43
148 143 59
173 166 89
139 134 59
162 159 59
158 154 81
170 192 0
177 200 0
179 202 0
177 201 0
175 195 0
165 186 0
182 203 0
178 201 0
170 193 0
181 203 0
180 202 0
180 202 0
177 201 0
178 198 0
170 193 0
174 194 0
178 201 0
183 204 0
173 194 0
182 203 0
171 193 0
176 195 0
178 201 0
178 201 0
171 194 0
170 193 0
176 200 0
173 195 0
181 203 0
181 203 0
181 203 0
175 196 0
174 199 0
180 202 0
181 203 0
180 202 0
173 192 0
181 203 0
182 203 0
162 179 0
160 183 0
179 202 0
170 193 0
177 197 0
174 195 0
179 202 0
174 196 0
171 194 0
180 199 0
171 192 0
186 206 0
175 196 0
178 201 0
173 195 0
175 196 0
171 192 0
171 194 0
180 202 0
179 202 0
170 189 0
177 200 0
180 202 0
155 179 108
71 108 168
69 103 148
69 105 158
71 107 158
71 108 178
70 107 168
70 106 158
71 108 168
66 101 158
66 102 136
68 106 178
71 109 186
74 111 186
71 108 186
71 109 186
70 106 158
69 107 186
70 107 178
67 104 158
73 110 186
71 108 178
73 110 186
71 108 178
70 106 168
73 110 186
70 107 168
73 109 168
71 108 186
72 108 178
69 106 168
74 110 178
71 108 178
70 107 178
70 106 158
71 107 168
73 110 186
70 108 186
71 108 178
71 109 186
70 106 158
72 109 186
72 109 186
69 106 178
69 104 178
70 107 168
72 109 186
70 107 178
69 106 178
67 103 163
66 102 178
72 108 178
71 107 168
73 110 186
70 107 178
71 108 186
69 106 168
70 108 186
71 108 178
71 109 186
71 109 186
71 109 186
69 106 178
69 105 158
70 107 178
72 109 186
71 108 178
71 108 186
70 108 186
70 107 178
71 107 168
69 106 168
69 106 178
72 109 178
70 108 186
73 110 186
72 109 186
73 110 186
68 106 178
70 106 158
71 107 168
67 105 178
70 105 168
71 108 178
70 108 186
69 107 178
69 106 178
71 108 178
70 108 186
70 107 168
71 108 178
73 110 186
73 110 186
69 107 186
70 106 168
71 109 186
73 110 186
71 108 186
72 109 186
65 101 168
68 105 158
71 108 178
69 106 178
74 111 186
68 106 178
69 107 178
72 109 186
71 109 186
71 108 178
68 106 178
70 108 186
73 109 178
70 107 186
69 106 178
69 107 186
71 108 178
69 107 178
73 110 186
71 109 186
72 109 186
71 107 168
69 107 186
69 106 168
72 109 186
73 110 178
72 109 186
71 109 186
71 108 178
70 108 178
70 108 186
72 109 186
69 107 178
71 109 186
69 106 168
71 108 178
71 108 186
70 108 186
70 107 178
70 108 186
69 106 178
69 107 178
70 108 186
70 107 178
69 106 178
68 105 168
71 108 178
67 105 178
71 108 186
71 108 186
68 104 178
72 109 186
72 109 186
71 107 168
72 108 178
70 107 178
68 105 158
72 109 186
71 108 178
70 107 178
70 108 186
68 105 168
69 106 168
69 106 178
69 105 158
70 108 186
72 109 186
70 107 178
69 107 186
72 108 168
71 107 168
69 106 178
70 107 178
69 106 178
70 107 178
73 109 178
69 106 168
68 104 160
67 102 168
68 105 168
70 107 178
72 109 178
72 108 178
71 108 178
68 104 158
67 102 168
71 108 178
72 108 178
70 106 168
68 106 186
71 108 178
71 107 168
69 105 158
65 101 168
73 110 186
67 104 158
68 106 178
69 105 158
64 100 170
71 106 170
71 107 168
68 104 172
71 108 186
68 104 148
69 106 168
66 100 150
73 109 179
67 102 148
71 108 178
69 104 160
62 93 152
70 105 168
67 102 160
84 100 128
19 27 0
20 26 16
51 67 61
35 46 34
77 82 66
98 97 60
78 78 60
78 78 59
116 113 78
74 78 65
44 58 32
38 48 15
96 101 66
91 93 61
92 94 55
109 108 60
89 90 52
102 102 45
123 121 76
74 81 59
98 99 67
101 101 78
104 101 45
121 123 72
91 96 62
99 96 59
87 94 71
98 100 78
123 120 72
118 119 69
113 115 72
107 108 52
100 103 66
143 139 97
116 113 81
110 113 59
130 130 60
120 120 69
130 128 87
149 146 93
132 132 71
123 117 76
92 97 52
138 136 86
124 120 69
163 160 93
146 141 76
149 143 82
130 130 65
139 138 77
146 142 76
150 147 98
126 123 71
140 138 73
127 127 59
152 145 89
135 135 90
131 130 68
141 138 85
160 157 87
169 166 101
165 159 97
141 140 85
150 147 76
157 149 89
113 113 78
142 140 81
159 155 85
147 144 91
135 134 81
163 159 93
157 153 91
161 156 95
171 164 81
158 155 81
158 156 59
170 163 104
148 145 59
171 167 71
183 175 97
135 130 83
183 177 111
164 155 89
193 182 117
164 160 97
162 157 89
163 157 89
156 154 71
154 151 71
170 166 97
171 162 97
175 170 111
180 171 111
178 171 89
160 156 89
167 163 89
175 171 97
163 159 71
141 138 81
163 160 81
174 168 104
181 173 89
155 151 59
174 166 89
167 159 89
168 162 71
160 155 81
172 166 97
168 164 89
172 168 81
172 168 104
167 163 89
177 171 97
153 151 71
177 169 97
148 142 59
145 141 59
151 146 81
160 155 71
163 160 81
162 156 89
151 143 71
156 149 81
157 155 43
170 163 104
177 201 0
183 204 0
178 201 0
177 197 0
180 202 0
179 202 0
183 204 0
170 194 0
179 202 0
177 195 0
173 193 0
174 194 0
179 202 0
171 194 0
169 191 0
182 203 0
184 204 0
171 194 0
181 203 0
174 196 0
179 202 0
165 187 0
161 182 0
169 192 0
179 201 0
171 194 0
178 201 0
179 199 0
173 196 0
182 203 0
183 204 0
174 195 0
181 203 0
179 202 0
178 201 0
187 206 0
182 203 0
182 203 0
178 201 0
183 204 0
175 199 0
177 197 0
181 200 0
183 204 0
180 202 0
160 181 0
184 204 0
184 204 0
182 203 0
180 202 0
171 194 0
171 194 0
187 206 0
178 201 0
179 201 0
175 196 0
170 193 0
178 201 0
178 201 0
180 202 0
177 191 0
172 194 0
84 114 123
71 108 178
72 106 168
71 107 158
70 107 178
71 107 168
70 107 168
67 104 148
68 104 148
71 108 178
67 105 168
68 104 158
73 109 178
71 108 178
73 110 178
71 108 178
68 106 178
71 108 178
68 105 158
69 105 148
70 107 168
68 106 178
72 108 178
72 109 186
67 103 168
72 109 186
69 106 158
69 106 168
70 107 178
69 105 158
72 109 186
71 108 178
71 108 186
71 108 178
68 106 186
69 107 186
69 106 168
71 108 178
73 110 186
72 109 186
71 109 186
69 107 186
69 107 178
71 108 178
72 109 186
68 104 178
71 108 178
73 110 186
68 105 168
69 106 178
73 110 186
72 108 178
71 108 186
70 108 186
70 107 178
73 110 186
70 107 178
67 102 178
71 108 186
72 108 178
70 107 178
71 108 186
72 109 178
66 102 173
69 107 186
69 106 178
73 109 186
71 108 178
72 109 186
73 110 186
68 106 168
71 108 186
70 107 168
70 108 186
68 106 178
70 107 178
71 107 168
71 108 186
68 106 178
69 106 178
70 107 178
69 107 186
68 105 168
70 108 186
68 106 178
71 109 186
72 108 168
70 108 186
73 109 178
71 109 186
67 105 168
71 109 186
72 109 186
69 107 186
69 107 186
71 108 186
73 109 178
71 109 186
70 107 178
70 108 186
70 108 186
69 106 178
71 108 186
69 107 178
72 109 186
70 108 186
69 106 178
71 108 178
71 109 186
71 108 186
68 105 168
72 109 186
71 108 178
72 108 178
70 107 186
68 103 178
71 108 186
70 107 178
71 108 186
71 108 178
72 109 186
70 108 186
71 108 186
69 106 178
70 106 168
72 109 186
71 108 168
69 105 158
71 107 168
67 104 178
71 108 178
73 110 186
73 110 186
72 109 178
73 110 186
68 105 168
70 107 178
71 107 168
71 108 186
71 107 168
71 108 178
72 109 186
70 107 178
72 109 178
71 108 186
71 108 168
69 107 186
69 107 178
73 110 186
68 105 158
70 107 168
71 109 186
71 108 178
71 108 178
70 107 178
72 109 186
72 109 178
72 108 178
69 107 178
71 108 178
71 108 168
72 108 168
72 109 186
70 107 178
67 104 158
72 109 186
71 108 186
71 108 186
71 108 178
69 106 168
71 108 186
72 108 168
71 108 178
73 109 178
69 106 168
72 108 178
73 109 178
70 106 178
70 107 178
70 107 168
72 108 178
73 110 186
69 106 168
70 106 158
71 108 178
70 107 186
69 105 170
72 108 178
69 105 170
71 107 168
72 109 178
70 107 178
66 101 158
69 106 168
72 109 178
71 107 179
69 106 168
72 109 186
73 110 186
71 108 178
72 108 168
69 105 148
72 109 186
72 109 178
65 98 138
71 108 178
69 106 168
67 101 170
68 102 158
70 104 150
71 106 170
70 106 170
64 98 138
38 47 23
34 45 32
94 93 60
106 98 59
65 70 34
41 53 47
82 86 66
42 54 53
48 62 47
43 58 45
43 57 53
102 103 73
76 77 46
46 61 55
88 88 43
93 93 62
115 114 77
101 102 43
120 118 83
50 64 55
124 120 66
79 85 64
102 103 69
83 86 44
104 105 52
67 76 34
129 127 76
124 122 67
116 119 59
110 109 71
129 123 82
138 137 85
126 122 77
124 125 76
120 121 76
48 64 59
122 124 71
98 101 47
120 119 82
159 152 104
128 124 72
138 136 76
142 141 99
82 90 68
120 118 76
135 135 89
151 148 97
125 125 82
146 143 85
152 148 89
137 135 89
149 144 89
160 154 89
110 109 72
145 142 92
127 122 76
132 128 73
134 131 71
154 151 85
141 142 89
171 166 97
136 137 81
163 158 85
150 146 78
134 131 68
153 151 87
171 164 104
142 139 81
161 153 89
135 134 85
153 149 76
158 153 71
168 161 97
147 143 93
131 128 73
185 178 111
171 167 104
171 165 85
160 153 95
151 147 81
167 163 83
165 161 81
176 173 104
179 173 97
172 164 111
180 174 97
152 146 81
166 159 89
171 165 89
154 150 59
170 168 89
166 162 81
161 152 89
172 166 97
163 157 89
170 163 81
154 152 71
170 166 89
186 179 111
175 169 104
166 162 81
162 155 71
157 154 71
152 150 71
180 171 89
173 167 97
168 162 104
166 161 104
164 159 97
159 154 81
177 172 97
159 153 71
173 167 89
146 142 59
147 142 81
175 168 97
144 138 71
155 152 71
173 168 81
155 152 71
175 167 89
168 160 89
169 164 89
156 154 43
162 157 89
179 202 0
181 203 0
180 202 0
173 193 0
172 194 0
168 189 0
179 201 0
185 205 0
186 206 0
181 203 0
183 204 0
182 203 0
179 201 0
179 202 0
178 201 0
178 201 0
179 202 0
178 201 0
174 195 0
180 202 0
171 194 0
168 191 0
171 193 0
179 202 0
171 192 0
170 193 0
178 201 0
168 192 0
183 204 0
180 202 0
180 202 0
165 189 0
183 204 0
185 205 0
178 201 0
178 201 0
180 202 0
181 203 0
171 192 0
182 203 0
184 204 0
172 194 0
176 200 0
179 202 0
183 203 0
178 201 0
172 194 0
175 200 0
172 193 0
167 188 0
177 198 0
173 195 0
184 204 0
179 199 0
168 192 0
179 202 0
180 202 0
160 182 0
179 198 0
183 204 0
171 194 0
171 194 65
72 108 158
74 110 178
71 107 158
68 103 168
71 108 178
69 106 168
68 104 148
69 106 168
75 111 186
71 107 168
69 106 168
72 108 168
68 105 168
69 106 168
68 104 148
68 103 168
68 106 168
69 106 178
69 106 168
70 107 178
71 108 168
70 107 186
70 107 178
71 109 186
71 108 178
72 109 178
70 106 168
70 106 168
72 109 186
70 107 178
71 108 178
73 110 178
71 108 186
72 109 178
73 109 178
70 108 186
69 104 148
70 107 168
69 106 168
71 108 178
68 106 178
72 108 178
69 107 178
67 102 158
71 108 186
73 110 186
70 107 178
73 110 186
71 108 186
70 107 168
70 108 186
72 109 186
72 109 178
71 108 178
69 106 168
73 110 178
72 109 186
70 107 178
73 110 186
66 102 168
69 107 178
71 108 178
70 107 178
71 108 186
70 107 178
74 110 186
69 106 168
71 108 186
70 107 186
70 106 168
71 109 186
71 108 186
72 109 186
68 105 168
71 107 168
71 108 178
72 109 186
72 109 186
72 109 186
72 109 178
68 105 168
66 104 168
71 108 186
72 109 186
69 105 158
72 108 178
68 105 168
72 109 178
70 107 178
70 107 178
69 106 178
72 109 186
72 109 186
70 107 168
74 110 186
72 109 178
70 107 178
71 108 186
71 108 186
68 106 178
71 108 186
71 108 168
74 111 186
72 109 186
70 108 186
68 106 178
71 108 186
72 109 178
74 110 186
68 104 158
71 108 178
72 109 178
70 106 168
71 108 186
72 109 186
72 109 178
70 108 186
71 109 186
71 108 178
71 108 186
72 109 186
71 109 186
71 108 178
71 108 178
70 107 178
70 107 178
73 110 186
69 107 186
73 109 178
71 107 168
69 105 148
69 107 186
70 108 186
73 109 178
69 106 178
70 106 158
69 106 168
70 107 168
70 108 186
72 108 168
73 110 186
73 109 178
69 107 178
72 109 186
70 108 186
73 110 186
70 107 178
72 108 178
74 111 186
70 107 178
72 109 186
69 106 168
74 110 186
74 110 186
71 108 178
72 109 178
71 107 168
72 108 178
71 108 186
68 104 148
73 109 178
70 107 178
73 110 186
71 108 186
73 110 186
69 106 178
71 108 178
69 107 186
72 109 178
70 107 178
69 106 158
71 108 178
73 109 178
70 107 168
70 107 178
68 105 168
71 109 186
71 107 168
72 108 178
70 107 168
72 109 186
71 108 178
69 106 168
69 103 168
73 110 186
72 109 186
70 106 168
70 107 178
71 108 186
67 104 158
71 107 168
70 106 168
71 108 186
69 106 168
70 107 168
73 109 178
70 107 168
71 107 168
73 110 186
72 109 186
70 107 168
73 110 186
70 106 170
68 102 125
71 105 172
71 108 178
71 108 178
66 98 152
65 97 136
71 108 178
71 106 172
68 101 138
68 103 136
90 95 76
30 37 15
41 56 52
43 57 59
99 96 61
105 104 54
42 55 54
100 99 43
116 114 76
38 49 43
41 52 46
37 50 43
52 68 47
98 100 36
97 97 68
101 96 62
45 59 44
94 96 53
136 135 97
76 76 45
39 52 46
97 97 70
118 111 59
110 111 66
118 120 83
93 93 59
94 94 53
103 102 66
103 108 87
127 125 76
117 118 73
137 132 82
85 91 76
101 100 53
126 125 85
136 135 76
142 140 66
114 113 73
114 116 68
148 140 76
137 135 81
121 121 71
160 155 93
135 134 86
98 100 71
98 101 77
132 129 68
132 130 43
144 143 91
126 125 85
152 147 90
108 109 73
115 116 66
153 149 85
149 145 85
145 140 65
122 123 73
162 154 97
145 142 76
167 161 93
148 143 87
146 145 93
151 147 97
138 133 81
153 147 91
154 149 83
144 141 93
145 142 89
153 150 87
185 175 104
148 144 71
122 124 59
163 158 85
178 171 112
171 164 104
168 163 93
147 145 76
185 177 104
166 160 89
179 173 97
172 167 97
170 164 89
184 177 111
171 166 89
160 159 81
166 162 71
164 161 81
177 169 97
182 176 104
172 165 89
171 166 104
179 174 104
169 160 89
168 165 71
163 158 89
183 177 111
160 155 81
156 151 59
168 164 89
160 155 81
160 155 89
176 169 104
177 170 81
182 174 89
163 157 89
166 159 71
162 156 71
153 148 81
167 160 89
156 150 81
187 179 111
153 146 71
172 164 104
150 142 71
176 169 97
177 170 71
160 154 71
151 147 81
168 161 97
175 168 97
154 149 89
158 150 71
164 159 89
133 130 59
169 164 89
182 203 0
180 202 0
173 194 0
174 194 0
182 203 0
184 204 0
165 187 0
183 204 0
181 202 0
176 200 0
177 200 0
181 203 0
182 203 0
174 195 0
171 194 0
169 192 0
181 203 0
155 173 0
179 201 0
174 195 0
178 201 0
180 202 0
179 202 0
173 194 0
175 195 0
175 197 0
181 203 0
167 192 0
166 188 0
175 196 0
171 193 0
180 202 0
166 186 0
181 203 0
162 186 0
164 185 0
180 202 0
176 200 0
166 187 0
179 201 0
179 202 0
176 200 0
177 201 0
184 204 0
172 193 0
180 202 0
184 204 0
174 196 0
181 203 0
184 204 0
160 184 0
180 202 0
179 202 0
177 198 0
172 194 0
180 202 0
170 193 0
167 186 0
176 196 0
166 189 0
179 202 0
146 170 89
71 107 168
69 106 168
67 101 148
69 105 148
68 105 158
72 109 186
73 110 178
70 107 178
72 109 178
71 107 168
73 109 168
71 108 178
70 107 168
70 107 178
73 110 186
70 107 178
70 107 168
72 108 158
71 108 186
69 107 178
67 104 158
71 107 168
70 107 178
69 106 168
71 108 178
71 108 178
71 108 178
72 109 186
71 108 178
69 107 178
69 106 178
71 108 178
70 107 178
71 108 186
70 106 168
71 107 168
67 105 178
69 106 168
71 107 168
71 108 178
69 106 178
69 106 178
70 107 186
73 110 186
73 109 178
67 102 158
71 109 186
72 109 186
70 107 168
72 109 186
68 106 178
71 108 178
73 109 178
70 106 168
71 109 186
72 109 186
69 106 178
71 107 168
73 110 186
69 105 158
71 108 178
72 108 168
70 107 178
69 107 186
71 108 186
71 108 186
72 108 168
70 107 168
72 109 186
69 107 186
72 109 186
73 110 186
68 106 178
70 108 178
73 110 186
71 107 168
69 106 178
71 108 178
69 106 168
70 107 168
73 110 186
71 108 178
72 109 186
69 107 178
68 106 178
72 109 186
72 109 178
67 103 178
71 108 178
70 107 178
71 108 186
69 106 178
71 108 178
70 107 186
67 105 168
71 108 186
71 108 178
72 109 186
73 109 178
70 108 186
70 108 186
71 108 186
69 107 178
73 110 186
70 107 168
68 106 178
69 106 178
71 108 186
72 109 186
70 107 178
72 108 178
71 109 186
71 108 186
72 109 178
73 110 186
71 108 178
69 107 178
72 109 186
72 109 186
71 109 186
72 109 186
72 108 168
71 108 178
71 109 186
71 108 178
72 109 178
70 107 178
71 109 186
68 106 178
71 108 186
73 110 186
72 109 186
69 106 168
73 110 186
70 108 186
71 109 186
70 107 178
69 107 178
69 107 186
70 107 186
71 109 186
72 108 178
72 109 186
70 107 168
72 109 186
73 110 186
68 106 168
67 105 178
69 106 178
71 108 178
69 107 178
72 109 186
69 106 178
71 109 186
71 109 186
69 106 168
69 105 148
71 107 168
68 104 158
69 106 178
69 106 178
71 108 178
70 105 148
71 108 178
70 107 178
73 110 186
71 108 186
71 108 178
69 106 168
69 106 168
66 103 158
68 104 148
69 105 158
70 107 186
70 106 158
73 109 168
70 107 168
72 109 186
67 103 178
70 107 178
69 106 178
70 106 158
68 106 178
68 104 178
73 109 178
70 107 178
72 108 178
72 108 158
73 109 178
69 104 160
73 109 178
71 108 178
73 110 178
69 105 170
73 109 179
67 104 158
70 105 168
66 102 136
71 108 178
72 108 168
68 104 148
67 101 136
72 109 178
69 101 154
72 109 178
67 100 163
69 106 168
68 101 168
66 101 148
70 106 158
67 103 168
70 107 186
65 99 128
95 103 101
89 90 52
74 71 45
30 40 32
100 97 68
72 72 44
98 95 66
59 62 34
64 71 13
35 46 34
45 58 34
99 99 66
70 83 59
118 115 62
53 69 40
122 120 77
47 61 46
131 127 87
96 99 63
71 75 45
130 125 76
98 95 67
136 133 81
79 80 59
68 74 37
82 90 74
47 60 46
134 129 73
90 95 59
72 80 40
110 113 66
96 96 43
93 98 43
113 112 77
100 104 23
121 122 71
127 123 55
131 126 84
82 84 37
113 116 45
134 133 85
117 120 52
141 137 86
156 150 85
141 137 77
96 104 53
106 109 73
126 124 87
128 124 63
146 143 87
154 148 96
118 113 59
154 150 85
155 151 81
144 141 81
132 131 72
135 133 94
156 154 76
159 156 85
162 154 93
160 155 97
153 149 97
164 161 71
122 120 63
154 149 95
150 148 89
156 154 89
143 138 71
128 126 76
159 156 81
150 146 71
157 151 91
156 151 91
169 163 111
172 165 108
165 158 89
172 165 103
149 145 99
184 177 104
154 149 89
170 164 89
177 172 97
164 160 71
177 171 89
177 173 97
179 171 104
176 170 89
180 171 104
162 159 59
176 171 89
174 170 89
153 153 43
153 150 89
155 149 81
161 156 71
175 170 81
177 172 89
172 168 81
160 154 104
161 155 81
168 161 97
156 150 81
158 156 59
173 167 59
166 158 97
171 166 97
140 137 0
169 160 89
155 152 71
112 109 43
134 133 59
174 167 97
169 165 71
161 156 71
168 163 81
156 150 81
159 153 71
166 162 81
163 158 89
174 168 97
145 142 59
157 151 81
147 139 71
180 169 89
155 151 59
182 203 0
171 194 0
157 177 0
172 195 0
182 203 0
165 185 0
182 203 0
178 201 0
178 197 0
180 202 0
170 192 0
174 196 0
179 202 0
178 198 0
178 201 0
170 193 0
178 201 0
186 205 0
178 201 0
179 199 0
169 193 0
182 203 0
179 202 0
181 203 0
179 202 0
183 203 0
168 192 0
168 188 0
154 175 0
170 192 0
180 202 0
182 203 0
171 193 0
171 193 0
178 201 0
177 201 0
178 201 0
167 192 0
179 202 0
174 195 0
179 198 0
179 199 0
184 204 0
176 195 0
177 201 0
180 202 0
171 194 0
180 202 0
181 203 0
172 194 0
168 191 0
182 203 0
177 201 0
174 195 0
172 194 0
176 200 0
166 190 0
174 195 0
177 197 0
174 195 0
176 200 0
93 123 168
68 103 158
71 107 158
73 110 186
71 107 168
70 107 168
70 106 168
72 108 168
70 107 178
73 109 178
68 105 158
70 107 168
72 107 158
73 109 178
70 107 186
72 108 178
70 106 168
69 106 168
70 107 168
72 109 178
72 108 178
72 108 168
70 107 178
72 108 168
71 108 178
72 109 186
68 105 168
68 106 168
68 106 178
71 109 186
71 107 168
70 107 178
69 107 186
70 107 168
72 109 186
69 105 158
69 106 168
69 105 158
65 101 158
71 108 186
71 108 186
68 104 178
70 107 178
71 108 178
71 108 178
73 110 186
72 109 186
73 110 186
71 108 186
71 109 186
73 110 186
71 108 178
72 109 186
70 108 186
72 109 186
70 107 178
71 109 186
69 105 158
70 107 178
66 102 168
69 106 168
71 109 186
71 108 178
70 108 186
71 108 178
72 109 186
69 104 173
71 107 168
73 110 186
71 109 186
71 108 186
70 107 178
72 109 186
72 109 186
71 109 186
69 106 178
73 110 186
68 104 178
72 109 186
71 108 178
71 108 178
71 108 178
70 107 168
74 110 186
70 107 178
72 109 186
70 107 178
71 108 186
67 104 158
72 109 186
69 106 168
71 108 178
72 109 186
72 109 186
70 107 186
72 109 186
67 102 178
71 107 168
70 108 186
69 106 168
70 107 168
68 106 178
70 107 186
71 107 168
72 109 186
72 109 186
70 107 178
69 107 186
70 107 178
68 105 158
73 110 186
70 106 168
69 106 168
70 108 186
73 110 186
72 108 178
72 109 178
70 107 178
69 106 168
72 109 186
70 106 168
71 109 186
71 108 186
69 106 168
70 108 186
68 105 158
72 109 186
72 109 186
73 109 178
72 109 186
71 109 186
68 105 168
71 109 186
71 107 158
70 107 186
70 108 186
71 109 186
74 111 186
73 110 186
71 109 186
69 105 148
69 105 158
71 108 168
67 104 168
70 107 168
70 108 186
71 109 186
72 108 178
70 106 168
72 109 186
70 107 178
68 106 178
69 107 186
71 107 168
70 107 178
71 108 178
70 107 168
71 108 186
70 107 178
69 107 186
69 105 136
69 106 168
72 109 178
71 108 186
68 105 158
69 105 178
72 109 186
70 107 178
69 106 158
70 106 158
71 108 178
72 109 186
72 109 186
72 108 178
72 109 186
69 105 148
73 110 178
73 109 168
64 100 158
71 108 178
72 109 178
71 108 178
71 108 178
72 109 178
71 108 178
70 107 168
73 108 168
70 108 178
69 105 158
67 102 123
71 108 178
70 106 148
69 106 178
72 108 168
72 108 168
70 107 178
71 106 170
68 104 148
70 106 158
68 104 160
68 105 170
68 104 148
69 106 168
72 106 160
69 104 168
69 104 158
67 102 150
67 103 148
66 100 148
59 91 149
67 102 158
64 96 125
68 102 152
68 100 141
49 74 108
45 56 20
30 40 8
41 53 20
62 64 20
29 36 31
80 78 31
95 99 31
30 41 35
70 77 36
91 94 59
95 93 52
91 89 45
80 82 59
112 113 74
94 97 55
72 84 53
28 39 31
108 108 53
67 77 44
66 74 45
125 123 65
113 116 77
74 83 59
116 116 61
85 92 63
117 117 74
108 107 74
68 78 43
119 120 60
90 93 31
125 126 86
128 129 82
120 118 71
140 136 77
91 97 68
113 114 65
143 140 78
134 133 79
125 122 76
146 141 82
120 119 66
93 99 65
143 138 93
105 108 69
130 132 101
123 120 76
150 145 97
143 140 87
112 114 76
138 135 71
169 162 89
149 146 74
151 144 99
133 130 78
153 149 76
159 155 81
102 104 59
138 133 73
133 132 76
156 154 101
171 165 111
152 148 71
147 142 91
152 149 93
149 148 89
164 157 108
152 147 95
151 147 60
157 152 81
190 180 111
155 151 89
181 173 104
166 163 89
174 168 104
177 171 81
180 173 89
159 158 71
166 160 97
174 168 71
181 173 89
177 172 89
161 154 97
157 153 59
162 156 81
180 172 111
179 172 89
163 154 81
154 149 81
182 174 97
151 146 81
160 154 81
186 178 104
169 162 81
171 164 81
167 159 89
175 170 81
181 172 104
146 145 43
156 152 71
164 159 81
164 161 81
154 150 81
175 166 81
165 158 89
158 153 71
151 147 81
163 159 71
177 171 89
180 174 97
157 153 81
161 155 71
164 157 81
171 166 89
165 156 89
175 169 104
150 146 43
157 153 71
161 154 71
170 163 104
173 165 81
174 167 97
144 138 71
153 147 59
151 148 43
162 185 0
169 193 0
176 196 0
180 202 0
185 205 0
159 183 0
185 205 0
182 203 0
164 185 0
177 201 0
180 202 0
181 202 0
182 203 0
178 201 0
182 203 0
185 205 0
177 197 0
176 200 0
167 187 0
176 200 0
183 204 0
171 193 0
182 203 0
169 193 0
184 204 0
180 199 0
177 200 0
173 194 0
176 197 0
181 203 0
166 188 0
178 201 0
150 173 0
182 203 0
176 196 0
179 202 0
170 193 0
179 199 0
179 199 0
177 201 0
184 204 0
171 194 0
177 200 0
178 201 0
172 195 0
177 197 0
174 195 0
156 177 0
181 203 0
179 201 0
184 204 0
179 202 0
182 200 0
168 187 0
166 187 0
181 203 0
170 193 0
173 189 0
183 204 0
182 203 0
178 201 0
91 120 136
72 109 186
71 107 168
67 104 148
69 105 148
69 105 158
67 104 158
72 108 178
70 106 158
70 106 168
72 108 168
71 107 168
67 103 178
72 109 178
73 109 178
67 103 173
71 108 186
72 109 186
71 108 168
69 107 186
71 108 178
72 109 186
72 109 186
72 109 186
72 108 178
65 99 148
72 109 178
72 109 186
69 107 186
70 107 178
70 108 186
69 106 178
71 109 186
71 108 178
71 108 178
70 107 168
71 108 178
69 107 186
72 109 186
71 108 186
73 110 186
70 108 186
70 108 186
71 109 186
69 107 186
69 106 158
73 109 178
70 108 186
71 108 186
72 109 186
70 107 178
70 108 186
69 106 168
68 105 168
70 108 186
71 108 178
71 108 178
69 107 186
71 108 186
71 108 186
71 108 186
72 109 186
71 109 186
73 110 186
69 106 178
72 109 186
69 107 178
69 106 168
66 100 136
66 101 158
71 108 168
71 108 186
70 107 178
69 107 178
71 108 178
71 108 178
70 108 186
68 105 168
72 109 186
70 108 186
70 108 178
71 108 186
71 107 168
70 108 186
71 108 186
71 109 186
71 109 186
71 108 178
72 109 186
74 111 186
72 109 178
71 108 178
69 107 178
71 109 186
73 110 186
71 107 168
70 107 178
71 108 178
69 106 168
71 108 178
69 107 178
69 105 158
72 108 178
70 108 186
70 107 178
72 109 186
72 109 186
69 107 186
70 107 178
75 111 186
72 109 178
73 109 178
70 107 178
70 106 158
71 108 186
69 105 158
70 107 168
71 108 178
73 110 186
71 108 178
70 107 168
71 109 186
71 107 168
71 108 168
70 106 168
72 109 178
67 105 168
72 109 186
71 107 168
69 107 186
70 105 178
73 110 178
74 110 178
69 105 158
72 109 186
70 107 168
70 107 178
73 110 186
70 107 178
71 108 186
71 108 178
73 109 178
69 105 148
70 107 178
71 109 186
73 109 178
71 108 178
73 109 178
70 107 168
69 106 178
70 106 168
71 108 178
66 101 158
71 108 186
72 109 186
71 108 178
71 108 178
71 109 186
72 109 186
72 109 186
74 110 186
71 107 168
72 108 168
72 108 178
69 107 178
70 108 186
72 109 186
72 109 186
70 107 178
71 108 178
72 109 186
70 107 178
71 107 158
71 107 158
72 108 178
68 103 136
71 107 168
71 108 168
69 106 168
71 108 178
70 107 178
71 108 178
69 106 168
69 106 178
71 108 178
68 105 158
71 106 160
72 109 186
72 109 186
71 108 178
72 109 186
69 105 148
70 106 168
69 106 178
69 106 168
72 108 168
72 109 186
72 108 168
68 103 158
68 102 159
70 107 178
73 109 168
72 107 170
70 107 178
70 108 186
70 107 178
73 109 178
71 108 186
64 98 150
67 102 168
68 103 158
68 102 148
67 103 148
65 100 136
91 111 154
34 45 34
69 71 23
12 18 12
65 65 22
78 83 59
93 89 43
41 56 52
73 74 54
106 108 65
98 96 67
38 49 34
38 47 23
47 62 34
79 86 66
78 83 59
35 44 5
109 109 71
80 89 71
50 65 43
101 102 72
69 76 52
108 109 65
92 96 67
125 122 72
48 63 63
118 120 71
95 94 63
126 124 81
96 103 71
99 99 43
100 104 76
133 131 73
77 86 71
121 118 60
134 132 71
128 127 85
127 125 81
138 135 82
114 116 59
136 132 77
123 123 71
130 129 65
133 129 76
127 125 60
113 115 81
143 140 85
141 138 90
124 125 86
120 121 71
134 135 81
134 132 65
131 129 81
156 152 71
144 140 78
133 132 85
145 141 85
154 148 85
125 121 73
134 133 91
143 137 89
156 155 85
148 145 71
134 133 81
158 150 89
146 143 87
143 136 91
165 160 71
157 153 95
156 150 89
151 146 71
172 168 81
160 154 97
161 157 81
141 138 71
159 154 93
183 176 104
171 163 97
155 150 81
158 152 89
184 177 104
184 176 97
150 147 81
163 157 89
174 167 97
162 156 81
172 165 81
179 173 97
142 140 59
177 170 97
173 169 81
166 161 71
174 170 89
166 159 89
178 170 97
170 166 97
163 157 81
160 155 81
172 167 81
169 162 71
151 145 59
157 150 81
183 177 111
178 173 97
173 167 71
182 176 104
132 130 43
163 161 81
185 176 97
153 144 81
157 152 71
169 164 89
160 155 81
150 144 71
152 146 71
161 157 59
154 150 59
177 170 104
179 173 97
133 130 43
162 155 71
167 159 89
156 152 71
152 145 81
163 156 81
176 196 0
172 195 0
165 187 0
173 195 0
174 194 0
182 203 0
181 203 0
182 203 0
170 193 0
180 202 0
171 194 0
179 202 0
171 194 0
182 203 0
175 196 0
181 203 0
183 204 0
182 203 0
173 195 0
181 203 0
180 202 0
171 194 0
163 184 0
171 191 0
173 195 0
179 202 0
170 192 0
172 194 0
183 204 0
171 194 0
182 203 0
181 203 0
181 203 0
179 202 0
173 194 0
183 204 0
154 175 0
171 195 0
181 203 0
163 186 0
179 201 0
175 200 0
167 188 0
178 201 0
173 195 0
176 200 0
182 203 0
164 186 0
178 201 0
180 202 0
174 195 0
172 193 0
179 202 0
180 202 0
177 197 0
171 190 0
177 201 0
169 191 0
181 203 0
179 202 0
181 203 0
90 120 148
70 107 168
70 107 178
70 107 168
69 106 168
68 105 158
69 105 148
69 106 168
66 102 168
68 105 168
70 107 178
71 107 158
69 106 168
72 109 186
71 108 178
69 105 158
72 109 186
73 110 186
70 107 168
70 107 178
71 108 178
70 107 168
71 108 186
71 108 186
70 108 186
71 108 178
65 103 182
71 108 186
67 103 148
66 101 158
68 103 136
71 108 168
69 105 148
72 109 186
71 108 186
70 108 186
73 109 178
69 107 186
70 107 168
70 107 178
71 108 178
71 109 186
69 106 178
72 108 168
67 105 178
67 103 178
71 109 186
73 110 186
70 108 186
69 107 178
69 106 168
70 106 168
71 107 168
72 109 186
71 108 178
70 107 186
67 105 168
72 109 186
72 109 178
69 106 168
66 103 173
71 108 178
74 110 178
68 107 186
71 108 178
68 104 178
70 107 168
72 108 178
70 107 186
71 107 168
72 109 178
70 107 178
70 108 186
68 105 168
75 110 178
70 108 186
72 109 186
67 105 178
71 108 186
70 108 186
68 106 178
71 108 186
70 107 178
72 109 186
73 110 186
71 109 186
70 107 186
72 109 178
70 107 186
71 108 178
72 109 186
72 109 186
70 107 168
69 107 178
73 110 186
72 109 186
73 110 186
72 109 186
72 109 186
71 108 186
71 108 178
69 107 186
72 108 178
71 109 186
71 108 186
73 110 186
68 106 186
74 110 186
69 107 178
69 107 186
70 108 186
72 109 186
70 107 178
70 107 178
69 107 186
67 104 178
72 109 178
71 109 186
69 105 158
71 108 186
71 108 178
71 109 186
71 107 168
71 108 186
69 107 178
71 108 178
69 105 158
72 108 178
70 105 178
72 109 186
71 107 168
71 108 186
70 107 168
69 105 158
71 107 168
73 110 186
70 108 186
72 109 186
67 105 168
73 110 186
70 106 168
70 108 186
70 106 158
72 109 186
73 109 178
73 110 186
69 107 186
70 105 148
67 103 148
70 107 178
73 110 186
69 106 168
73 110 186
69 106 178
70 108 186
69 106 178
69 106 158
67 103 148
70 107 178
70 107 168
72 108 178
70 106 168
70 107 178
70 107 168
72 109 186
71 109 186
71 108 178
71 108 186
68 105 168
70 108 186
69 106 158
71 108 178
70 107 178
69 105 148
71 108 178
73 109 178
71 108 168
71 109 186
71 108 178
73 110 186
71 108 178
71 108 178
71 108 178
73 109 178
71 107 168
73 109 168
74 110 178
72 107 170
70 107 178
69 107 178
68 105 158
67 102 168
68 104 148
71 107 168
71 107 168
72 108 178
69 103 123
75 109 179
67 100 150
72 108 168
73 109 178
69 106 168
68 102 158
73 109 178
69 104 150
73 109 178
72 109 178
68 103 162
67 100 150
68 103 150
69 104 150
69 103 160
72 109 178
64 97 148
66 99 152
74 76 77
73 75 53
73 74 52
38 47 21
71 68 45
90 92 54
75 76 45
81 84 15
35 46 43
101 100 66
75 74 46
93 89 52
89 90 52
41 49 28
118 118 87
76 79 53
115 111 72
71 70 46
61 68 11
44 57 45
101 105 72
93 98 61
117 116 85
74 83 46
57 75 52
129 128 76
125 120 66
125 125 66
92 91 52
107 106 55
138 133 76
102 104 74
139 134 71
125 125 60
130 130 71
124 122 71
144 141 83
117 117 59
94 97 52
112 114 76
94 99 72
127 128 82
143 142 88
91 98 68
135 133 78
148 142 99
100 102 76
143 140 89
177 168 89
129 124 73
165 157 97
131 130 52
121 119 71
137 133 78
144 137 83
165 157 97
159 154 93
162 156 99
132 128 59
124 125 43
135 130 77
132 125 71
110 108 65
156 150 97
131 129 65
125 122 76
153 150 59
151 146 71
128 127 68
163 161 76
155 153 103
131 129 71
177 170 104
162 158 85
164 161 81
150 147 81
141 135 59
177 170 104
169 163 93
187 178 104
137 134 71
182 176 111
144 138 71
154 152 59
168 163 81
164 159 89
140 135 81
170 163 81
156 154 81
166 161 81
161 155 81
169 165 89
154 149 71
172 167 97
161 157 89
175 171 89
169 159 89
164 160 71
181 173 89
158 152 59
169 163 89
153 150 43
170 166 71
159 154 81
169 163 81
161 157 59
159 154 81
167 160 81
164 160 71
175 169 104
144 141 59
169 159 81
149 145 71
163 155 71
168 161 97
138 135 71
158 153 71
152 149 59
169 162 71
157 148 71
167 161 71
159 156 59
140 137 71
159 156 59
181 203 0
178 201 0
180 199 0
177 201 0
167 188 0
179 202 0
179 202 0
168 191 0
180 202 0
178 201 0
177 201 0
178 201 0
180 202 0
180 202 0
183 204 0
168 192 0
173 195 0
172 194 0
174 195 0
179 195 0
184 204 0
182 203 0
179 202 0
181 203 0
171 193 0
180 202 0
177 201 0
182 203 0
171 194 0
174 195 0
178 201 0
171 194 0
184 204 0
171 193 0
183 204 0
171 194 0
162 183 0
177 200 0
177 201 0
167 192 0
174 194 0
176 200 0
182 203 0
182 203 0
184 204 0
176 197 0
161 181 0
168 191 0
181 202 0
177 198 0
184 204 0
182 203 0
182 203 0
180 200 0
176 200 0
174 197 0
180 202 0
160 184 0
170 193 0
171 193 0
169 189 0
66 103 148
71 107 168
65 100 148
70 106 158
69 106 158
67 101 158
69 106 168
68 105 158
71 108 168
69 105 158
71 108 178
68 105 158
67 102 168
64 98 168
71 106 158
68 104 158
69 104 168
67 102 168
71 107 158
72 108 178
68 103 168
70 106 158
70 107 168
70 107 168
71 108 186
70 108 186
71 108 178
70 108 186
71 108 178
70 108 186
69 107 186
70 108 186
71 108 178
72 108 178
70 107 168
69 107 178
73 109 178
72 109 186
70 107 178
69 107 178
73 110 186
69 107 178
73 110 186
75 111 178
69 106 168
69 106 168
71 108 178
70 108 186
69 103 168
72 108 178
71 108 186
73 110 186
71 109 186
71 108 186
73 110 178
71 108 178
74 111 186
71 108 178
70 107 178
72 109 186
71 108 178
68 106 186
72 108 178
70 108 186
72 109 186
71 108 186
70 107 178
72 109 186
71 108 178
71 107 168
72 108 168
69 106 178
70 108 186
71 108 186
72 109 186
71 108 178
72 109 186
70 107 178
70 108 186
73 110 186
72 109 186
69 107 186
70 108 186
72 109 186
68 106 178
70 107 178
73 110 186
70 108 186
71 109 186
68 105 158
71 109 186
66 102 168
70 107 178
72 109 186
71 109 186
70 107 178
72 108 178
70 107 178
70 107 168
70 108 186
70 108 186
71 107 168
71 108 178
70 107 168
70 107 178
69 106 168
71 108 186
69 106 178
68 106 168
71 107 168
70 108 186
71 108 178
71 107 168
69 107 178
69 105 158
71 109 186
74 110 186
71 108 178
71 108 186
73 110 186
71 108 186
72 109 178
69 107 178
70 107 178
73 109 178
71 109 186
71 108 178
70 107 178
73 110 186
72 109 186
69 106 178
70 107 178
71 108 186
71 108 178
70 108 178
72 109 186
70 106 168
70 107 168
70 107 178
72 109 186
71 108 186
70 107 178
71 108 186
69 106 168
72 109 186
68 105 158
71 108 186
70 107 178
69 107 178
73 109 168
71 108 178
71 107 168
75 111 186
70 106 168
69 104 136
73 110 186
70 107 168
74 110 186
68 103 168
70 107 168
72 108 168
73 109 178
73 109 178
71 108 178
74 110 186
69 105 158
71 109 186
71 108 186
68 105 158
73 110 186
71 108 186
72 109 178
71 108 168
69 105 178
70 107 178
71 108 178
72 109 178
73 109 178
71 106 170
69 105 158
70 107 178
73 110 186
71 108 178
68 103 168
68 105 168
71 108 178
65 99 136
71 107 168
67 104 178
70 105 160
72 108 178
70 106 158
66 99 150
70 108 186
67 104 158
72 109 186
73 109 179
65 101 158
70 106 158
71 106 160
68 105 168
70 107 178
74 111 186
71 108 178
68 103 158
66 101 158
72 109 178
74 110 178
68 103 169
69 105 170
69 106 158
70 106 148
67 100 148
71 107 158
69 103 160
57 85 125
42 52 47
73 72 46
58 58 1
43 55 36
99 98 76
97 94 48
81 85 23
40 50 43
41 54 45
111 111 76
129 129 86
110 105 60
44 56 43
65 71 20
82 90 65
36 48 36
70 77 43
75 77 47
111 112 45
36 50 47
120 118 86
131 127 83
76 80 59
99 101 42
65 70 42
96 99 59
131 133 71
113 112 71
121 119 85
73 76 52
88 93 35
121 121 71
114 117 79
69 80 47
111 113 37
151 148 65
155 153 99
164 160 89
106 106 65
132 132 78
113 113 76
128 127 81
94 91 59
107 109 65
111 114 77
151 147 76
156 152 87
128 126 77
141 137 91
140 136 45
161 158 85
108 109 55
140 139 93
155 152 93
148 141 83
135 130 73
145 141 71
173 167 97
132 132 76
171 162 101
116 117 65
158 152 85
154 151 76
147 141 76
153 149 81
161 159 73
178 171 106
161 156 81
141 142 65
148 145 71
152 148 65
151 148 59
154 149 76
140 137 43
169 163 81
178 170 104
163 157 89
166 162 89
163 160 71
176 171 89
169 162 97
172 164 97
169 164 81
170 163 81
151 147 81
179 170 97
150 143 71
185 177 104
165 158 71
180 171 104
164 157 81
167 159 89
175 167 89
157 151 81
163 158 59
147 143 59
178 170 97
171 167 81
167 163 89
151 145 71
169 164 89
174 168 97
186 178 111
176 171 89
182 174 97
149 145 71
172 167 71
163 157 89
182 175 97
168 163 81
164 159 43
150 147 43
158 150 89
159 155 43
168 160 81
138 134 59
156 149 81
167 164 59
176 171 89
135 132 59
161 154 71
153 150 59
155 150 81
175 195 0
181 203 0
175 200 0
184 204 0
181 203 0
180 199 0
171 194 0
170 193 0
180 202 0
175 200 0
175 199 0
180 199 0
176 200 0
173 194 0
183 204 0
183 204 0
167 191 0
181 203 0
182 203 0
170 193 0
178 201 0
178 201 0
181 202 0
169 193 0
184 204 0
179 202 0
182 203 0
178 201 0
164 185 0
180 202 0
170 193 0
170 192 0
180 202 0
168 190 0
175 196 0
176 200 0
176 196 0
176 200 0
187 206 0
168 192 0
178 201 0
166 191 0
184 204 0
177 201 0
178 198 0
161 183 0
173 192 0
178 201 0
177 201 0
173 195 0
180 202 0
183 204 0
184 204 0
172 195 0
165 185 0
181 203 0
185 205 0
176 196 0
181 203 0
182 203 0
133 156 123
72 108 178
70 106 148
73 110 178
68 102 158
68 104 148
70 108 178
73 110 186
71 108 168
69 105 158
71 108 178
65 100 158
71 109 186
69 107 186
72 109 178
74 110 178
69 106 168
71 108 178
73 110 186
71 108 178
71 108 186
69 106 168
72 108 178
71 108 178
70 108 186
70 107 178
71 108 178
70 107 168
71 107 168
71 108 178
73 109 178
70 107 178
74 110 186
69 106 168
73 110 186
72 109 186
70 108 186
71 108 178
71 108 168
71 108 178
72 109 186
71 109 186
71 108 178
70 107 168
72 109 186
70 107 178
71 108 178
70 107 178
72 109 186
70 107 178
71 108 178
68 106 168
73 110 186
70 108 186
70 108 186
72 109 186
70 107 178
73 110 186
67 102 168
71 108 186
71 109 186
71 109 186
70 107 178
72 109 186
70 107 178
73 110 186
74 110 186
72 109 186
68 104 168
68 105 168
73 109 178
67 103 178
72 108 168
71 108 178
70 107 178
71 108 178
71 109 186
70 107 178
71 108 178
68 106 178
69 106 178
69 106 168
71 108 186
70 107 178
70 107 178
66 102 148
72 109 186
69 107 186
71 109 186
72 109 186
73 110 186
73 109 178
72 109 186
69 106 178
69 107 178
70 107 168
69 106 168
71 108 178
71 108 178
72 109 186
71 108 186
72 108 178
69 107 186
71 108 186
70 107 178
70 107 178
68 105 158
71 109 186
69 106 178
72 109 186
69 107 178
72 108 178
74 110 178
72 109 178
70 105 148
72 109 186
70 107 178
69 106 168
71 109 186
70 107 178
69 107 178
70 106 158
69 106 178
69 107 178
70 108 186
70 107 178
70 107 178
73 110 186
70 107 178
69 106 168
71 108 186
74 110 178
70 107 178
72 109 186
70 107 178
71 108 178
72 109 186
74 110 186
70 107 178
74 110 178
68 106 178
69 106 178
71 107 168
72 109 186
72 109 186
66 102 168
73 110 186
71 108 186
72 109 186
71 109 186
73 109 178
71 109 186
72 108 178
69 107 178
73 109 168
72 108 168
72 109 186
70 107 178
69 107 186
70 107 178
72 108 178
68 105 158
70 106 158
70 106 158
71 108 178
71 107 168
71 107 168
70 108 186
72 109 178
72 109 186
70 106 158
72 108 178
70 107 178
70 107 168
68 105 158
72 109 186
70 107 178
73 110 186
69 106 168
71 108 186
74 110 186
66 103 158
71 107 168
70 106 158
69 105 158
72 108 168
70 106 168
67 101 136
70 106 148
69 107 178
73 110 186
71 108 178
70 107 168
72 109 178
74 110 186
70 107 178
71 107 168
63 95 158
69 105 148
71 107 168
69 105 148
73 109 178
70 107 168
68 104 160
72 108 168
69 104 160
71 108 178
68 104 160
70 105 158
68 103 168
65 100 168
73 109 178
70 107 168
70 105 160
70 103 141
64 96 128
64 96 152
73 73 45
107 106 43
29 37 34
43 55 43
67 76 46
69 74 44
40 52 52
33 45 35
68 76 53
43 57 44
56 60 34
112 111 66
112 109 60
46 58 35
85 89 52
66 75 47
100 99 67
100 98 64
119 116 52
81 85 34
102 103 72
97 98 68
110 109 52
74 80 52
127 127 85
126 126 81
121 121 72
99 96 55
84 88 45
122 121 68
120 119 72
113 114 72
83 89 63
110 112 60
149 143 95
93 98 59
133 131 76
135 133 59
105 105 47
132 128 59
113 113 52
144 139 93
127 124 83
151 147 81
158 150 81
133 130 71
163 157 94
148 145 91
109 108 62
159 151 101
142 140 72
176 167 89
117 117 65
145 140 81
104 106 63
156 151 93
153 148 76
117 119 52
144 139 85
136 135 76
169 159 93
138 134 71
140 138 71
149 144 81
145 139 78
163 160 71
137 134 81
154 149 76
124 119 73
158 151 85
170 164 81
158 154 71
111 110 71
144 138 71
158 155 83
153 147 71
173 166 81
169 164 81
139 135 62
180 175 104
149 143 43
172 168 81
169 163 81
164 155 89
165 158 89
145 141 43
160 153 97
172 168 81
175 168 97
170 163 71
152 149 59
152 146 71
166 162 81
166 160 97
168 161 97
168 161 97
160 154 71
142 138 71
167 159 89
166 163 59
167 161 71
139 138 43
146 142 59
152 146 71
169 161 97
157 153 59
141 135 71
168 160 81
169 160 89
150 145 71
168 163 81
163 158 59
156 149 81
177 169 97
168 163 81
170 164 81
175 168 97
159 154 59
177 173 97
159 156 59
140 131 59
151 144 81
164 155 81
174 194 0
182 203 0
181 203 0
178 201 0
183 204 0
181 203 0
182 203 0
180 202 0
171 193 0
178 201 0
180 202 0
179 202 0
173 195 0
181 203 0
185 205 0
182 203 0
183 204 0
180 202 0
173 195 0
168 191 0
180 202 0
181 203 0
180 202 0
180 202 0
170 192 0
174 199 0
165 186 0
185 205 0
180 199 0
167 190 0
174 194 0
180 202 0
169 193 0
178 201 0
177 201 0
176 200 0
184 204 0
178 201 0
173 195 0
172 194 0
180 202 0
172 195 0
171 194 0
179 202 0
175 196 0
162 181 0
157 178 0
177 201 0
176 200 0
182 203 0
174 193 0
174 196 0
166 191 0
175 200 0
182 203 0
174 195 0
154 176 0
157 183 0
172 194 0
180 202 0
91 120 158
69 104 136
72 108 168
68 105 168
70 106 158
65 100 148
67 104 158
73 110 186
71 106 178
71 108 178
70 105 148
73 109 168
71 108 178
68 105 168
72 108 178
72 107 158
71 108 168
70 107 178
70 107 168
69 106 178
71 108 178
72 109 178
68 105 168
70 107 168
73 109 178
72 107 158
69 106 168
70 106 158
71 108 186
71 108 178
72 109 186
71 108 178
71 108 178
63 95 136
68 103 178
68 105 168
73 110 186
72 108 168
69 107 186
69 104 178
69 106 168
70 107 168
69 106 168
72 109 186
72 109 186
71 109 186
72 109 186
67 102 168
72 109 186
72 109 186
71 108 168
70 108 186
71 108 178
69 106 168
71 109 186
72 109 186
71 108 178
73 110 186
72 109 178
73 110 186
73 110 186
71 108 186
71 108 178
70 107 168
70 108 186
70 108 186
71 108 186
70 107 178
69 106 168
70 106 168
71 108 178
72 109 186
70 108 186
68 105 168
70 107 178
70 107 178
68 105 168
71 107 168
70 107 178
70 107 178
71 107 168
71 109 186
70 108 186
73 109 178
69 106 168
70 106 158
68 103 178
72 109 186
69 106 168
69 106 168
67 103 178
73 110 186
73 109 178
71 108 178
71 108 186
73 109 178
71 108 186
70 107 178
68 105 168
67 105 168
70 108 186
72 109 186
72 109 186
72 109 186
72 108 178
67 104 158
72 109 186
71 108 178
68 106 178
67 102 158
70 107 168
69 107 178
70 107 178
71 107 168
71 108 178
71 109 186
70 107 178
71 109 186
71 108 186
72 109 186
70 108 186
70 107 168
73 110 186
71 107 168
75 111 186
72 109 178
68 106 178
71 108 178
73 110 186
71 108 186
68 104 148
71 108 186
72 108 178
72 109 186
71 108 178
67 104 158
70 107 168
70 107 178
69 107 186
70 106 168
71 108 178
70 106 168
69 106 168
71 108 168
70 107 178
70 107 168
71 108 186
70 108 186
71 108 178
70 107 168
69 107 186
72 109 178
72 109 186
72 108 178
73 110 178
71 107 158
70 107 168
72 109 178
69 105 158
72 109 186
70 106 158
68 105 178
71 107 158
72 109 178
69 107 178
68 105 158
70 105 158
75 111 186
72 108 178
71 107 168
71 108 178
68 105 158
70 107 168
69 106 168
72 109 186
71 107 158
70 106 148
71 107 168
71 108 178
69 106 168
71 107 168
71 108 178
72 108 168
70 108 186
73 109 168
70 107 168
71 107 168
70 107 168
74 110 178
72 109 178
70 106 158
72 108 168
71 107 168
72 108 178
71 106 170
70 107 168
70 105 168
72 108 168
72 109 186
71 108 178
66 103 158
68 104 148
67 103 160
70 104 168
72 109 186
67 103 150
70 105 160
70 106 168
71 108 178
70 105 168
73 109 178
67 103 178
67 103 158
68 103 168
75 109 178
68 101 150
59 88 118
33 40 15
23 29 6
74 72 46
44 55 34
17 21 0
99 97 61
40 50 37
84 80 52
70 76 52
88 87 44
105 104 59
90 90 46
64 67 34
100 101 77
46 59 43
39 44 15
40 53 31
80 82 52
80 79 12
105 105 76
41 52 46
114 114 52
79 86 60
85 90 43
95 99 56
100 100 67
98 100 59
141 138 65
126 123 72
144 141 85
115 115 53
118 116 59
115 116 65
141 137 62
86 93 71
107 111 59
134 132 81
114 110 65
111 111 71
91 92 55
125 125 78
145 141 71
144 138 89
128 127 65
119 117 62
144 139 76
109 103 52
148 142 89
136 132 73
129 129 73
135 133 71
143 140 81
131 129 65
110 111 73
165 157 89
123 122 52
149 146 76
150 143 89
151 148 68
124 124 59
121 120 60
153 147 71
155 152 87
164 158 85
133 132 76
147 145 65
164 159 85
154 148 71
165 159 85
167 160 89
130 130 47
153 149 85
169 164 81
162 156 81
182 174 117
184 177 104
139 139 59
153 147 71
141 137 43
159 155 81
185 176 97
183 176 104
155 149 71
165 160 71
175 170 89
178 172 89
158 150 81
152 145 81
174 170 89
155 154 43
155 154 81
164 159 59
173 165 89
156 151 71
150 145 71
166 159 89
173 166 89
170 167 71
164 162 59
170 165 89
164 160 59
172 166 89
160 155 43
161 153 81
167 162 71
160 156 59
160 156 81
176 168 97
164 163 59
170 164 81
146 144 59
176 168 97
176 168 97
145 139 81
154 151 71
161 156 71
136 129 59
148 143 59
156 149 81
151 145 71
159 152 89
166 158 89
129 128 43
180 202 0
173 195 0
183 204 0
182 203 0
175 200 0
182 203 0
172 194 0
179 202 0
180 202 0
182 203 0
186 205 0
174 195 0
179 202 0
180 202 0
177 200 0
183 203 0
181 203 0
178 201 0
170 190 0
177 201 0
174 196 0
180 202 0
173 195 0
174 194 0
171 193 0
176 197 0
174 195 0
179 201 0
170 194 0
177 201 0
179 201 0
177 200 0
177 201 0
153 174 0
179 199 0
167 188 0
177 197 0
173 195 0
161 185 0
165 188 0
166 186 0
178 201 0
179 201 0
179 201 0
182 203 0
179 201 0
180 196 0
170 192 0
179 198 0
169 188 0
177 201 0
178 200 0
173 194 0
182 203 0
176 200 0
180 202 0
170 194 0
170 193 0
173 195 0
173 193 0
117 143 136
68 104 148
73 109 178
70 106 158
70 106 158
71 108 178
69 105 148
72 109 186
69 104 168
71 107 158
69 105 148
67 102 168
72 108 168
71 108 178
69 105 136
69 107 178
71 108 178
72 109 186
72 109 178
71 108 178
66 102 168
69 106 168
71 108 178
69 105 158
72 109 186
70 107 178
67 104 158
73 109 178
72 109 178
71 108 186
70 108 178
71 108 186
72 109 178
72 109 186
70 107 178
72 109 186
71 108 178
70 107 178
70 107 186
70 106 158
70 105 178
73 110 186
71 108 178
70 104 168
69 105 158
72 109 186
72 109 186
66 101 158
70 107 178
72 109 178
70 107 178
69 105 182
71 108 186
71 108 178
71 108 178
72 108 168
70 107 178
71 108 178
69 107 178
71 108 186
70 105 178
74 110 186
70 107 178
71 108 178
68 104 148
70 107 186
68 103 168
72 109 186
71 107 168
72 109 178
74 110 186
66 101 158
71 109 186
71 108 186
71 108 186
72 108 168
71 108 178
67 105 178
71 108 186
72 108 168
70 108 186
68 104 158
69 106 178
73 110 186
72 108 178
72 109 186
70 107 178
71 108 178
68 106 178
69 106 178
74 110 186
74 111 186
68 103 178
70 107 178
71 108 178
70 107 178
72 109 178
70 107 178
72 109 186
71 108 186
70 106 158
67 104 178
71 108 178
71 109 186
73 110 186
71 108 178
70 108 186
69 106 168
70 108 186
70 106 158
66 100 158
74 110 186
70 107 178
68 105 168
72 109 186
71 108 178
67 105 168
72 109 186
70 106 158
67 104 158
71 109 186
70 107 186
71 108 178
72 109 186
70 107 178
69 107 178
71 108 178
74 110 186
71 108 178
72 109 186
69 106 168
71 108 186
70 108 186
71 108 186
71 108 178
72 108 178
70 108 178
73 110 186
71 108 168
69 106 168
69 107 178
70 106 168
70 108 186
72 109 186
71 108 186
71 108 178
69 104 148
71 107 168
70 108 186
71 108 178
71 107 168
69 106 168
72 109 178
69 104 168
70 107 178
73 109 178
68 105 158
67 105 168
71 108 178
71 108 178
68 105 168
69 105 148
71 108 178
68 105 168
73 108 158
69 106 178
71 107 158
71 107 158
71 108 178
70 107 168
70 107 168
69 106 168
71 107 168
70 106 158
71 107 168
72 109 186
71 109 186
70 106 158
69 106 168
71 108 186
71 108 186
71 107 158
69 106 168
72 109 178
69 105 158
70 107 168
68 106 178
69 106 168
68 103 148
70 106 158
71 107 168
72 109 178
69 105 179
72 109 186
73 110 178
67 103 136
72 109 178
67 104 158
67 103 148
71 108 168
70 107 168
71 107 168
70 105 160
73 108 158
69 105 148
71 107 168
70 106 148
70 107 168
68 101 160
62 96 148
68 104 168
67 101 138
68 104 160
64 99 148
70 104 162
64 97 136
66 99 152
35 44 31
22 30 31
54 53 32
72 65 3
77 72 0
8 13 11
85 88 15
84 82 43
56 54 15
39 51 34
69 72 31
32 42 43
91 90 46
109 108 60
77 79 56
91 93 52
77 77 5
103 105 76
88 89 47
76 77 52
77 81 55
91 92 53
114 111 60
41 55 40
89 87 15
110 109 60
100 101 52
115 112 73
112 113 59
124 122 20
103 105 77
119 119 59
87 96 41
130 129 77
122 124 71
156 148 81
108 112 72
135 131 82
103 101 59
137 135 87
107 108 59
74 80 67
127 123 66
118 119 68
127 126 76
123 123 52
96 101 71
163 156 98
155 153 90
125 123 69
138 138 89
149 145 65
148 144 85
133 132 81
162 155 97
138 133 81
159 155 81
124 122 31
153 150 59
168 163 81
155 150 81
150 147 93
137 134 65
142 140 59
151 146 89
159 154 89
167 162 81
170 164 81
140 135 85
168 161 97
183 175 114
166 162 71
153 149 71
167 160 89
154 148 71
174 168 89
153 147 81
166 160 89
132 128 43
156 152 59
181 173 89
179 172 89
162 157 71
155 151 59
153 151 71
181 174 97
144 139 59
154 151 59
180 174 97
142 140 59
178 171 104
177 169 97
156 152 71
157 150 81
138 133 43
142 137 71
165 159 43
173 166 89
167 162 81
175 167 89
175 167 89
153 149 59
151 149 59
137 130 81
157 153 71
165 159 89
140 133 43
160 153 97
168 163 81
176 170 81
152 146 71
153 149 43
131 126 59
152 146 71
150 144 59
153 147 59
163 154 89
149 147 0
158 151 89
147 142 59
166 158 71
170 164 81
168 160 97
179 202 0
180 202 0
172 194 0
172 194 0
178 201 0
179 202 0
181 203 0
182 203 0
182 203 0
183 204 0
173 195 0
164 186 0
180 202 0
186 204 0
175 194 0
179 202 0
175 196 0
169 191 0
177 201 0
173 195 0
175 196 0
161 184 0
181 203 0
157 178 0
183 201 0
182 203 0
177 201 0
172 195 0
179 199 0
164 186 0
184 204 0
185 205 0
172 194 0
171 194 0
181 203 0
166 190 0
149 169 0
182 203 0
178 201 0
180 202 0
157 177 0
177 201 0
163 185 0
179 202 0
174 195 0
173 194 0
173 195 0
179 202 0
169 188 0
180 202 0
183 204 0
175 193 0
179 202 0
177 201 0
172 195 0
175 196 0
177 200 0
175 200 0
183 204 0
174 191 0
71 108 178
71 109 186
68 106 168
72 109 186
68 104 136
71 107 168
71 107 168
69 105 158
71 108 168
69 105 158
72 109 178
72 109 178
71 109 186
70 104 158
74 111 186
71 108 178
71 108 186
68 103 136
73 110 186
70 106 168
71 108 178
72 109 178
67 102 163
70 107 168
72 109 186
68 105 168
70 108 186
69 106 168
66 99 168
68 106 178
73 110 186
73 109 178
72 109 186
71 108 186
73 109 178
72 109 186
70 107 178
70 107 178
71 108 168
71 108 178
74 110 186
70 107 168
70 107 178
69 107 178
69 104 163
71 109 186
72 108 178
69 106 178
70 106 168
69 107 186
70 108 186
73 110 186
70 107 178
73 110 186
71 109 186
72 109 186
70 105 178
70 107 168
68 106 178
71 108 178
70 107 178
72 109 186
71 108 186
73 110 186
71 108 186
70 107 168
70 107 178
71 108 178
70 108 186
71 108 168
70 107 178
72 109 178
72 109 186
70 108 186
70 107 178
73 110 186
71 109 186
72 108 178
75 111 186
69 105 158
70 106 178
72 109 186
68 105 168
69 107 178
70 106 168
71 107 168
70 108 186
72 109 186
75 112 186
71 108 178
69 104 178
72 109 186
67 102 158
68 105 158
69 106 168
69 106 178
73 110 186
68 106 178
72 109 186
72 109 186
73 110 186
74 110 178
71 108 178
68 105 168
71 108 186
70 107 178
72 108 178
72 109 178
70 107 178
71 109 186
73 109 178
72 109 186
71 108 186
69 107 186
70 107 178
69 106 178
69 106 168
70 107 178
70 107 178
71 108 168
72 109 186
69 107 186
73 110 186
71 108 178
70 106 168
68 103 168
71 108 178
71 108 178
68 105 158
70 108 186
73 110 186
71 108 168
72 109 178
70 107 178
71 108 178
70 107 178
72 109 186
71 108 178
70 107 178
69 106 168
69 105 158
68 105 158
69 106 158
72 108 168
73 110 186
69 105 158
71 107 168
72 108 168
68 106 178
71 108 178
71 107 158
70 107 168
72 109 186
71 108 178
72 108 168
69 107 186
70 108 186
71 107 158
69 105 158
72 108 168
71 107 168
71 108 178
70 107 168
70 106 158
72 109 178
72 109 186
72 109 178
73 110 186
71 107 158
68 105 168
68 105 168
70 106 158
70 107 178
69 107 178
70 107 168
68 105 158
71 107 158
72 108 168
67 103 168
70 107 168
71 108 178
73 109 168
70 107 168
70 106 158
73 109 178
72 109 186
72 109 186
71 108 168
72 109 186
71 108 178
69 105 158
67 103 168
73 108 178
69 105 158
72 109 178
71 107 168
72 107 170
73 110 186
64 99 160
75 111 178
71 105 150
70 106 158
67 101 152
68 105 158
67 103 178
70 107 178
69 105 160
69 107 178
73 109 178
70 106 168
70 104 150
69 103 162
66 100 152
71 105 162
64 98 125
70 104 168
64 97 149
41 57 65
77 80 32
74 73 43
89 90 20
99 98 59
39 47 21
62 58 18
29 35 21
97 96 53
90 86 46
95 97 55
66 74 45
78 83 46
82 86 58
96 96 53
91 92 53
41 55 31
121 122 71
81 84 31
94 94 53
99 103 65
134 131 72
71 79 55
102 103 65
106 99 43
94 99 65
142 141 52
92 92 52
67 74 43
92 99 71
143 139 93
126 121 77
101 101 59
120 119 65
119 119 31
117 118 82
105 109 57
78 78 59
128 129 60
148 142 81
136 133 71
125 127 68
139 136 65
89 95 62
125 120 47
152 147 81
163 155 90
122 122 81
157 150 101
127 126 65
127 126 68
135 134 81
127 127 43
99 104 68
116 112 83
146 140 62
151 148 83
113 112 43
143 139 89
128 128 87
145 141 76
143 139 93
121 120 71
142 138 59
134 132 71
164 159 81
162 157 89
158 154 97
168 163 81
164 157 89
159 156 81
158 155 59
151 147 78
162 156 81
168 160 97
150 148 59
156 152 62
153 150 59
149 144 59
181 173 89
160 157 59
174 167 97
171 161 104
156 149 81
160 156 81
159 152 89
173 168 71
165 158 89
178 171 81
143 138 81
146 141 43
152 148 59
165 160 59
163 158 81
156 149 71
146 142 59
160 155 81
168 163 81
185 177 104
179 170 89
176 167 89
171 166 71
159 153 81
180 173 89
177 169 97
159 156 43
168 163 81
172 165 89
159 155 59
162 158 71
144 141 59
152 147 71
169 165 59
163 160 59
169 163 81
153 149 59
145 140 43
151 144 59
151 146 71
158 153 71
159 157 59
152 146 71
128 120 59
177 201 0
172 195 0
177 201 0
169 193 0
169 193 0
180 202 0
181 203 0
171 193 0
177 200 0
178 201 0
178 201 0
180 202 0
167 188 0
176 196 0
177 201 0
168 192 0
177 201 0
181 203 0
167 192 0
186 205 0
176 200 0
179 202 0
174 195 0
174 196 0
186 205 0
178 201 0
179 199 0
161 182 0
169 192 0
180 202 0
177 200 0
166 186 0
160 180 0
183 204 0
174 194 0
163 186 0
176 200 0
177 197 0
179 198 0
163 186 0
177 201 0
171 193 0
174 194 0
180 202 0
176 197 0
164 183 0
168 191 0
171 192 0
169 192 0
181 203 0
177 201 0
164 186 0
181 202 0
178 201 0
176 200 0
173 194 0
184 204 0
172 194 0
173 195 0
153 177 65
71 108 168
66 101 136
68 103 168
70 106 168
67 103 148
66 102 158
67 104 158
70 106 158
71 107 168
72 107 158
69 105 158
70 106 158
68 105 158
69 106 158
68 105 168
71 108 168
70 106 168
73 109 178
72 109 186
70 107 186
68 105 168
70 107 168
69 106 178
70 107 168
67 104 158
70 106 158
71 107 158
70 107 186
67 104 168
68 104 168
70 107 178
69 107 178
73 110 186
72 109 186
73 109 178
68 103 178
70 106 168
71 107 168
70 106 158
71 108 178
70 107 178
71 107 168
72 109 186
71 107 168
70 107 186
70 107 178
73 110 186
70 106 158
67 102 158
69 107 178
66 103 182
73 110 186
70 107 186
69 107 178
73 110 186
72 109 178
71 109 186
67 103 178
68 104 148
72 109 186
72 108 168
71 108 178
68 106 178
70 107 168
70 106 158
73 109 178
72 108 168
68 105 168
73 110 186
71 106 158
73 110 186
69 107 186
72 109 178
72 109 186
68 105 168
71 107 168
72 109 186
70 108 186
69 107 178
68 105 158
70 108 186
69 104 168
73 110 186
72 109 186
71 108 178
69 106 168
71 109 186
71 108 186
70 108 186
71 108 178
72 108 178
71 109 186
71 107 168
67 102 158
70 107 178
72 109 186
73 109 178
70 107 178
71 107 168
69 106 168
72 108 178
69 107 178
71 109 186
72 108 178
71 108 178
67 103 173
70 108 186
70 106 158
71 108 186
71 108 186
72 109 186
70 108 186
69 106 168
72 109 178
70 108 186
71 108 178
70 107 168
71 108 178
71 108 178
72 109 186
68 105 168
71 108 178
72 108 178
72 109 186
70 107 178
70 107 186
71 108 178
70 107 178
70 107 168
72 109 186
72 108 178
69 106 178
70 107 178
73 110 186
70 107 178
68 105 158
69 106 178
73 109 178
71 107 168
71 108 178
72 109 178
72 109 186
71 108 168
70 107 178
70 107 178
70 107 168
68 106 168
69 106 178
72 109 186
71 107 168
69 106 168
71 108 168
72 109 186
72 108 178
67 105 168
69 106 168
70 107 178
71 108 186
73 110 186
68 105 168
71 107 158
72 108 168
72 109 178
71 108 168
73 109 178
67 105 168
71 108 178
70 106 158
71 108 178
70 108 186
68 104 148
72 109 186
69 106 168
72 108 168
69 106 158
69 106 168
70 106 158
71 107 168
74 111 186
73 109 178
71 107 168
72 108 178
69 105 158
72 108 178
70 107 178
73 110 186
70 104 170
69 105 170
69 106 168
66 101 158
70 106 168
69 106 168
69 106 168
71 108 186
72 109 178
71 108 178
69 105 158
69 106 168
68 104 158
74 110 186
74 110 178
74 110 178
74 111 186
72 109 178
68 104 158
70 106 170
69 106 158
69 106 178
71 108 168
71 106 170
69 103 148
72 109 186
70 105 150
68 100 125
67 102 168
69 102 160
65 99 168
71 83 76
31 37 20
35 43 34
78 80 55
37 51 0
60 54 0
41 51 21
35 48 15
62 69 18
68 76 15
77 78 45
95 89 59
100 99 67
81 86 59
85 91 66
107 105 45
53 67 55
88 96 46
95 100 61
77 82 53
109 107 65
112 110 68
71 82 57
110 112 66
73 75 52
116 114 66
137 134 65
78 79 58
104 102 55
107 109 52
72 76 0
125 120 71
84 90 65
88 91 43
135 133 71
128 124 68
118 114 59
68 75 43
135 133 47
146 143 91
106 107 53
120 119 63
97 100 0
104 104 48
143 139 76
121 117 53
150 145 81
135 133 76
123 126 43
127 127 59
111 112 68
127 126 65
166 162 71
156 151 87
146 143 71
141 137 71
111 114 52
159 156 81
139 136 71
142 138 71
160 156 81
156 154 73
103 105 62
171 165 85
150 142 71
160 152 91
161 150 91
159 156 44
138 137 65
162 156 85
138 132 76
150 146 71
170 162 76
163 156 81
174 166 89
147 143 62
157 153 71
165 157 81
168 163 89
156 155 43
165 160 59
166 161 71
164 160 71
164 160 71
157 152 71
170 165 89
167 161 97
159 155 81
179 173 89
174 167 89
180 170 97
164 159 81
165 158 89
162 156 81
169 161 97
170 164 81
138 137 43
160 155 81
178 171 81
175 166 97
144 139 43
145 143 43
170 162 97
162 156 81
166 161 71
174 169 81
157 152 71
143 138 59
167 162 81
145 138 71
173 165 81
151 144 59
157 152 71
149 145 71
162 158 59
146 140 43
157 153 71
155 147 71
148 145 71
144 137 59
140 135 59
142 139 43
167 162 81
179 202 0
177 200 0
179 202 0
178 201 0
169 193 0
185 205 0
184 204 0
179 202 0
185 205 0
178 201 0
178 201 0
168 192 0
180 202 0
181 203 0
163 186 0
178 201 0
178 201 0
184 204 0
184 205 0
178 198 0
177 201 0
174 194 0
177 197 0
179 198 0
180 202 0
177 197 0
181 203 0
179 202 0
173 195 0
171 194 0
174 195 0
175 196 0
179 202 0
182 203 0
169 193 0
179 202 0
162 186 0
184 204 0
174 194 0
169 193 0
156 178 0
152 172 0
175 196 0
184 204 0
173 193 0
178 201 0
164 185 0
183 204 0
174 194 0
173 195 0
180 202 0
175 195 0
180 199 0
174 196 0
171 194 0
181 203 0
166 187 0
173 193 0
166 188 0
171 194 0
71 107 158
72 107 148
70 107 168
71 107 158
70 104 168
72 109 178
72 108 158
70 106 158
71 107 158
70 106 168
67 104 158
67 102 158
71 107 168
68 105 158
70 107 168
68 106 178
72 109 186
69 106 158
70 106 168
69 105 158
70 107 168
65 99 148
71 107 168
70 107 178
71 109 186
70 107 168
71 107 158
71 109 186
71 108 186
71 108 178
70 107 178
71 108 178
70 107 178
69 106 168
72 109 186
71 108 186
69 107 178
72 109 186
71 108 168
73 110 186
72 109 186
72 109 186
71 108 178
71 109 186
70 107 178
70 108 186
65 101 168
69 105 178
71 108 186
71 108 168
69 107 186
70 107 178
68 105 168
70 107 178
70 107 178
69 106 178
71 108 178
71 107 168
71 107 168
66 101 158
71 108 168
71 108 178
70 107 178
72 109 186
71 108 186
72 109 186
69 106 178
68 105 158
71 108 178
71 107 168
72 109 186
70 107 186
69 107 186
69 107 178
72 109 186
70 107 178
73 109 178
68 106 178
68 105 168
72 109 178
69 105 158
71 108 178
72 109 186
70 107 178
70 107 186
69 104 158
73 110 186
70 106 168
71 109 186
72 109 186
70 107 168
72 109 186
71 108 178
72 108 178
69 105 158
70 106 158
69 106 168
70 107 186
71 108 178
71 108 178
71 108 178
71 108 186
71 108 178
71 109 186
73 109 178
71 107 168
70 107 168
69 105 158
72 109 178
70 107 178
72 109 186
70 107 178
73 110 186
71 108 178
72 109 178
69 106 178
69 106 168
71 108 178
70 106 168
72 108 168
70 108 178
72 109 186
70 106 168
68 105 168
69 107 186
71 108 178
70 107 178
71 107 168
70 107 178
70 108 186
70 107 178
72 108 178
69 107 186
71 108 178
72 108 178
70 107 178
73 110 186
69 106 178
72 109 186
70 107 168
72 109 186
66 102 168
70 107 178
70 107 178
71 107 168
70 107 178
71 108 178
70 106 168
71 109 186
71 108 186
69 105 158
71 108 178
71 108 186
71 108 186
71 108 186
72 109 186
70 106 158
70 107 178
71 108 178
67 104 158
68 104 148
70 108 178
70 107 178
71 107 168
70 106 168
69 105 158
72 108 168
73 109 178
70 106 168
72 109 186
71 107 168
68 104 148
69 107 178
73 109 168
69 106 168
71 107 158
71 108 168
72 109 186
71 108 178
69 105 148
71 108 186
71 107 168
74 110 178
69 105 148
69 106 168
69 104 168
70 106 158
69 106 168
71 108 168
73 110 186
68 105 158
72 107 168
71 106 170
69 105 178
71 108 178
71 108 168
71 108 178
69 104 158
71 107 168
71 108 178
71 108 168
72 108 168
72 109 186
71 107 168
69 106 168
71 107 179
66 102 138
63 97 159
71 107 168
70 107 168
69 104 150
68 101 93
69 105 158
71 108 168
69 104 160
71 105 162
61 93 108
71 90 108
51 51 43
64 65 32
71 76 46
97 90 59
37 50 26
34 46 31
34 43 20
71 69 45
105 102 53
101 97 62
93 94 46
45 59 53
102 105 59
68 67 15
70 79 37
120 119 68
74 76 59
117 116 45
92 89 45
104 104 52
128 128 85
88 84 53
106 106 54
111 109 65
78 82 66
141 136 67
108 109 59
94 93 55
112 111 52
119 119 86
124 123 72
88 93 45
88 93 47
77 80 52
94 95 45
122 123 71
124 124 71
149 145 89
74 81 31
134 129 71
122 122 43
137 133 77
113 107 68
138 133 76
129 125 76
138 136 73
142 139 71
121 117 53
134 128 43
136 133 76
149 143 85
133 133 43
136 135 76
163 155 97
157 153 71
124 122 77
126 123 62
157 151 85
154 147 89
126 127 52
143 139 71
158 155 76
148 144 43
154 148 71
148 145 71
155 149 59
154 147 71
155 150 89
151 148 71
147 140 71
140 134 73
135 130 59
164 157 81
169 164 71
150 147 44
172 162 97
149 144 43
164 158 91
155 152 59
173 165 81
181 174 97
159 155 81
178 172 97
176 170 81
173 169 81
180 171 104
168 163 81
160 154 71
148 136 71
153 146 71
161 155 81
166 161 71
177 169 97
183 176 104
160 152 89
166 162 71
166 162 81
172 166 89
162 157 81
179 170 97
155 151 59
175 167 89
149 143 59
150 145 71
172 166 81
162 155 71
148 144 59
169 164 89
148 142 71
154 143 71
156 151 59
122 122 0
154 149 89
157 155 43
158 153 71
162 156 81
155 151 59
158 151 71
134 128 71
136 133 43
143 138 59
151 149 59
181 203 0
184 204 0
179 202 0
173 195 0
178 201 0
179 201 0
180 202 0
177 201 0
162 186 0
181 203 0
169 193 0
176 200 0
186 205 0
179 201 0
180 199 0
182 203 0
180 202 0
173 194 0
182 203 0
164 186 0
178 201 0
173 195 0
170 193 0
182 200 0
178 201 0
180 202 0
170 193 0
172 193 0
163 186 0
178 201 0
171 194 0
174 195 0
175 193 0
174 195 0
182 203 0
165 185 0
178 201 0
182 203 0
171 193 0
177 201 0
183 204 0
182 203 0
178 201 0
174 195 0
177 201 0
180 202 0
161 184 0
169 193 0
171 189 0
169 193 0
173 195 0
176 195 0
179 199 0
153 173 0
165 187 0
175 196 0
165 187 0
167 191 0
176 196 0
156 177 65
74 110 178
68 104 148
69 106 168
66 100 136
73 110 186
64 100 148
70 106 168
72 109 186
71 107 168
70 107 168
70 107 168
70 107 168
70 108 186
66 103 158
72 108 178
66 101 148
69 106 168
70 106 158
69 107 186
72 109 186
70 107 178
69 105 158
73 110 186
73 110 186
69 106 168
65 102 148
71 108 178
73 110 186
69 106 178
66 101 158
67 104 158
70 106 148
70 107 178
70 107 168
69 106 168
71 109 186
71 108 186
72 109 186
72 108 168
72 109 186
68 103 178
69 106 168
68 105 158
70 108 186
67 103 168
68 103 168
70 108 186
71 108 178
69 106 158
72 109 178
74 110 186
73 110 186
70 106 168
71 108 178
70 108 186
70 108 186
70 108 186
73 110 186
71 108 178
71 108 186
70 108 186
71 108 178
71 109 186
70 107 178
70 108 186
71 108 186
71 109 186
68 105 168
70 108 186
71 108 178
70 107 178
70 107 178
71 108 186
71 108 186
69 107 186
70 106 168
69 106 178
73 109 178
67 103 178
70 106 168
73 110 186
71 108 186
72 109 178
71 109 186
73 110 186
69 106 168
72 109 186
72 109 186
73 110 186
67 105 178
69 107 178
71 108 178
75 111 186
68 106 186
69 107 178
69 107 178
69 106 178
68 106 178
70 108 186
70 107 178
69 104 178
70 107 178
68 105 168
72 108 178
71 108 186
71 107 168
75 111 186
71 108 178
70 108 186
69 106 168
71 109 186
68 105 168
72 109 186
68 106 178
72 109 178
67 103 168
72 109 186
72 109 186
68 105 168
70 107 178
69 106 168
70 107 178
70 107 186
71 108 178
74 110 186
72 108 168
70 107 168
69 106 168
72 109 186
73 110 186
71 108 178
70 107 168
72 109 186
70 107 178
71 108 178
68 105 168
71 108 178
69 106 168
74 111 186
70 107 178
69 106 158
71 108 178
70 107 186
67 105 168
72 109 186
71 107 168
72 109 186
68 105 178
72 108 168
72 108 178
73 110 186
70 107 178
71 108 186
70 108 186
71 108 178
71 108 178
70 105 148
71 108 186
71 108 178
69 107 186
67 104 148
69 106 168
69 105 158
73 110 186
72 108 178
73 109 178
69 107 178
71 107 158
70 106 158
70 107 168
72 107 158
70 107 178
69 106 168
71 109 186
70 107 178
71 108 168
72 108 168
72 108 178
67 105 168
66 102 168
73 110 186
68 105 168
71 108 178
70 106 158
70 107 168
72 109 186
71 108 178
71 108 178
72 109 178
71 108 178
72 108 178
71 108 168
70 106 168
69 106 158
71 108 178
70 107 168
70 107 178
64 99 148
72 109 186
70 106 168
72 109 178
70 105 170
74 110 178
67 104 158
73 110 178
67 101 150
67 104 158
68 100 162
70 106 158
71 107 168
69 106 158
70 105 158
70 105 148
70 105 160
65 96 138
69 104 168
70 104 160
41 63 92
75 72 45
29 37 18
37 48 18
41 52 31
77 79 35
128 120 76
46 60 34
36 50 31
43 57 52
75 76 59
96 102 52
70 68 45
73 69 15
113 112 43
134 130 60
118 117 52
70 72 0
110 114 0
44 60 44
140 135 86
103 107 81
97 99 71
94 94 43
62 70 23
90 91 52
112 113 65
106 104 55
96 98 43
112 111 65
102 98 43
129 131 65
144 142 59
91 95 59
106 106 59
116 116 76
107 109 55
146 143 52
143 141 76
117 117 52
123 122 66
119 117 59
125 125 52
134 132 71
130 125 76
116 114 59
161 157 97
112 115 43
156 148 81
122 121 59
105 104 59
144 141 76
127 125 71
139 136 85
144 140 76
154 149 76
145 141 47
149 147 89
167 161 81
86 89 37
155 154 71
144 141 81
160 152 81
133 127 81
136 135 81
105 108 0
134 130 59
175 167 81
135 133 62
151 146 59
156 150 83
147 141 59
170 163 81
157 153 73
157 154 71
156 149 81
179 171 104
162 155 71
160 153 81
153 150 59
147 143 59
177 169 97
176 168 81
175 169 71
171 164 81
173 166 89
176 166 104
157 153 71
162 152 89
158 152 71
152 147 81
172 166 81
171 166 81
177 170 71
162 157 81
154 150 59
149 145 59
173 166 89
146 142 59
171 164 81
155 148 81
156 151 59
146 144 43
151 149 59
168 163 81
150 148 59
169 163 71
160 151 71
164 160 71
145 139 59
153 148 81
160 155 81
138 135 71
148 143 59
154 145 81
146 140 71
164 159 59
133 126 59
161 154 71
158 153 71
159 150 59
130 125 59
163 158 59
184 204 0
184 204 0
180 202 0
173 194 0
178 197 0
164 187 0
174 197 0
172 194 0
179 202 0
168 193 0
183 204 0
177 201 0
180 202 0
181 202 0
181 203 0
172 193 0
174 196 0
183 204 0
183 204 0
176 196 0
173 193 0
179 199 0
169 189 0
164 185 0
166 187 0
182 203 0
173 195 0
181 202 0
183 204 0
163 186 0
180 202 0
179 199 0
173 195 0
163 185 0
175 199 0
162 184 0
163 185 0
176 196 0
176 195 0
181 203 0
179 202 0
180 202 0
166 187 0
183 204 0
171 194 0
170 192 0
180 202 0
181 203 0
174 195 0
168 189 0
174 195 0
184 204 0
171 193 0
174 196 0
178 201 0
173 195 0
179 201 0
160 178 0
175 196 0
138 161 89
70 105 148
69 105 158
70 107 168
70 105 136
70 106 148
68 104 168
71 108 178
72 109 178
67 102 158
69 104 136
67 102 158
73 109 178
70 106 158
70 107 168
66 101 158
71 108 178
70 106 158
70 108 186
70 107 168
69 107 178
72 109 178
69 106 168
67 103 168
73 109 178
68 103 168
71 108 178
72 109 186
70 107 168
72 108 168
70 108 186
69 106 168
69 106 178
69 106 178
69 105 158
71 108 178
70 108 186
68 104 178
67 105 178
71 108 168
71 108 178
70 107 178
72 108 178
70 106 168
72 109 186
71 108 186
72 109 186
72 109 186
71 107 168
72 108 178
72 109 186
72 109 178
69 107 186
70 107 168
73 109 178
70 106 168
69 106 168
68 105 158
70 105 178
71 108 178
69 107 178
72 109 186
68 104 158
72 109 186
69 106 168
73 109 178
71 108 178
71 108 186
68 105 168
71 107 158
70 107 168
72 109 186
69 107 178
69 107 186
66 102 178
69 106 178
71 107 168
71 107 168
68 105 168
70 108 186
68 105 168
71 108 186
72 108 178
72 109 186
70 107 178
70 106 168
72 108 178
73 110 178
70 107 178
72 109 178
72 109 178
70 107 178
71 108 186
69 105 158
71 108 186
70 107 168
70 107 168
70 108 186
71 108 178
71 109 186
71 109 186
72 109 178
70 108 186
74 110 178
68 105 178
70 106 168
71 107 168
71 108 178
72 109 178
73 110 186
72 109 178
70 107 178
73 110 186
74 109 168
70 107 168
71 108 186
68 106 178
70 107 168
69 106 168
70 107 178
69 106 168
71 108 186
72 109 186
69 106 168
70 107 178
72 109 186
71 108 178
71 109 186
67 104 158
71 107 168
70 107 178
71 108 186
71 109 186
70 107 168
73 110 186
70 107 168
70 107 168
69 107 178
71 109 186
70 104 168
73 110 186
71 108 186
70 106 158
71 108 178
70 107 178
72 109 186
73 109 178
73 109 178
72 109 186
70 108 186
70 107 168
70 107 178
73 110 186
68 104 148
71 108 178
69 106 168
69 104 158
72 109 186
70 106 168
71 108 178
70 108 186
72 108 178
72 108 168
71 108 186
72 108 168
73 110 178
71 107 158
69 106 168
74 110 178
71 109 186
71 107 168
73 110 178
73 110 186
72 109 186
70 107 168
68 104 178
72 108 168
71 108 178
72 109 178
70 106 148
72 109 178
72 109 186
72 109 186
71 108 168
70 106 158
72 109 178
72 109 178
71 107 158
72 109 178
70 107 168
71 108 178
68 106 178
70 108 186
71 108 178
73 109 168
70 106 168
70 107 178
70 106 168
69 105 158
69 104 158
72 108 168
67 101 148
65 99 158
68 104 148
68 101 160
71 107 179
72 109 186
71 108 178
73 109 178
71 107 158
64 97 148
71 108 178
70 108 186
69 105 148
71 108 178
72 108 168
67 99 152
63 95 150
67 97 148
66 69 43
41 49 34
77 77 54
35 48 43
61 63 15
27 37 5
113 106 59
42 53 15
114 112 68
46 60 53
93 98 47
86 92 52
29 42 11
111 111 65
66 66 0
85 94 52
60 66 32
91 93 52
108 106 55
99 98 60
68 70 15
81 87 47
108 110 60
98 97 59
138 132 76
144 141 81
92 95 45
106 110 52
111 111 65
116 119 63
111 110 52
111 112 60
75 84 0
137 132 76
141 136 81
119 117 72
126 120 71
123 122 72
143 135 76
157 147 87
125 125 68
109 112 59
129 131 71
123 119 65
132 128 65
106 108 31
137 136 81
120 121 52
165 161 71
137 136 68
151 147 65
148 144 71
113 113 59
130 129 60
158 156 76
142 137 71
147 139 81
120 120 73
132 129 65
123 120 71
139 134 73
166 158 95
150 148 47
145 140 76
140 138 73
157 150 71
168 160 91
160 154 71
157 155 43
163 157 83
171 164 93
124 123 55
162 156 81
131 129 59
175 166 97
156 154 81
152 143 83
180 171 97
157 148 71
165 159 89
153 150 59
176 170 81
169 163 59
153 150 59
170 164 81
161 154 59
139 135 59
158 150 81
162 158 71
168 162 59
174 167 89
153 151 43
182 176 104
158 151 81
171 164 81
146 141 81
175 167 89
187 178 104
154 150 59
170 165 89
162 157 43
160 157 59
149 142 81
171 161 89
151 145 71
159 154 71
125 123 43
137 131 81
158 153 71
162 156 71
153 150 59
165 161 43
168 163 81
143 140 0
141 135 59
169 162 71
141 139 59
163 159 59
166 161 71
168 163 59
166 156 89
150 144 71
185 205 0
177 200 0
180 199 0
170 194 0
179 202 0
173 195 0
179 202 0
168 192 0
169 192 0
182 200 0
183 204 0
184 204 0
175 196 0
187 206 0
181 203 0
175 199 0
181 202 0
180 202 0
175 196 0
175 200 0
169 192 0
166 184 0
179 201 0
184 204 0
177 201 0
171 193 0
181 203 0
185 205 0
184 204 0
180 202 0
171 194 0
173 195 0
178 201 0
183 204 0
176 200 0
165 187 0
170 194 0
174 196 0
174 195 0
177 198 0
172 195 0
173 195 0
177 200 0
176 200 0
178 201 0
179 199 0
167 189 0
176 200 0
163 186 0
176 193 0
167 191 0
179 202 0
183 204 0
165 186 0
181 203 0
181 203 0
178 197 0
171 194 0
181 203 0
97 127 136
68 105 158
72 109 186
73 109 178
71 107 168
72 108 168
68 104 136
66 103 148
70 106 158
69 105 148
70 106 158
69 105 158
72 109 178
72 108 178
72 109 178
69 106 168
67 102 158
66 102 168
72 109 178
70 106 148
70 106 158
68 105 158
70 107 178
68 105 168
70 106 158
70 107 168
69 106 168
70 107 168
70 107 178
73 110 186
69 106 178
74 110 186
68 103 168
71 107 168
72 109 186
72 109 186
70 107 168
64 100 158
68 104 148
71 108 178
74 110 178
72 109 186
70 106 158
74 110 178
73 110 186
71 108 178
69 106 168
69 105 158
70 107 178
72 108 178
71 107 168
71 108 178
73 110 186
72 109 186
71 109 186
71 109 186
70 107 178
70 108 186
69 107 186
69 107 178
71 108 178
70 108 186
69 106 168
68 103 168
70 107 178
69 107 178
72 109 186
72 108 178
71 108 178
72 109 186
69 106 178
72 109 186
70 107 178
69 106 158
71 108 178
72 109 186
71 109 186
68 103 168
76 112 186
71 108 178
71 108 178
70 107 168
70 108 186
72 109 186
69 106 178
69 106 168
70 108 186
68 104 178
73 110 178
71 108 178
70 107 178
74 111 186
70 107 178
70 108 186
69 107 178
70 106 158
69 106 158
71 108 178
70 108 186
67 104 168
71 108 178
71 108 186
70 107 178
70 108 186
70 107 168
71 108 178
73 110 186
72 108 178
70 107 168
71 108 178
73 110 186
71 108 178
73 110 186
68 105 168
72 109 186
67 102 168
69 106 168
71 108 186
74 111 186
71 108 178
73 110 178
69 106 178
71 107 168
69 106 178
71 108 178
70 107 178
73 109 178
69 105 158
72 109 178
71 107 168
70 108 186
71 108 178
69 106 168
75 111 178
71 108 178
71 108 186
70 108 186
69 107 178
75 112 186
69 105 148
71 108 178
69 107 186
72 107 158
71 108 178
69 105 158
71 108 178
72 109 186
72 109 178
73 110 186
71 108 178
72 109 186
71 108 178
67 103 148
69 106 168
70 107 168
70 106 158
74 111 186
73 110 186
74 110 186
68 104 168
71 108 178
71 108 178
71 107 168
71 107 158
70 108 186
72 109 186
71 107 158
72 109 178
71 108 178
72 109 186
71 109 186
69 107 178
69 105 148
72 109 178
69 106 168
71 108 178
70 107 178
70 107 168
70 107 168
69 106 168
73 108 168
73 110 186
70 106 168
67 102 158
70 107 178
71 107 168
69 106 168
71 108 186
69 105 178
70 108 178
68 103 150
71 108 168
71 108 178
63 97 123
72 108 168
69 105 148
70 106 158
71 108 178
69 105 148
70 105 160
69 104 136
68 102 158
67 103 178
72 109 178
72 107 158
73 109 178
70 105 160
64 100 148
67 101 160
72 108 168
71 105 150
68 102 168
69 105 170
69 103 152
73 108 170
70 104 170
67 102 138
67 102 162
64 98 150
34 44 0
83 86 15
64 65 31
72 74 43
36 48 32
88 82 49
38 49 36
69 76 35
32 40 34
83 84 26
69 73 34
114 110 61
113 109 69
113 111 65
46 57 46
77 78 59
79 83 53
70 67 43
40 53 31
96 101 71
78 80 59
100 99 44
105 107 11
84 79 45
125 122 66
101 100 44
88 91 43
63 71 31
121 113 65
86 84 59
84 82 49
92 94 45
115 115 76
134 134 52
101 102 47
87 89 37
145 142 81
152 146 85
132 128 81
137 129 72
92 95 52
112 113 71
118 119 60
117 114 77
136 135 55
134 133 78
106 106 11
142 138 72
151 147 71
142 136 86
139 135 83
145 140 71
133 127 71
126 125 52
133 131 76
151 147 76
133 134 76
134 131 52
127 123 59
135 131 65
146 139 71
160 156 78
143 137 71
136 133 71
87 89 52
157 150 89
134 135 52
137 131 43
182 174 89
139 132 71
156 151 87
133 132 43
153 147 81
151 146 71
157 154 71
141 136 59
166 160 89
152 148 43
160 157 43
174 166 89
171 166 81
163 160 71
154 149 81
173 169 81
175 170 81
174 169 81
147 145 59
168 162 71
160 155 81
149 148 59
166 158 71
159 155 71
151 147 43
179 173 89
167 159 89
138 132 59
174 168 71
168 163 43
155 148 81
153 147 81
151 146 81
163 158 59
147 140 59
165 157 97
157 155 43
163 157 81
150 147 71
149 145 71
173 163 89
167 161 71
134 130 43
152 146 71
154 148 59
175 170 89
145 145 43
129 125 43
138 136 0
150 147 59
100 99 0
157 152 43
145 138 59
152 145 59
180 202 0
164 186 0
178 201 0
169 193 0
164 185 0
174 199 0
169 193 0
174 199 0
168 192 0
177 201 0
179 202 0
168 189 0
164 185 0
172 193 0
180 202 0
171 194 0
178 201 0
179 201 0
181 203 0
174 194 0
182 203 0
183 204 0
178 201 0
177 200 0
176 200 0
178 201 0
154 172 0
170 193 0
177 201 0
164 185 0
179 201 0
164 186 0
166 191 0
173 195 0
164 186 0
178 201 0
174 195 0
181 202 0
181 202 0
165 186 0
179 202 0
180 202 0
170 193 0
169 188 0
179 202 0
187 206 0
183 204 0
173 194 0
183 204 0
173 195 0
162 185 0
167 188 0
172 194 0
180 199 0
173 195 0
171 194 0
171 194 0
176 196 0
177 201 0
107 134 148
70 105 148
71 107 158
70 106 168
71 107 168
70 107 168
70 106 158
71 108 168
71 108 178
70 107 178
69 104 178
71 107 168
67 104 168
72 108 168
71 108 178
72 109 186
69 106 168
72 109 178
67 102 163
67 101 148
65 101 168
68 103 168
70 106 148
70 107 178
71 107 168
72 108 178
72 109 186
74 109 168
72 108 168
70 107 178
70 107 168
70 107 178
69 103 168
72 109 186
72 109 186
73 109 178
71 108 178
71 108 186
68 106 186
68 105 168
71 108 178
70 107 178
70 107 178
67 103 178
70 107 168
69 105 158
70 106 178
74 111 186
71 108 186
70 108 186
68 104 158
71 108 178
71 109 186
71 108 186
72 109 186
72 109 186
71 108 178
68 106 178
72 109 186
72 109 178
70 106 168
70 107 168
72 109 186
71 108 178
73 110 186
72 109 186
71 107 168
71 108 178
73 110 186
71 108 178
71 108 186
70 107 168
71 107 168
69 107 178
69 107 178
72 109 186
71 108 186
70 107 186
70 107 178
70 107 178
71 107 168
68 107 186
72 108 168
70 107 168
71 108 186
72 109 186
73 109 178
69 106 168
69 106 168
71 108 178
73 110 186
70 107 178
67 105 168
70 107 178
72 108 178
73 109 178
70 108 186
69 107 178
72 109 186
72 109 178
69 106 178
72 108 168
71 109 186
71 108 178
68 104 148
72 109 186
70 107 178
71 108 186
70 107 168
68 105 168
71 108 178
70 108 186
75 111 178
68 105 168
73 109 178
71 108 178
69 106 168
71 108 186
70 107 168
70 107 178
72 109 186
71 108 186
72 108 178
68 106 178
71 107 168
74 111 186
71 108 186
71 108 178
70 106 158
69 107 178
69 105 158
69 106 168
68 106 178
71 107 168
71 108 186
71 108 178
69 105 158
67 103 178
72 109 178
70 107 178
71 107 168
69 107 178
73 109 178
69 107 178
69 105 158
70 105 148
70 107 168
70 108 186
70 107 178
71 108 178
70 107 168
72 108 178
71 107 168
67 104 168
70 108 178
72 109 178
68 103 136
68 105 168
71 108 186
71 107 158
70 107 178
72 108 178
70 106 158
73 109 178
71 108 178
69 106 168
71 108 186
67 103 168
74 110 178
68 103 168
72 109 186
67 104 178
72 109 178
73 110 186
69 105 148
69 105 148
65 101 123
70 106 158
73 109 168
71 108 168
71 108 178
69 106 168
67 102 138
69 106 158
69 105 148
74 110 178
72 108 178
69 105 148
70 107 178
70 106 158
72 109 186
69 105 178
71 108 178
71 107 158
71 107 168
71 107 168
71 108 186
68 105 158
70 106 158
72 106 150
72 108 168
69 104 158
70 105 160
69 104 178
72 108 168
70 107 168
69 106 168
68 100 150
72 109 186
69 103 160
69 102 158
71 107 168
67 104 148
67 99 128
64 97 138
66 99 152
66 99 138
72 107 170
67 100 150
34 47 31
74 72 52
51 65 34
34 48 40
39 51 46
110 107 59
91 93 39
70 75 43
32 40 31
71 77 31
94 100 59
107 102 60
30 38 5
40 51 43
57 64 31
64 67 26
58 66 34
63 62 0
104 101 43
100 94 45
77 81 57
122 123 31
70 79 25
123 120 59
112 109 65
75 74 43
38 48 34
128 126 45
94 96 62
111 111 71
122 121 68
136 131 76
105 107 58
109 110 43
125 122 72
110 106 59
162 154 98
129 128 71
80 84 52
125 122 76
107 102 64
152 150 76
144 140 43
125 122 74
130 127 59
110 114 65
143 139 76
124 119 65
138 137 52
126 123 71
114 115 37
127 124 52
116 116 55
160 155 89
166 159 85
144 140 71
156 152 59
142 136 78
124 123 78
162 157 81
159 157 59
139 138 68
155 151 83
152 149 59
157 150 71
164 155 81
131 132 37
118 120 31
131 129 76
188 177 104
146 143 55
137 133 43
159 152 59
172 167 71
149 145 62
164 159 71
151 146 71
166 161 71
167 160 59
168 163 81
146 142 0
166 160 59
144 140 43
169 163 81
151 144 59
154 150 59
159 152 89
162 155 59
172 164 89
185 174 111
164 162 43
165 158 89
142 138 43
157 152 59
172 165 81
168 165 59
136 130 59
151 145 71
170 163 97
172 164 81
169 161 97
158 153 71
170 164 81
162 152 71
135 130 43
138 133 59
163 156 81
151 145 59
169 161 97
139 135 43
164 159 59
146 145 43
144 140 43
135 132 59
167 161 71
166 160 59
161 154 71
156 150 43
142 137 71
148 143 59
139 135 59
134 129 59
178 201 0
163 184 0
161 185 0
185 205 0
179 202 0
179 201 0
164 186 0
166 184 0
169 192 0
180 202 0
177 200 0
184 201 0
178 201 0
177 198 0
170 193 0
171 193 0
170 193 0
178 201 0
171 194 0
177 201 0
176 200 0
171 195 0
160 183 0
182 203 0
172 194 0
171 194 0
179 201 0
174 195 0
185 205 0
180 202 0
184 204 0
169 193 0
174 194 0
170 193 0
182 203 0
174 196 0
141 162 0
175 196 0
145 168 0
163 186 0
185 205 0
184 204 0
178 201 0
174 194 0
184 205 0
161 181 0
171 193 0
173 195 0
175 197 0
170 193 0
172 194 0
162 185 0
175 196 0
179 202 0
174 195 0
162 185 0
166 187 0
170 193 0
182 203 0
84 113 123
72 108 178
70 106 158
67 103 168
71 108 178
72 108 178
70 105 148
67 103 136
69 105 158
69 105 148
71 107 158
70 106 148
69 104 136
71 108 178
67 104 158
67 102 158
70 107 168
71 107 158
72 108 158
70 107 168
69 105 158
72 109 178
70 108 186
69 106 158
66 102 173
70 107 178
69 107 186
74 110 178
69 107 178
69 106 168
68 105 158
67 102 148
69 106 178
69 106 168
68 103 168
68 104 148
69 106 168
70 108 186
73 110 186
70 106 168
70 107 178
73 110 186
71 109 186
68 103 178
70 107 178
68 105 168
69 105 158
72 109 186
70 107 178
71 107 168
70 107 168
69 106 178
71 108 186
71 108 178
70 107 168
70 107 168
70 107 178
71 108 178
71 108 178
71 108 186
71 109 186
69 106 168
72 109 186
69 105 158
71 108 186
70 108 186
71 108 178
64 99 148
70 107 178
73 109 168
71 108 178
71 108 178
73 110 178
69 105 182
70 107 168
72 109 186
72 109 186
70 106 168
70 106 168
71 108 178
69 106 168
70 107 178
70 105 178
64 100 158
70 106 168
68 106 168
72 109 186
73 110 186
70 108 186
68 104 182
71 107 168
71 108 178
74 110 186
72 109 186
72 109 186
72 108 178
71 109 186
74 110 186
71 108 178
67 104 168
70 107 178
71 108 178
70 107 178
70 107 178
70 108 178
70 107 168
70 107 178
72 109 178
71 108 178
73 110 186
70 108 186
74 110 186
70 107 178
69 106 168
71 108 186
70 107 168
69 106 168
70 107 178
69 106 168
70 107 178
70 107 186
71 108 178
68 105 168
69 106 178
71 108 178
74 110 186
69 106 168
71 108 186
69 105 158
70 107 168
69 105 158
72 109 186
71 107 168
70 107 178
71 109 186
69 106 168
71 108 178
72 109 186
68 105 158
72 108 178
71 108 186
69 106 168
70 107 178
71 108 178
71 108 178
70 107 168
71 108 178
71 108 178
71 108 186
70 107 168
64 99 123
71 108 186
70 107 168
71 108 178
73 110 186
71 108 178
72 108 178
69 106 168
72 109 178
71 107 168
72 108 168
69 106 178
73 109 168
70 107 168
73 109 178
69 106 178
73 110 186
69 106 158
72 108 168
71 108 178
68 106 168
69 107 178
70 107 178
71 107 168
72 109 186
71 107 168
71 109 186
71 107 168
70 106 168
68 105 168
71 108 178
70 106 158
72 109 186
70 107 168
67 103 148
70 107 178
71 108 168
71 107 158
70 107 178
69 104 136
70 106 168
71 106 168
71 108 168
72 109 186
69 106 168
69 106 158
69 104 158
71 107 170
71 107 168
67 102 158
71 107 158
71 108 178
67 101 148
71 106 158
67 102 158
71 107 158
72 109 186
70 106 158
71 107 158
67 103 148
71 107 168
71 108 168
69 106 168
73 109 168
67 102 162
64 97 158
69 106 158
71 106 148
67 101 160
39 46 15
90 88 45
70 75 20
75 73 0
39 49 36
27 35 8
34 42 31
60 60 0
65 69 31
62 66 34
91 88 53
103 101 52
89 96 45
120 117 65
111 109 60
91 91 45
63 67 31
123 118 59
93 94 55
70 78 31
121 118 65
67 77 47
106 106 58
124 119 43
86 84 11
76 85 60
111 114 43
101 97 59
123 119 65
147 143 45
103 108 53
55 71 59
139 135 85
152 147 81
126 122 77
123 123 71
128 128 55
150 144 89
149 143 82
105 104 47
123 120 59
124 123 63
125 123 66
140 135 85
129 125 46
130 128 59
167 159 81
123 117 71
129 127 52
139 136 62
113 113 52
142 140 76
168 163 81
149 144 83
166 159 71
153 146 43
144 141 85
121 123 76
114 112 52
137 135 47
121 118 59
141 139 43
144 142 23
164 156 99
150 145 65
148 144 76
143 137 85
157 152 59
152 147 81
170 162 89
169 161 89
161 155 81
168 160 89
160 157 59
170 164 81
153 147 71
153 146 71
153 150 43
170 163 97
162 156 59
153 150 59
154 151 71
153 150 59
177 168 89
155 151 59
183 173 111
141 136 59
164 157 81
142 139 43
152 147 43
152 146 71
149 145 71
168 162 71
152 146 71
172 166 59
172 162 81
147 141 43
149 144 59
178 171 81
174 165 81
156 151 59
138 132 43
156 151 59
165 155 71
147 143 71
166 159 89
142 137 43
168 162 71
159 154 81
166 161 71
136 131 43
171 165 59
135 132 59
136 133 59
156 152 71
160 152 89
164 157 71
157 151 59
137 133 59
150 147 43
158 152 59
158 151 71
171 194 0
173 196 0
180 202 0
172 194 0
164 186 0
181 203 0
166 187 0
182 203 0
180 202 0
181 202 0
176 200 0
179 202 0
179 202 0
183 204 0
171 193 0
176 200 0
165 183 0
179 202 0
173 195 0
182 203 0
181 203 0
178 201 0
184 204 0
171 192 0
180 202 0
183 204 0
178 201 0
167 192 0
161 184 0
180 202 0
176 200 0
164 187 0
169 193 0
171 194 0
170 193 0
184 203 0
179 201 0
156 178 0
180 202 0
182 203 0
170 193 0
168 189 0
179 202 0
179 201 0
173 194 0
180 202 0
178 201 0
159 183 0
180 202 0
155 178 0
175 196 0
174 194 0
173 195 0
174 195 0
172 194 0
166 186 0
181 203 0
172 195 0
168 191 0
72 109 178
65 100 142
67 102 158
71 108 178
68 103 168
72 108 178
70 106 168
67 103 136
68 104 148
71 108 168
71 108 178
69 105 178
73 109 178
67 102 108
74 110 186
67 104 168
70 107 168
73 110 186
69 105 158
66 101 158
67 105 168
70 107 178
70 106 158
70 107 178
70 105 178
70 107 178
71 108 178
72 109 178
68 104 173
72 109 186
70 106 158
70 108 186
70 107 178
71 108 178
70 107 178
70 107 178
70 107 178
68 103 178
72 109 178
72 109 186
66 100 148
68 104 178
74 110 186
69 106 178
70 107 178
71 107 168
73 110 186
69 106 178
69 106 178
70 106 168
69 106 168
71 108 178
69 106 178
70 108 186
71 108 186
67 102 168
71 108 178
71 107 168
72 108 178
66 102 168
70 107 186
71 107 168
71 107 158
71 108 178
70 107 168
66 102 178
68 105 158
70 107 178
72 109 186
72 109 186
71 108 178
72 109 186
69 105 158
71 107 168
68 103 168
70 107 178
71 108 186
70 107 178
71 108 186
71 108 168
72 109 178
69 106 168
71 108 178
70 107 178
69 107 178
68 105 168
70 108 186
71 107 158
63 96 158
70 108 186
71 108 178
73 110 186
73 110 186
70 107 178
70 108 186
71 108 168
73 110 186
72 109 178
70 108 186
69 105 148
72 109 186
71 108 178
72 109 186
74 110 186
72 109 186
72 109 186
70 107 178
68 104 158
71 108 186
71 108 178
69 106 178
69 107 186
73 109 178
71 108 186
71 109 186
67 103 168
72 109 186
70 108 186
72 108 178
72 107 158
70 107 186
71 108 186
72 109 178
73 109 178
72 108 158
70 107 178
73 110 178
68 105 168
70 108 186
70 108 186
71 108 178
70 108 186
71 108 178
68 105 168
74 110 178
71 108 168
71 109 186
69 106 168
70 107 178
72 108 178
74 110 178
72 108 178
67 104 158
69 106 168
70 107 168
72 109 186
70 107 168
67 103 136
71 108 178
70 106 168
70 107 178
72 109 186
69 107 186
66 103 148
70 107 168
70 107 168
69 105 148
69 106 168
68 105 158
69 106 178
71 108 186
71 108 168
72 109 178
71 107 158
74 111 186
64 99 136
69 106 168
71 107 158
71 108 186
71 108 178
70 106 168
73 110 186
70 107 168
69 105 158
71 107 168
73 109 168
69 105 158
70 107 178
70 107 178
69 105 148
70 106 168
72 108 178
72 109 186
72 108 168
70 106 148
70 106 158
67 104 158
69 106 168
74 109 168
68 104 158
64 99 148
70 107 168
68 104 148
66 101 158
71 107 168
68 104 158
62 95 136
66 101 158
68 104 158
73 110 186
71 107 168
71 106 170
70 107 168
67 102 158
69 106 168
70 107 168
71 108 168
68 101 160
69 103 158
70 107 168
68 104 148
67 100 138
72 109 186
73 109 178
67 101 136
67 100 168
68 104 160
65 97 148
69 105 158
53 78 125
21 29 0
64 72 15
80 82 59
29 36 15
73 70 43
65 72 31
64 72 43
38 51 43
65 73 0
77 80 59
91 89 0
84 87 32
89 94 55
103 102 15
91 91 52
79 84 53
94 96 55
69 73 32
64 70 0
62 64 23
109 109 60
109 109 37
100 100 66
110 113 40
72 76 46
108 108 52
95 95 52
76 75 49
104 106 31
104 104 59
110 108 68
110 112 52
128 126 85
131 127 65
125 122 76
120 119 59
153 148 83
128 126 81
71 73 0
128 123 71
109 111 63
114 115 72
128 124 76
140 134 65
122 122 71
104 107 62
126 124 43
102 104 31
167 162 94
143 135 76
120 116 71
129 126 71
151 146 71
127 122 43
140 136 71
156 151 81
165 157 93
169 164 81
123 122 68
154 151 59
146 143 43
133 130 43
141 134 71
134 133 59
140 137 59
151 146 73
142 137 71
160 156 59
130 128 55
158 150 81
140 137 23
150 143 71
161 155 81
135 131 59
146 142 62
157 153 71
149 141 81
160 156 81
177 169 97
171 165 81
115 110 43
162 155 71
157 155 43
145 141 59
172 163 89
149 145 71
166 161 71
159 156 43
119 117 0
150 147 0
170 161 81
171 164 81
166 158 81
170 165 89
162 153 59
166 160 59
132 130 43
150 145 71
151 144 81
148 141 59
156 149 81
148 143 59
153 147 71
168 159 71
147 140 43
166 161 71
165 159 59
166 160 59
158 152 59
173 164 89
148 141 71
156 149 71
147 139 71
155 148 59
132 128 59
158 153 59
132 129 0
139 133 0
147 144 59
161 157 43
126 123 59
180 202 0
173 194 0
166 188 0
170 192 0
176 200 0
167 188 0
180 202 0
176 200 0
163 184 0
172 196 0
170 193 0
177 201 0
173 195 0
168 192 0
165 187 0
176 200 0
167 187 0
183 204 0
174 196 0
179 202 0
175 200 0
174 194 0
178 201 0
182 203 0
169 187 0
172 194 0
176 197 0
161 184 0
159 180 0
173 194 0
163 184 0
173 199 0
178 201 0
178 198 0
179 202 0
172 193 0
178 201 0
175 196 0
180 202 0
170 192 0
183 204 0
164 183 0
186 205 0
170 193 0
178 198 0
172 194 0
167 187 0
166 187 0
166 187 0
182 203 0
184 205 0
152 174 0
179 202 0
154 177 0
179 202 0
147 169 0
163 186 0
179 202 0
173 193 0
71 107 158
71 108 178
71 108 168
68 105 168
71 107 168
70 106 158
67 103 136
70 106 158
70 107 168
70 105 148
69 107 178
71 109 186
68 104 148
68 105 158
66 101 158
72 109 186
71 108 168
70 108 186
66 101 158
71 109 186
70 106 168
72 108 178
70 107 168
72 108 168
70 108 186
68 105 168
70 106 182
70 107 168
71 108 186
69 106 178
70 107 168
69 106 168
70 107 178
70 107 178
69 105 158
66 100 136
70 107 178
69 106 178
71 108 178
64 99 158
68 105 168
69 105 182
67 103 173
69 105 158
71 108 178
68 107 186
71 108 186
69 106 178
70 107 178
70 107 178
72 108 178
73 110 186
71 107 168
69 107 178
72 109 186
71 108 178
69 106 158
72 108 168
68 104 178
70 108 186
69 107 178
70 106 158
69 106 158
69 107 178
68 102 158
71 108 178
73 110 186
67 101 158
68 103 168
69 105 158
72 109 186
70 107 178
71 108 178
74 111 186
72 109 186
68 104 178
69 106 168
68 106 178
69 106 168
73 109 178
70 107 168
69 107 186
70 108 186
68 105 168
68 104 178
73 110 186
70 107 178
69 105 158
71 108 186
70 106 168
71 108 178
71 108 178
72 109 178
70 107 178
69 106 168
70 107 168
71 107 168
69 106 168
71 108 178
72 109 178
70 107 186
72 108 178
72 109 186
71 108 178
72 109 178
69 106 168
70 107 178
68 105 168
72 109 178
72 109 186
70 107 178
68 105 158
72 109 178
73 110 186
74 111 186
74 110 178
71 108 178
71 108 186
73 109 178
75 111 178
75 111 186
72 109 186
68 103 158
70 107 178
71 107 168
67 101 158
72 108 178
70 107 178
72 109 178
69 105 148
72 109 186
73 110 186
70 108 186
71 108 178
69 106 168
69 106 178
71 108 168
70 108 186
72 109 186
67 103 148
72 107 158
76 111 178
72 109 186
72 108 168
71 108 178
69 106 158
71 108 186
70 107 178
71 108 178
69 106 168
71 108 178
72 109 186
72 109 186
71 108 168
71 108 178
75 111 186
71 108 178
69 105 158
69 107 178
70 107 178
72 108 178
70 105 168
68 104 148
73 109 168
71 108 178
68 104 148
69 106 158
72 109 186
71 108 178
70 107 168
72 109 178
67 103 168
70 106 158
70 106 158
71 107 158
72 108 178
70 107 178
72 109 178
71 108 178
71 108 178
69 105 158
69 107 178
71 107 158
71 107 168
69 107 178
69 106 168
71 108 178
73 110 186
73 110 186
70 107 178
67 102 148
70 106 170
70 105 158
67 103 168
70 106 158
67 102 123
64 98 150
73 110 178
73 109 178
71 106 178
64 99 158
70 107 168
72 108 168
70 104 160
70 107 168
71 106 160
66 98 138
68 104 136
69 104 178
73 109 178
70 104 168
71 107 158
67 101 148
61 94 124
71 107 158
66 100 161
65 97 125
70 106 168
64 99 148
76 83 76
94 91 45
62 64 0
59 62 31
61 64 23
63 65 23
41 53 20
104 103 43
45 57 35
85 86 20
108 106 43
98 96 15
48 61 53
132 126 59
88 89 43
94 90 52
81 82 31
108 110 53
82 87 31
129 124 77
91 98 45
92 94 59
125 123 43
95 93 45
94 93 44
92 93 53
153 149 93
78 80 52
87 86 31
135 132 78
106 106 45
131 129 59
105 102 15
109 109 76
100 98 47
91 92 43
141 135 76
126 124 76
110 109 73
161 155 71
141 136 71
126 127 43
120 120 59
111 116 31
142 139 59
148 141 81
135 132 72
126 126 53
133 131 55
137 137 59
122 122 0
142 137 71
152 147 43
130 128 52
110 106 62
162 158 59
173 165 83
127 126 43
159 153 89
158 151 89
127 122 59
148 143 81
121 118 0
137 135 0
158 153 59
127 124 62
140 136 43
163 159 71
159 154 71
148 142 87
181 171 106
150 149 43
140 136 71
149 142 81
151 145 59
154 148 71
156 150 81
174 167 97
157 154 71
163 158 89
152 147 71
167 160 81
171 164 81
164 158 81
140 135 43
160 155 71
161 156 43
145 138 71
142 135 59
160 152 89
146 143 0
165 161 71
157 151 59
161 158 59
158 151 81
157 150 71
175 167 89
159 154 59
157 153 59
124 121 43
145 143 59
132 127 59
138 134 59
174 167 71
135 129 59
151 144 59
160 156 59
146 141 43
157 155 43
132 123 71
153 149 43
146 141 43
174 167 89
150 145 71
118 117 0
156 153 43
153 146 71
131 128 0
156 149 81
168 160 89
120 117 0
138 134 59
179 202 0
164 187 0
177 201 0
179 201 0
181 203 0
168 188 0
183 204 0
168 192 0
178 201 0
176 199 0
153 177 0
182 203 0
177 196 0
172 193 0
179 201 0
173 195 0
178 201 0
183 204 0
170 193 0
178 198 0
175 196 0
178 201 0
178 201 0
180 202 0
169 192 0
174 195 0
162 182 0
179 201 0
181 202 0
170 193 0
178 201 0
173 194 0
180 202 0
180 202 0
174 194 0
174 195 0
175 195 0
176 200 0
152 176 0
178 201 0
168 188 0
178 201 0
170 192 0
171 194 0
176 200 0
172 194 0
179 202 0
177 201 0
159 183 0
173 195 0
179 202 0
175 194 0
172 194 0
181 203 0
164 187 0
178 193 0
170 194 0
181 203 0
170 194 0
70 106 168
72 108 168
69 105 148
68 102 158
68 104 158
69 103 158
71 109 186
69 106 168
69 106 168
67 101 148
70 106 168
69 105 148
70 106 158
68 104 148
71 109 186
66 102 178
71 108 178
68 105 158
72 109 178
66 101 158
71 108 168
68 104 173
67 103 173
70 106 158
71 108 178
71 107 168
72 109 186
68 105 158
72 108 178
73 109 178
69 105 158
71 108 178
65 102 173
69 104 178
69 106 168
72 109 186
71 108 178
72 109 178
67 104 182
67 102 168
72 109 186
72 108 178
71 107 168
70 107 178
69 106 168
65 100 108
69 106 168
69 107 178
72 109 186
70 107 168
69 107 178
70 107 178
71 108 178
66 102 168
71 108 178
69 105 158
70 108 186
71 107 158
70 107 178
72 109 186
71 108 178
70 108 186
69 107 178
71 108 178
70 108 186
70 107 168
67 103 168
71 109 186
68 105 168
71 107 168
70 107 178
72 108 178
72 109 178
70 108 186
71 108 186
70 107 178
73 110 178
73 109 178
67 103 178
69 106 168
69 107 178
71 109 186
71 108 178
72 109 186
74 111 186
73 109 178
71 108 178
72 108 178
71 108 178
71 108 186
71 108 178
71 108 178
68 105 168
71 108 178
70 107 178
72 109 178
73 110 186
70 106 168
70 107 178
68 105 168
70 108 186
68 105 158
71 107 168
70 107 168
65 100 158
68 107 186
72 109 186
73 110 186
68 103 136
72 108 178
65 102 173
71 107 168
73 110 186
70 107 186
73 109 178
71 107 168
69 106 178
70 107 168
70 108 186
69 106 178
71 108 178
71 108 178
71 108 178
74 110 178
70 107 178
70 106 158
69 107 186
70 107 168
69 105 178
72 109 186
71 108 186
71 108 186
70 107 178
72 108 168
68 104 148
72 108 158
72 109 178
70 107 178
71 109 186
71 107 168
69 105 158
73 110 186
74 111 186
70 105 158
75 111 178
73 109 178
72 109 186
69 106 168
72 108 178
69 106 168
70 107 178
68 106 178
69 107 178
71 108 178
70 107 178
71 107 168
73 110 186
70 106 168
70 107 178
70 108 186
68 105 158
68 105 158
71 108 178
69 105 148
66 101 136
71 107 168
72 109 178
71 108 168
69 106 168
72 108 168
72 109 186
69 106 178
69 106 168
69 106 168
73 109 168
72 108 178
68 104 158
70 106 168
68 103 158
68 105 158
70 106 158
71 107 168
70 106 158
73 108 178
69 105 158
67 103 148
66 102 136
70 107 168
66 103 148
71 107 158
69 104 136
71 108 178
66 102 136
71 107 168
71 108 186
70 106 158
63 96 136
72 109 178
71 107 168
72 108 158
64 98 136
71 108 178
72 108 168
69 106 158
68 104 160
74 110 178
71 107 168
69 104 150
69 106 168
68 103 138
67 102 123
67 102 148
72 108 168
71 104 152
70 100 141
69 104 158
69 104 148
65 96 133
66 101 161
66 78 90
58 60 0
35 45 20
97 92 43
25 31 3
102 99 43
66 69 15
77 79 59
67 77 43
71 68 44
85 89 43
36 46 34
107 108 43
122 119 65
86 90 15
99 98 65
134 130 59
125 121 76
74 74 45
98 101 43
104 103 43
108 103 47
110 106 60
161 153 89
100 100 45
132 129 59
36 48 31
90 94 59
96 98 59
136 131 76
121 120 59
96 98 65
123 119 63
138 136 43
118 117 52
102 100 43
128 124 81
155 147 71
117 116 73
127 124 76
126 123 43
110 111 55
142 137 76
118 118 52
128 125 81
140 135 76
135 134 43
141 137 62
111 110 62
152 148 71
138 136 65
118 117 47
159 150 81
130 130 66
135 133 52
126 122 71
145 140 71
151 146 52
148 141 81
142 137 59
170 159 91
132 125 0
167 160 93
162 157 81
132 127 23
125 122 68
154 152 65
157 153 59
163 154 73
131 127 62
172 162 97
147 141 71
159 153 59
156 146 43
157 152 59
147 142 59
163 155 71
171 164 81
176 167 89
164 156 71
175 168 71
178 169 97
165 158 81
156 150 71
166 162 0
176 170 81
170 165 81
161 155 71
156 151 71
161 155 81
149 144 59
167 161 71
147 145 0
172 163 97
141 135 59
171 164 89
163 159 59
170 164 81
172 166 89
155 148 59
138 135 59
154 151 59
178 171 81
147 142 59
151 146 59
164 155 81
121 118 43
159 153 81
149 145 71
139 131 59
173 168 71
120 114 59
167 160 59
150 145 71
153 149 43
146 141 43
156 150 81
108 103 59
145 139 81
131 127 59
147 142 0
147 145 0
180 200 0
179 199 0
182 203 0
185 205 0
182 203 0
180 199 0
171 194 0
172 193 0
173 195 0
173 195 0
163 186 0
178 201 0
168 191 0
178 201 0
173 195 0
171 190 0
179 202 0
166 186 0
179 202 0
182 203 0
180 202 0
171 194 0
177 201 0
179 202 0
173 194 0
181 203 0
177 201 0
177 201 0
181 203 0
175 196 0
172 193 0
172 194 0
177 201 0
162 184 0
169 193 0
173 195 0
176 197 0
158 181 0
180 202 0
178 201 0
178 201 0
179 201 0
170 192 0
183 203 0
179 202 0
175 196 0
183 204 0
180 200 0
156 178 0
170 190 0
166 187 0
174 199 0
177 201 0
153 176 0
162 181 0
179 202 0
175 196 0
169 191 0
157 180 89
64 99 136
70 106 158
70 107 168
70 106 158
69 105 148
69 105 158
68 105 168
63 96 158
71 108 178
71 106 148
69 105 148
70 106 168
71 108 178
72 109 178
71 107 158
69 104 168
71 108 178
70 106 158
68 104 178
71 108 178
67 104 148
69 105 148
70 106 158
72 109 178
67 102 168
65 100 158
67 102 158
70 107 178
70 107 178
69 104 168
70 108 186
68 104 168
68 104 178
69 105 148
70 106 168
71 108 178
71 107 168
69 106 168
66 101 158
69 104 178
71 108 186
71 107 158
66 102 168
72 109 186
70 107 178
72 109 186
71 108 178
70 106 168
68 105 168
72 109 186
68 104 178
72 109 178
67 102 158
72 109 186
72 109 178
69 106 158
70 107 168
72 108 178
67 105 168
69 107 178
67 102 168
71 108 186
66 102 163
69 104 178
70 107 168
76 112 186
66 101 168
70 108 186
71 108 178
69 107 186
71 109 186
70 106 148
71 109 186
71 107 168
70 107 168
69 107 178
65 101 168
73 109 178
70 107 178
69 106 168
70 107 178
70 107 178
72 109 178
68 105 158
71 108 178
73 109 168
73 110 186
74 111 186
71 108 178
70 108 186
69 107 178
72 109 186
71 108 168
70 105 148
71 108 186
71 108 186
70 105 148
70 107 168
71 108 178
70 107 168
72 109 178
70 106 168
70 108 186
70 106 168
72 109 186
72 109 186
70 106 168
70 107 186
71 108 178
70 108 186
72 108 178
72 109 178
71 108 178
70 107 168
71 108 178
70 107 178
71 107 168
70 108 186
70 107 178
72 109 186
69 107 178
71 108 178
71 108 178
69 106 168
68 104 148
69 107 178
71 108 186
67 102 168
68 105 168
73 110 186
68 104 148
70 107 178
71 108 186
67 103 148
70 105 168
71 108 178
70 107 178
68 105 168
68 105 158
70 107 168
73 110 178
70 106 168
75 110 178
73 109 178
72 109 178
72 109 186
70 107 178
73 108 168
73 110 178
71 108 186
73 109 178
69 105 158
73 109 178
74 110 178
72 108 178
69 107 178
72 108 168
71 108 178
71 107 158
71 108 178
70 108 186
72 109 178
70 107 168
70 106 158
72 109 186
69 106 178
70 107 168
71 108 178
71 108 178
70 107 178
72 109 186
73 109 168
72 108 168
71 108 178
71 108 178
72 109 186
72 109 186
68 105 158
72 109 186
72 108 178
68 105 168
70 108 186
70 107 178
69 106 168
68 104 158
72 109 178
71 107 168
69 106 168
68 103 136
69 106 168
72 108 168
68 103 158
73 109 168
69 104 136
71 107 168
68 104 148
71 107 158
69 105 148
68 103 150
73 110 186
69 105 158
72 109 178
74 110 178
69 105 136
70 106 158
68 103 138
66 101 125
67 103 148
72 108 178
68 105 158
67 102 158
66 101 123
72 107 160
71 105 178
66 97 141
66 101 158
65 96 138
69 105 158
67 101 148
57 69 89
89 83 45
75 74 43
23 31 31
57 61 0
93 97 52
76 75 18
60 63 31
65 68 0
39 51 34
102 102 23
57 56 0
66 71 45
40 52 31
95 99 45
57 60 18
112 109 63
95 99 59
90 86 43
85 86 11
34 44 31
119 118 57
79 81 61
38 45 20
121 114 65
102 99 44
103 104 76
99 100 34
82 85 0
107 108 59
121 120 62
120 119 59
130 124 65
109 111 43
146 144 59
133 132 65
122 119 63
146 140 71
116 113 0
125 123 62
162 153 81
105 100 52
118 112 43
139 137 77
164 158 76
125 122 69
88 94 31
149 141 85
160 154 76
164 156 89
105 104 52
129 128 59
103 105 31
142 137 83
129 127 59
153 150 59
130 127 0
138 134 71
142 137 71
137 131 59
154 146 76
151 148 65
154 149 62
164 160 71
139 136 65
140 137 68
168 161 83
129 126 59
167 160 85
166 159 91
160 155 81
173 166 89
164 159 59
168 162 71
158 152 59
172 165 71
152 146 59
143 141 59
155 152 0
161 156 71
158 151 81
142 139 43
142 140 43
164 159 59
147 143 59
161 158 43
163 157 43
159 152 59
145 142 43
129 124 59
152 147 71
145 142 59
172 165 71
153 149 43
134 125 59
168 160 81
172 164 89
162 158 59
176 169 71
136 131 59
145 139 59
172 165 81
183 175 97
161 155 59
163 156 81
137 135 59
167 160 81
165 157 89
118 117 0
155 148 81
134 129 71
153 150 59
164 159 59
139 136 59
148 145 43
137 133 59
159 154 71
136 130 71
164 160 59
137 130 59
159 152 59
131 125 59
175 196 0
174 195 0
170 194 0
178 201 0
176 200 0
182 203 0
171 192 0
174 199 0
153 176 0
181 203 0
170 192 0
178 198 0
177 201 0
163 186 0
174 195 0
164 184 0
169 188 0
171 191 0
182 203 0
177 201 0
181 203 0
171 193 0
182 203 0
160 182 0
162 184 0
181 203 0
170 192 0
171 191 0
179 202 0
176 200 0
164 186 0
168 189 0
171 194 0
169 187 0
172 195 0
175 196 0
171 193 0
178 201 0
177 196 0
180 202 0
168 192 0
174 199 0
170 192 0
170 194 0
161 184 0
179 202 0
171 194 0
180 202 0
176 196 0
168 192 0
166 190 0
177 201 0
185 205 0
167 187 0
168 192 0
175 195 0
168 192 0
176 195 0
171 194 0
71 106 148
70 105 148
69 106 158
69 105 148
69 105 158
72 108 168
71 107 168
71 107 158
70 106 158
69 105 148
65 97 148
68 105 158
68 104 136
70 104 168
71 108 178
69 106 158
68 103 136
69 105 158
71 108 186
71 108 178
66 103 182
70 107 178
68 102 158
70 107 168
72 108 168
73 109 178
69 103 168
72 108 178
69 104 168
71 108 178
73 109 178
73 109 168
72 109 178
72 108 168
75 112 186
70 107 168
69 107 178
71 108 186
68 105 158
71 108 178
70 104 168
70 107 178
72 109 186
71 108 178
71 108 168
73 110 186
68 105 158
73 110 186
66 101 148
70 107 178
65 101 163
72 109 178
69 105 158
70 107 168
66 102 163
73 109 168
70 106 168
69 106 168
67 103 148
72 109 178
71 108 186
69 105 158
70 105 178
69 107 178
72 109 186
72 108 178
70 108 186
71 108 186
68 106 168
71 109 186
71 108 178
70 107 178
71 108 178
71 108 178
71 107 168
70 107 178
69 106 168
72 108 168
71 107 168
72 108 168
70 107 178
70 106 158
73 109 178
72 108 168
72 108 178
72 109 186
72 108 178
70 107 178
74 110 178
72 109 186
70 108 186
72 108 178
69 107 186
71 108 178
71 108 178
72 109 178
71 108 186
70 108 186
72 109 186
70 107 178
69 107 178
73 110 186
70 107 168
72 109 186
72 109 186
70 107 178
69 107 178
72 109 186
66 102 168
72 109 186
70 107 168
70 108 186
71 108 178
70 108 186
73 110 186
67 105 168
68 106 178
73 110 186
70 107 168
69 106 158
71 108 178
70 107 178
69 107 178
69 106 158
71 108 186
66 101 148
71 108 186
72 108 168
72 109 178
68 106 178
75 111 186
70 106 168
70 106 168
72 108 178
72 109 178
70 106 158
72 108 178
71 108 178
72 109 186
71 108 178
70 107 168
70 106 148
71 108 178
72 109 186
72 108 168
71 108 178
69 106 168
70 107 178
72 108 168
70 106 168
71 107 168
72 108 178
69 107 186
69 106 178
66 103 158
71 108 178
70 106 178
69 106 158
67 104 158
69 105 158
70 107 178
67 104 148
74 110 178
72 109 178
70 107 178
70 107 168
69 107 178
70 106 168
72 108 178
73 109 178
72 109 186
70 107 178
69 106 158
73 109 178
73 109 178
69 106 158
72 108 178
70 105 148
69 106 168
73 109 168
70 107 168
66 101 148
72 108 168
73 110 186
70 107 168
73 110 186
66 103 148
72 109 186
70 106 168
70 107 168
69 105 158
72 108 158
70 103 152
71 107 158
70 106 158
69 103 148
69 105 158
65 100 136
68 105 158
69 104 123
70 106 158
70 107 168
71 107 158
71 107 168
62 95 148
66 99 148
68 104 158
68 103 158
69 106 158
65 99 136
70 105 168
71 105 150
64 99 148
70 106 158
65 99 148
63 97 158
70 106 170
66 100 125
54 81 111
42 61 65
23 28 0
89 85 43
105 102 43
105 102 52
95 96 57
122 118 62
35 46 15
67 66 34
66 72 36
84 82 52
89 88 45
42 52 20
39 51 31
134 129 85
103 103 46
94 96 0
68 67 31
65 70 0
86 81 20
113 113 66
127 123 59
72 72 52
101 105 43
113 110 0
121 120 0
96 98 0
89 89 52
100 100 31
118 118 71
107 109 59
118 117 43
104 105 52
107 107 0
109 105 65
123 124 72
152 142 89
83 89 43
109 108 34
119 119 43
155 150 76
137 134 68
124 126 76
150 145 85
121 119 76
100 100 66
139 134 76
135 133 65
166 161 71
113 114 43
120 120 65
124 122 52
146 140 62
150 145 71
143 140 65
150 146 85
148 143 59
139 136 43
143 136 71
149 142 81
120 120 37
150 145 59
165 158 81
167 159 89
149 147 59
118 114 65
129 125 59
148 143 52
154 148 71
142 136 43
173 164 89
123 121 43
168 162 71
163 155 71
164 156 71
168 162 71
170 165 59
156 149 81
160 155 71
162 154 89
162 153 71
173 167 59
173 168 71
139 134 59
159 154 59
133 128 43
145 138 71
154 150 59
168 162 71
176 170 81
134 131 43
153 146 71
165 157 71
139 134 59
156 151 71
157 153 71
172 162 81
148 142 59
152 146 71
160 155 59
162 156 81
148 146 43
166 159 89
152 146 71
153 149 43
167 158 81
174 167 81
141 138 43
144 140 71
152 145 43
165 160 43
145 142 59
149 147 43
158 153 71
130 129 43
141 136 43
167 161 71
122 120 43
134 134 0
131 123 43
161 155 59
147 142 43
180 202 0
179 196 0
174 195 0
175 194 0
174 194 0
174 195 0
177 197 0
185 205 0
165 184 0
174 194 0
169 193 0
177 197 0
188 206 0
172 195 0
172 195 0
169 191 0
168 193 0
179 201 0
180 202 0
178 201 0
180 202 0
182 203 0
171 194 0
161 185 0
175 196 0
181 202 0
181 203 0
169 191 0
173 195 0
175 194 0
179 202 0
178 201 0
173 195 0
179 202 0
173 195 0
168 193 0
180 201 0
179 202 0
163 186 0
182 203 0
163 186 0
169 193 0
162 181 0
165 187 0
171 193 0
166 186 0
182 200 0
177 197 0
185 205 0
163 186 0
177 197 0
178 201 0
172 193 0
162 185 0
175 200 0
172 194 0
178 201 0
172 193 0
135 161 108
67 103 136
70 106 158
72 108 168
65 98 148
70 107 168
70 107 168
72 109 186
68 106 168
68 105 158
71 107 158
68 104 158
68 105 158
67 103 168
67 102 163
72 109 178
71 108 168
68 104 136
69 105 168
68 105 158
69 106 168
70 107 178
72 108 168
70 107 168
75 111 186
71 108 178
69 104 178
72 109 186
70 106 148
65 100 158
71 109 186
68 103 173
70 107 178
71 108 186
68 104 148
64 99 158
71 108 178
72 109 186
73 109 178
69 107 178
68 105 168
72 109 178
68 103 158
70 106 158
73 109 178
71 107 168
70 107 178
71 107 168
71 108 186
63 99 153
67 103 173
71 108 178
71 108 178
68 103 168
69 106 168
68 104 178
70 107 178
73 110 186
71 108 178
73 110 186
71 107 168
70 107 186
69 105 158
70 106 168
70 107 178
72 109 178
71 107 168
67 103 148
71 108 178
72 108 168
68 103 168
69 106 168
72 109 178
72 109 178
71 108 178
65 100 148
69 107 178
72 109 186
69 104 136
70 105 148
70 107 178
69 107 178
70 106 168
70 107 178
74 110 186
67 101 148
69 105 158
72 109 178
72 108 178
71 108 186
70 107 178
70 108 186
71 107 168
70 107 168
70 107 168
72 109 186
70 108 178
66 101 168
71 108 178
70 108 178
72 109 186
69 105 158
67 105 178
73 109 178
71 109 186
71 108 168
70 107 168
70 107 178
70 107 168
70 107 178
70 106 168
71 109 186
65 101 168
68 106 178
72 109 178
66 102 136
68 105 158
72 108 168
69 106 168
71 109 186
67 103 178
68 103 168
68 104 168
70 107 168
69 106 168
72 108 178
71 107 158
71 108 178
69 106 158
70 107 168
69 107 186
68 105 168
71 108 168
69 105 168
70 108 186
70 106 168
72 108 178
72 109 186
71 109 186
74 109 168
70 106 168
70 107 178
71 109 186
69 105 148
70 105 148
72 109 178
68 105 168
74 110 186
72 108 168
69 106 168
69 106 158
71 107 168
72 108 178
70 107 168
71 109 186
72 108 168
69 106 158
71 108 178
70 108 186
70 107 178
70 108 186
70 108 186
71 106 158
72 109 178
71 107 168
69 106 168
69 106 168
70 107 178
71 107 158
70 107 168
70 106 158
69 106 168
69 105 148
72 108 178
72 107 158
70 106 168
74 111 186
72 109 178
70 107 178
70 108 186
74 110 178
69 106 168
73 109 168
73 109 178
71 107 168
71 108 186
68 105 168
69 105 148
68 104 148
69 104 136
70 107 178
67 103 148
72 108 168
67 102 148
68 103 158
72 108 178
70 107 168
67 102 158
71 107 158
72 108 178
72 107 158
73 109 168
72 109 178
71 107 168
69 107 178
73 110 186
72 107 170
69 105 160
69 104 160
71 107 158
68 103 158
70 105 150
70 106 158
69 105 148
66 99 149
70 107 168
62 95 123
71 105 172
65 99 148
70 107 168
54 81 108
101 98 45
61 64 15
99 96 0
106 103 47
19 26 0
60 60 15
80 85 59
65 72 37
26 35 0
41 51 34
110 108 65
63 71 31
139 136 59
32 40 0
94 97 15
90 91 43
105 107 59
60 60 40
68 68 0
64 70 31
123 116 72
99 100 3
124 121 66
67 72 31
63 67 40
110 113 0
78 81 31
122 119 59
65 69 15
67 71 31
110 111 31
123 123 31
120 118 52
138 133 83
92 92 53
115 113 52
146 138 81
90 88 53
116 117 59
138 134 65
143 136 85
106 106 43
117 114 52
140 131 73
127 124 59
133 130 59
124 124 65
131 129 71
127 121 71
118 119 43
144 135 81
172 167 89
149 145 76
159 157 52
169 163 76
164 157 76
120 118 52
158 153 71
141 135 71
129 128 59
174 165 89
179 170 97
159 155 59
146 139 59
166 161 71
148 141 71
145 140 43
156 149 73
167 158 89
120 117 43
154 150 59
146 142 43
168 163 81
150 145 0
148 147 0
176 168 97
168 162 71
161 158 59
158 154 59
179 169 81
123 119 71
159 153 71
156 151 81
164 157 81
162 156 81
127 126 0
129 125 59
156 150 71
153 152 0
177 172 89
145 138 43
156 150 43
186 177 97
150 146 71
157 150 59
141 138 43
176 167 89
170 166 59
148 143 59
131 130 43
137 133 59
152 146 71
136 132 43
135 131 43
156 151 59
165 158 71
147 140 59
124 125 0
134 131 43
135 135 0
155 148 81
161 155 81
142 136 43
132 130 43
155 151 43
141 136 43
133 126 59
151 144 59
158 155 43
144 141 43
145 139 59
176 196 0
169 191 0
183 201 0
179 202 0
171 194 0
179 202 0
180 202 0
183 204 0
179 202 0
180 202 0
176 195 0
174 195 0
171 193 0
181 203 0
181 200 0
173 194 0
179 202 0
167 192 0
181 202 0
181 203 0
185 205 0
179 202 0
180 202 0
180 199 0
181 203 0
168 192 0
180 202 0
180 197 0
164 185 0
173 195 0
171 193 0
176 200 0
174 195 0
163 186 0
163 184 0
178 201 0
178 197 0
182 203 0
184 204 0
182 203 0
180 202 0
167 186 0
182 203 0
166 191 0
156 178 0
162 184 0
175 199 0
167 187 0
178 201 0
158 179 0
185 205 0
153 175 0
175 196 0
176 195 0
179 202 0
170 192 0
166 187 0
176 196 0
143 168 65
71 107 168
67 102 123
71 105 168
72 107 158
69 103 168
69 105 158
73 109 178
70 107 178
72 108 168
69 106 168
69 104 158
66 102 178
67 103 136
71 109 186
68 105 168
69 107 178
68 104 158
64 99 148
70 106 168
70 107 178
67 104 148
69 106 168
71 108 178
69 106 158
63 97 158
66 103 148
71 107 168
68 104 182
69 106 168
71 108 186
66 102 163
70 106 158
70 107 178
73 109 178
68 105 158
72 109 186
67 104 158
68 106 168
72 109 178
71 108 168
69 104 168
72 108 178
67 102 158
69 106 168
69 106 178
71 108 178
71 107 168
70 107 178
71 107 168
68 103 168
71 107 158
69 106 168
67 102 168
69 106 178
70 107 178
70 107 186
68 105 168
69 105 178
68 103 168
71 108 186
70 105 178
72 109 178
69 105 148
68 105 168
73 110 186
72 109 178
71 108 178
70 107 178
72 109 178
70 107 178
69 105 158
72 109 178
69 106 178
70 107 186
69 106 168
71 108 178
71 108 178
71 107 168
69 107 178
71 108 168
66 101 158
70 107 168
71 107 168
71 108 178
69 106 178
71 107 168
71 108 178
72 108 158
69 106 168
70 107 168
72 109 186
70 107 178
73 110 186
72 109 186
73 110 186
71 108 186
68 104 148
68 104 158
70 106 158
70 107 168
71 108 178
70 107 178
69 107 178
69 107 186
70 106 168
71 108 178
68 106 178
70 107 178
71 107 168
70 106 168
69 106 158
72 109 178
73 109 178
70 107 178
70 107 178
72 109 186
72 107 178
73 110 178
73 110 178
69 106 178
71 107 168
73 109 178
70 107 178
67 104 158
69 105 158
68 105 168
71 108 178
71 107 158
71 108 178
70 107 178
71 108 178
72 109 186
68 105 158
72 109 178
73 109 178
70 107 168
68 105 168
72 109 186
68 105 158
69 106 168
69 107 178
72 109 186
70 107 178
70 107 178
69 106 168
72 108 178
72 108 168
69 107 178
70 106 158
71 107 168
71 107 158
71 108 178
71 108 178
71 107 168
69 105 158
71 108 178
69 106 168
69 104 168
71 107 168
69 106 168
68 105 158
69 105 148
67 103 148
69 107 178
69 106 178
73 109 178
70 107 168
72 108 168
68 104 148
70 106 158
71 108 168
68 105 158
70 107 168
70 107 168
70 106 168
69 104 136
70 107 178
70 106 158
71 107 168
71 107 158
71 107 148
70 106 158
68 104 158
68 104 136
72 108 168
68 104 148
67 103 148
74 111 186
70 104 170
72 108 168
73 109 178
72 108 168
70 105 158
70 106 158
70 107 178
74 109 168
65 100 125
66 101 148
70 105 148
69 105 158
72 107 158
69 104 158
73 108 179
73 108 158
73 108 179
69 106 158
67 102 136
68 104 148
66 100 150
70 107 168
66 100 148
70 104 160
71 108 178
64 96 125
72 109 186
58 85 117
66 100 136
72 106 168
63 96 136
53 76 98
102 98 43
102 96 52
83 77 43
62 67 15
93 92 0
79 83 59
29 36 0
109 107 45
82 82 45
106 107 60
74 76 34
27 36 0
117 114 43
129 125 45
85 92 43
51 56 31
112 111 47
87 90 34
119 118 52
59 62 31
127 126 52
77 80 43
67 73 31
131 127 78
97 99 0
70 66 43
117 116 48
132 125 82
82 88 31
104 103 43
110 104 59
117 116 47
123 122 67
127 126 52
107 107 46
110 108 52
135 130 76
110 112 0
127 124 52
103 103 43
112 110 52
102 98 0
137 132 66
131 130 31
120 120 0
141 134 59
126 124 43
146 139 59
130 123 59
123 119 59
143 140 76
161 152 85
148 144 59
105 106 52
158 152 89
154 147 71
140 138 59
143 139 0
170 163 59
143 139 76
163 156 71
150 146 0
135 131 62
165 158 81
125 119 71
155 148 81
122 117 59
160 156 71
170 166 71
145 141 0
176 166 81
140 133 59
169 161 81
133 130 43
163 155 71
158 152 59
155 152 59
176 170 81
161 155 59
146 144 59
150 148 43
155 149 81
158 153 71
145 139 71
163 159 59
146 137 81
154 147 71
166 159 81
147 144 59
163 156 81
152 145 71
162 155 71
157 147 59
169 158 89
149 142 71
141 134 71
169 163 81
160 152 71
174 168 71
159 154 71
141 136 43
124 121 43
158 153 43
154 152 0
172 165 81
145 138 59
134 128 43
152 150 43
136 130 59
130 126 43
150 145 59
150 145 43
152 148 43
153 149 43
137 132 43
135 128 71
136 132 43
121 115 59
116 113 59
154 147 43
143 136 43
194 210 168
189 207 148
196 214 148
203 220 186
210 225 202
191 208 148
202 219 168
199 217 168
200 216 186
192 211 123
205 221 186
184 203 123
195 210 168
186 204 148
193 212 148
183 205 89
194 213 148
184 203 123
199 217 168
180 198 0
186 206 89
177 197 89
188 209 123
171 194 0
177 201 0
183 204 0
172 194 0
170 192 0
181 203 0
178 201 0
171 193 0
178 201 0
173 195 0
179 202 0
172 190 0
181 203 0
166 187 0
172 193 0
179 202 0
175 196 0
173 195 0
187 206 0
177 201 0
179 202 0
183 204 0
179 202 0
177 197 0
169 193 0
174 195 0
168 191 0
175 196 0
182 203 0
160 185 0
171 191 0
177 201 0
177 198 0
167 188 0
181 203 0
135 162 123
73 109 168
69 105 158
69 105 148
68 105 158
71 107 168
71 107 168
66 101 148
69 106 158
68 105 168
72 108 178
68 106 168
74 110 186
71 107 168
73 110 186
70 107 168
69 106 168
72 108 168
69 105 168
69 106 168
63 97 153
69 106 168
73 109 168
70 107 168
68 105 158
71 108 178
71 108 178
67 102 168
68 103 158
71 107 168
70 107 178
67 103 136
73 110 186
73 109 168
67 102 168
66 103 148
73 109 178
69 106 168
72 109 186
72 109 186
66 101 158
72 109 186
69 104 178
70 108 186
64 97 168
66 101 158
70 107 168
69 107 186
71 108 178
71 108 178
69 106 168
70 108 186
71 108 186
70 107 168
71 108 178
69 106 168
70 107 168
68 103 178
70 107 168
72 108 178
65 101 158
67 102 168
70 107 178
72 109 186
69 106 168
70 107 178
67 104 178
68 106 178
71 108 178
72 109 186
66 101 158
70 105 178
69 106 168
70 107 178
71 108 186
71 108 186
71 108 178
68 104 178
72 109 186
71 108 186
72 108 178
70 107 168
71 108 178
70 108 186
73 110 186
69 105 148
73 110 186
70 107 178
71 108 178
69 107 186
71 107 168
70 107 168
69 106 168
72 108 168
68 104 182
67 103 168
68 103 178
67 105 168
72 108 168
71 108 186
68 105 168
68 105 158
70 107 178
73 110 186
71 107 168
70 107 168
73 109 178
72 108 178
70 106 148
68 104 158
69 105 158
72 109 186
69 106 168
67 104 148
66 102 148
69 107 178
72 108 178
71 108 178
70 106 168
72 108 168
71 108 178
72 109 186
70 108 186
69 105 158
71 108 178
71 108 178
71 109 186
72 109 178
71 107 168
70 107 178
70 107 178
69 106 168
72 109 186
71 109 186
70 107 178
66 101 168
71 107 168
69 106 168
71 109 186
70 107 178
71 108 186
72 109 186
69 106 168
73 109 178
70 106 168
71 108 178
71 108 178
72 108 168
70 107 178
75 111 186
69 105 158
69 105 148
68 106 168
70 107 178
71 108 178
72 108 178
72 107 158
70 107 178
69 105 158
73 109 178
71 108 178
73 109 178
71 108 168
70 106 158
71 108 178
71 108 168
67 104 158
67 102 123
73 110 186
69 104 136
71 108 178
70 107 168
73 110 186
71 107 158
71 108 178
67 104 148
71 108 178
71 107 168
68 104 148
68 102 158
67 102 108
69 106 158
71 107 168
69 106 168
72 109 178
71 107 158
71 108 178
69 105 148
70 106 158
70 106 158
69 105 178
69 106 178
70 106 148
70 106 168
70 105 168
68 102 160
70 106 158
66 101 148
72 109 186
72 108 168
71 107 158
68 103 158
72 108 158
67 104 168
67 101 148
72 108 168
72 108 158
73 109 168
67 103 136
71 107 158
70 107 168
67 101 160
68 104 148
64 97 108
68 103 158
68 103 168
70 106 148
68 104 148
68 102 148
63 97 91
78 96 108
72 70 43
110 107 59
108 106 31
87 86 43
72 64 0
76 75 43
63 63 0
89 86 43
68 75 20
98 93 45
106 103 31
95 98 53
80 84 43
42 55 32
103 102 43
95 96 20
74 73 43
105 104 55
122 115 66
68 71 15
101 106 39
91 91 52
94 94 53
104 100 0
83 89 43
106 104 52
129 125 66
127 125 47
128 124 72
94 96 15
112 112 0
60 66 23
116 114 45
128 126 43
138 134 59
111 110 15
111 107 43
113 110 43
155 150 71
112 113 43
135 131 68
155 148 81
127 125 52
136 133 59
121 120 0
132 129 65
140 137 59
144 142 52
69 79 43
113 113 26
107 101 43
82 82 31
134 129 73
121 120 71
141 137 59
150 145 59
112 112 43
153 147 71
154 147 59
131 128 68
141 139 47
152 148 65
152 147 71
147 141 65
128 131 31
147 142 71
186 172 104
130 126 59
150 143 81
153 147 59
143 139 43
165 160 71
159 151 71
157 153 71
162 156 81
162 156 81
150 142 71
158 150 81
173 165 81
148 143 0
142 138 43
147 142 59
139 135 59
163 155 71
153 147 59
154 151 43
151 145 71
152 146 43
137 133 43
147 142 59
154 148 59
138 134 43
143 137 71
134 132 43
158 151 59
114 115 0
152 146 59
154 150 59
163 157 43
180 172 81
125 121 43
136 133 43
137 136 0
155 146 81
145 142 43
118 114 43
167 157 81
163 158 71
139 134 59
167 159 89
145 142 59
140 134 59
162 158 59
141 135 59
168 162 59
138 131 59
144 140 43
148 140 59
144 140 43
156 151 59
128 120 0
203 220 186
189 209 123
193 211 123
194 210 148
196 216 168
200 216 186
192 212 148
187 203 123
185 206 89
205 221 186
198 217 168
180 202 0
178 197 148
185 206 89
190 210 123
205 221 186
185 203 123
191 210 123
178 198 89
200 218 168
186 203 168
189 209 123
186 207 89
195 214 148
197 214 123
182 202 123
193 211 123
167 192 0
188 209 123
181 203 0
174 194 0
167 192 0
179 202 0
182 203 0
180 202 0
168 192 0
188 206 0
171 192 0
186 205 0
180 202 0
173 193 0
182 203 0
184 204 0
167 191 0
174 195 0
173 193 0
161 185 0
181 203 0
172 194 0
174 195 0
173 195 0
178 201 0
180 199 0
181 203 0
173 195 0
164 186 0
174 195 0
175 196 0
138 163 123
66 101 123
68 103 123
63 97 148
69 104 136
69 106 168
72 107 148
71 108 178
70 108 186
71 107 168
74 110 178
69 107 186
71 108 178
66 103 158
68 103 123
70 106 158
69 106 158
70 107 168
71 107 168
71 108 178
62 95 129
66 102 163
71 109 186
69 106 178
70 106 158
72 108 178
69 106 168
71 107 168
70 106 158
66 103 178
73 110 186
70 106 182
72 108 168
72 108 178
71 108 178
70 106 168
70 107 168
73 109 178
71 107 168
71 108 186
68 104 178
71 107 168
70 108 186
67 102 168
67 103 178
70 107 178
70 107 178
71 107 168
71 108 178
67 102 168
66 99 168
70 106 158
73 109 178
72 109 178
70 107 168
69 106 178
69 107 178
68 105 158
70 107 178
69 106 168
66 101 158
72 108 178
72 108 168
66 102 168
69 107 178
69 106 168
71 108 178
69 106 178
71 108 178
70 107 178
70 107 178
69 104 178
70 106 168
64 98 168
72 109 186
71 109 186
72 109 178
71 108 178
69 105 158
73 109 168
72 109 186
70 106 158
71 108 178
67 103 136
71 108 178
70 106 168
70 105 178
72 108 178
71 108 178
70 107 168
70 108 186
72 108 168
72 109 186
70 107 178
68 105 158
69 106 168
70 106 158
72 109 186
71 108 186
71 107 168
70 107 178
68 104 178
71 107 168
73 110 186
68 104 148
71 108 178
73 109 178
71 108 178
69 106 168
68 105 168
71 108 178
71 106 148
70 107 178
70 108 186
70 106 148
71 107 168
72 108 178
73 110 186
72 109 178
72 107 158
70 107 178
69 107 178
70 108 186
70 107 168
68 105 168
71 107 158
69 105 158
69 105 158
70 106 158
72 109 186
71 107 168
71 108 178
70 107 178
71 108 178
65 100 136
70 107 178
70 106 148
72 109 178
72 109 186
75 111 186
68 104 148
70 106 158
66 103 158
66 103 148
74 110 178
68 105 168
69 107 178
69 105 148
70 106 158
70 107 178
73 109 178
73 110 186
71 108 186
68 105 158
71 108 168
72 109 186
72 109 186
71 107 168
69 104 136
72 108 178
70 106 168
68 105 158
72 109 178
69 105 148
71 108 178
71 107 158
71 106 158
69 107 178
69 106 168
72 108 158
67 103 148
71 109 186
67 104 158
72 109 178
66 102 136
68 104 148
71 106 148
73 109 178
72 109 186
70 107 178
72 109 186
70 107 178
70 107 168
70 107 178
64 98 158
69 105 158
68 103 136
73 109 168
72 109 186
69 105 158
73 110 178
71 107 158
69 104 148
70 105 148
67 104 148
63 99 148
70 106 168
71 107 168
73 110 178
73 110 178
71 105 160
72 108 168
72 109 178
72 108 178
68 102 138
74 110 178
70 106 158
69 105 148
71 107 168
67 103 148
70 105 148
68 104 148
66 100 136
67 102 158
71 107 158
70 105 150
73 109 178
67 101 168
66 97 128
69 102 138
97 115 111
70 76 45
92 89 52
103 102 43
86 77 0
119 118 0
31 41 0
93 95 52
64 67 31
124 121 43
60 61 11
73 70 43
68 70 0
111 108 65
113 110 43
77 80 0
119 115 59
90 90 47
101 99 43
70 72 34
75 77 31
45 57 31
94 90 0
107 108 59
92 93 49
128 127 52
84 89 43
137 135 59
75 75 45
100 99 23
128 126 43
147 137 71
100 103 47
143 139 68
117 111 0
106 107 31
90 90 47
121 119 65
130 126 52
143 140 65
136 133 43
131 127 65
144 136 71
103 101 43
160 150 89
137 134 65
143 136 65
136 134 52
86 95 43
118 113 71
152 147 93
111 111 76
153 148 73
130 124 11
156 148 81
116 117 43
114 112 43
151 148 43
159 151 81
139 134 59
130 125 59
145 139 59
135 133 43
122 117 43
132 127 59
154 145 81
166 159 71
144 138 71
144 140 0
121 119 43
127 119 59
148 147 43
146 142 43
136 132 43
159 155 71
164 156 59
156 152 43
132 123 43
154 146 71
159 152 71
175 170 81
171 163 71
157 152 59
129 122 59
142 138 43
157 152 59
158 150 71
154 150 43
140 136 59
119 117 0
171 161 89
164 159 59
165 160 71
163 157 81
177 171 81
168 160 89
173 167 59
162 158 59
162 158 59
156 152 59
159 155 71
128 123 71
150 146 0
141 134 43
130 127 0
148 143 59
152 146 43
154 153 43
155 152 59
102 98 43
141 136 43
142 138 0
159 151 81
145 138 43
157 152 59
134 131 43
126 121 43
153 149 43
163 154 81
143 135 59
136 131 43
142 138 0
185 203 148
197 215 148
174 197 89
183 203 123
189 210 123
197 215 148
191 210 123
185 203 89
186 208 123
191 210 123
186 206 89
189 209 123
161 184 0
174 196 89
196 214 148
187 207 89
192 211 123
184 204 123
194 212 123
203 219 168
172 190 89
181 199 89
188 205 148
189 208 89
200 218 168
177 201 0
177 197 89
184 206 89
195 213 148
201 216 168
197 215 148
185 206 89
184 202 123
176 197 89
180 202 0
180 199 89
179 201 0
160 184 0
181 202 0
172 193 0
163 186 0
168 188 0
177 197 0
164 186 0
171 194 0
175 196 0
172 195 0
183 204 0
173 192 0
155 177 0
179 202 0
180 202 0
179 202 0
182 203 0
181 203 0
176 197 0
154 170 0
178 201 0
139 164 136
69 102 148
68 104 148
70 105 136
63 97 123
71 106 158
70 106 168
72 108 168
67 103 136
70 106 168
68 104 148
70 106 148
70 106 168
70 108 186
67 104 148
70 107 168
70 106 168
69 105 158
71 107 158
70 106 158
69 104 178
71 107 168
71 108 178
69 106 168
70 108 186
71 107 158
72 108 168
71 108 178
70 107 178
72 107 158
68 102 158
68 105 168
74 110 178
71 108 178
68 104 173
70 106 168
69 106 168
70 107 168
69 106 168
70 107 186
73 110 186
70 107 178
68 105 168
71 108 178
65 101 168
69 106 168
70 107 178
70 107 178
73 110 186
71 108 186
72 109 186
74 111 186
64 100 168
70 108 186
71 108 168
70 107 178
71 108 178
70 107 168
71 107 168
71 108 178
71 108 178
69 105 158
73 110 178
64 100 168
69 104 178
68 103 168
70 107 168
68 105 168
71 108 178
69 106 168
66 101 158
69 106 168
69 107 186
69 107 178
71 108 186
69 107 186
69 107 178
69 105 158
70 106 158
70 108 178
73 110 186
72 108 168
74 111 186
69 106 168
64 100 148
69 104 168
71 108 178
72 108 178
70 106 158
72 109 186
66 100 148
68 105 158
72 109 186
68 105 168
74 111 186
72 109 178
71 108 186
71 108 178
70 108 186
73 110 186
68 106 168
68 103 178
71 107 168
70 106 158
71 108 178
73 109 178
71 108 178
71 108 178
70 107 178
68 106 178
69 106 158
70 105 178
68 105 168
70 106 158
68 104 148
71 108 178
69 106 178
68 104 158
70 107 168
71 108 178
68 105 168
66 103 158
71 108 186
69 105 158
71 107 168
71 108 178
69 105 158
73 110 178
71 107 158
73 110 186
72 108 168
70 106 168
70 107 178
71 108 186
71 109 186
70 108 186
71 108 178
71 108 178
70 107 168
72 109 186
69 106 168
71 107 168
70 107 168
72 108 168
69 106 178
72 109 178
72 108 178
66 101 158
72 108 168
70 106 158
66 101 158
70 106 158
69 106 178
71 108 178
68 106 178
70 106 158
72 109 178
72 109 178
69 106 168
69 106 168
69 106 178
69 106 168
69 105 158
72 108 158
73 110 178
70 107 178
65 102 168
72 108 158
70 107 178
72 109 178
69 106 168
74 110 178
69 106 158
68 105 158
70 106 158
71 108 168
69 104 158
72 109 178
69 106 158
71 108 186
69 106 168
70 107 178
65 100 158
72 107 148
72 108 168
71 106 160
68 105 168
70 106 158
72 108 178
71 107 158
70 107 178
71 108 168
70 106 158
73 110 178
67 103 150
73 109 178
72 109 178
71 108 178
71 109 186
73 109 178
71 107 158
68 105 168
70 106 158
66 101 158
66 103 148
71 106 160
72 109 186
71 108 178
66 102 158
70 106 148
67 102 123
70 107 168
67 100 150
71 107 168
71 107 158
64 98 136
67 102 158
67 101 136
67 103 136
65 101 159
59 88 138
35 43 40
91 91 43
7 13 0
96 96 0
104 103 43
126 122 68
61 64 31
108 100 59
31 41 31
62 62 15
109 105 43
28 39 0
74 76 0
81 82 34
97 96 0
97 95 23
105 99 43
63 64 0
69 74 25
67 67 32
84 88 0
137 133 71
91 94 43
101 101 47
81 84 59
112 110 43
108 105 59
111 107 59
113 111 65
76 73 0
106 103 15
69 66 47
82 80 15
147 143 83
134 130 60
124 124 71
130 125 59
63 71 0
133 130 59
139 136 59
139 136 59
126 122 71
97 95 59
101 100 52
135 131 68
144 141 62
119 110 59
144 140 65
125 123 47
137 134 71
116 112 43
100 102 0
135 128 52
164 161 71
149 144 71
124 121 43
127 123 43
164 158 71
154 149 71
133 129 52
134 130 43
164 159 76
154 148 76
143 139 43
105 101 65
141 136 59
82 82 23
158 151 71
168 163 71
149 144 59
147 140 59
169 163 81
162 156 43
173 168 71
154 146 59
148 144 71
158 150 71
120 116 59
170 165 59
165 159 81
160 154 71
140 138 43
167 161 71
164 159 43
165 159 59
133 130 43
134 132 43
136 130 59
155 151 59
158 152 59
171 163 59
119 117 0
117 111 43
148 146 43
154 148 71
150 145 59
162 153 81
155 152 59
162 156 43
121 118 0
164 157 81
158 152 43
157 152 43
151 148 43
150 145 43
150 147 43
148 144 59
159 153 59
135 129 43
125 121 43
180 172 81
130 125 43
135 131 43
146 143 59
127 122 43
156 153 0
124 113 43
165 157 81
133 126 59
161 158 59
147 146 43
185 206 89
203 221 186
163 186 89
181 203 0
187 206 148
185 206 89
195 213 148
195 214 148
196 215 168
191 211 123
201 218 168
180 202 0
197 215 148
174 193 89
188 207 89
192 210 168
178 202 89
193 213 148
188 209 123
188 209 123
191 210 123
180 203 89
189 207 148
172 193 0
177 197 89
183 205 89
185 206 89
189 209 123
200 218 168
196 214 148
172 194 0
173 193 0
205 221 186
207 221 217
192 208 148
150 169 89
181 200 123
186 206 89
182 203 0
168 191 0
186 205 0
177 197 0
171 192 0
171 192 0
168 191 0
170 190 0
171 193 0
173 195 0
180 202 0
177 201 0
178 201 0
175 194 0
180 202 0
173 196 0
178 201 0
176 200 0
178 201 0
166 186 0
162 182 89
73 110 186
70 106 158
70 106 158
68 104 148
69 104 158
65 98 158
71 107 158
73 109 168
70 107 168
71 108 168
72 108 168
67 102 158
70 106 158
70 106 158
69 106 158
70 106 158
68 104 148
72 108 178
68 105 158
68 105 158
70 107 178
68 105 168
70 108 186
71 108 178
64 99 136
71 108 168
69 107 186
67 102 158
72 109 186
69 106 168
69 107 178
70 107 168
71 109 186
70 108 186
65 100 148
69 106 158
67 104 148
70 107 178
70 108 186
70 105 178
72 109 186
66 101 168
68 103 168
70 107 178
70 107 168
71 108 186
73 110 186
71 108 186
69 106 168
70 108 186
67 103 178
69 106 168
74 111 186
68 103 168
73 109 178
71 108 178
73 110 178
65 100 148
71 108 178
68 105 158
69 104 168
69 105 158
72 109 178
70 107 168
74 110 186
70 107 168
69 103 168
73 110 186
72 109 186
66 102 153
72 108 168
71 108 178
70 107 168
68 105 158
70 107 168
69 106 168
70 107 178
73 110 186
73 110 186
67 101 158
72 108 168
71 109 186
71 107 158
69 107 186
69 106 168
70 107 178
71 108 178
70 106 168
73 110 186
72 108 178
69 106 168
71 108 178
71 109 186
74 109 168
70 107 168
70 107 168
68 105 168
70 107 168
70 107 178
70 107 178
72 109 178
70 107 178
70 107 168
68 104 148
67 103 136
70 107 168
71 107 158
70 107 168
69 107 178
70 106 168
70 107 178
73 110 186
71 108 178
70 107 178
70 107 168
70 107 168
73 110 186
73 110 186
71 108 178
73 110 186
72 109 186
70 108 186
70 106 168
71 107 158
70 107 178
70 106 158
68 105 158
70 107 168
68 105 158
71 109 186
72 108 168
73 110 186
68 103 136
73 110 186
72 108 168
74 110 178
73 109 178
71 107 168
67 103 136
70 107 178
70 107 178
70 107 178
71 108 178
68 105 168
70 106 158
69 106 168
73 109 178
70 107 178
68 105 168
69 105 158
71 106 158
69 105 158
73 109 178
66 102 168
68 105 158
71 108 178
71 107 168
69 106 158
69 104 148
70 107 178
69 106 168
65 100 148
69 106 168
70 107 178
71 107 168
71 108 178
70 107 178
74 110 168
69 106 178
70 108 186
72 109 186
71 107 168
75 111 186
71 108 178
70 107 168
71 108 178
69 105 158
73 110 186
69 105 148
71 107 158
70 106 158
73 109 178
71 107 158
68 105 168
70 106 148
73 110 186
71 107 158
68 105 158
71 107 168
72 108 168
69 105 158
69 106 158
72 108 178
68 103 158
73 109 178
74 111 186
73 109 168
72 109 178
64 98 168
69 106 158
70 107 168
69 105 168
69 107 178
72 108 168
72 108 178
71 107 158
67 100 136
72 109 178
67 101 150
69 105 158
71 107 158
73 109 178
68 102 148
70 107 168
70 104 158
62 94 136
69 103 150
68 104 158
64 98 150
95 116 162
88 86 43
82 78 15
65 67 0
110 106 59
132 127 43
79 77 0
107 102 43
87 91 52
65 65 5
94 97 52
85 80 47
81 87 31
65 71 34
115 109 43
66 75 32
92 86 43
78 79 0
89 96 52
31 44 0
95 95 0
100 104 31
98 97 0
101 102 32
82 86 0
82 88 43
113 115 31
105 105 59
98 101 31
111 108 62
105 101 0
136 133 65
124 123 43
97 100 24
107 104 0
98 103 34
110 113 43
124 122 65
110 108 52
143 140 47
126 127 52
99 103 31
120 119 0
139 135 52
80 83 31
124 119 52
114 114 15
143 137 59
105 106 23
148 142 71
125 121 43
128 125 62
158 152 59
145 140 71
151 148 76
137 135 52
134 126 73
119 117 47
139 134 62
139 136 65
139 134 59
166 161 71
105 105 31
134 131 73
168 161 81
123 123 43
150 145 71
158 150 81
170 164 81
160 157 59
154 150 59
155 148 59
150 143 81
166 158 81
150 143 81
171 162 81
142 138 59
155 151 59
157 150 81
135 132 59
152 145 71
144 141 43
155 151 59
169 160 89
159 157 43
132 127 0
153 146 71
178 169 97
152 145 43
155 150 43
156 151 59
141 132 59
160 154 71
166 161 71
166 158 81
156 149 43
139 135 59
145 140 59
162 156 81
151 144 59
115 111 0
158 152 71
112 110 0
96 91 0
171 163 71
140 138 43
139 134 59
148 143 59
144 138 71
167 161 71
118 116 0
143 137 43
132 129 43
156 146 59
173 165 81
158 150 81
131 129 43
161 158 59
147 143 59
140 135 43
145 140 71
137 131 59
188 209 123
184 205 89
182 203 0
188 208 89
183 204 0
188 208 89
188 209 123
192 211 123
183 205 89
186 203 123
181 203 0
184 206 89
186 207 89
191 211 123
180 199 123
184 206 89
191 210 123
190 210 123
188 209 123
180 202 0
200 216 148
181 202 123
187 208 123
182 204 89
188 209 123
189 209 123
193 212 148
175 200 0
192 211 123
193 211 123
191 211 123
172 191 89
194 213 148
188 205 148
191 210 123
204 220 168
186 205 148
187 208 123
190 207 123
204 220 168
199 217 168
188 208 89
178 199 89
171 193 0
177 201 0
180 202 0
177 201 0
163 182 0
171 194 0
162 184 0
174 195 0
180 202 0
156 179 89
157 180 108
152 175 0
163 183 0
169 189 0
179 202 0
139 162 108
69 106 158
71 107 168
70 107 168
73 108 168
70 106 148
70 106 148
68 103 153
70 107 168
69 107 178
65 101 168
69 106 168
73 110 178
74 111 186
68 104 136
69 104 178
68 105 158
69 106 168
70 107 186
71 106 158
73 110 178
67 102 158
63 98 136
69 106 158
68 103 168
65 98 168
69 105 148
71 108 186
67 103 163
70 107 178
72 109 186
69 106 168
72 108 168
71 108 178
70 106 168
68 102 158
70 107 168
67 101 148
69 105 158
72 109 186
70 106 158
71 108 178
72 109 186
67 104 148
70 107 168
65 99 168
71 108 178
72 109 178
69 106 168
70 107 178
66 101 158
67 104 158
70 107 168
66 103 178
71 109 186
69 107 186
71 108 178
74 110 178
73 109 178
70 106 168
69 106 178
71 108 178
72 109 186
70 106 158
74 110 178
72 108 178
72 108 178
69 106 178
70 107 168
71 108 186
72 109 186
72 108 178
72 109 178
71 108 168
71 107 158
68 103 158
69 107 186
71 108 186
70 106 158
69 104 136
68 103 178
71 108 186
69 106 178
72 108 178
70 106 168
72 108 168
69 106 168
71 108 178
69 105 158
70 106 158
70 108 178
67 104 158
72 108 168
71 108 186
69 104 178
73 110 186
70 106 168
69 106 158
70 106 178
70 108 178
72 108 178
69 105 148
69 104 168
71 108 168
69 106 168
71 109 186
69 106 168
69 106 178
72 109 178
70 107 178
71 108 178
68 105 168
72 108 168
69 105 148
70 107 178
68 105 158
71 108 168
69 105 148
69 107 186
71 108 178
72 108 168
69 106 178
69 105 148
70 106 158
66 103 148
68 105 168
74 111 186
68 105 158
72 109 186
73 109 178
70 106 158
70 108 186
73 110 186
70 107 178
73 109 168
70 107 168
70 105 148
69 106 168
68 105 158
71 108 178
71 107 168
71 107 168
70 107 168
73 110 186
71 108 186
69 104 136
69 106 168
70 107 178
72 108 168
70 107 178
72 109 186
69 106 168
70 107 178
69 106 168
71 109 186
70 107 168
70 106 158
71 108 178
72 107 158
69 105 158
73 110 186
69 105 148
69 106 158
70 106 158
69 105 158
67 103 136
66 103 148
70 106 158
72 108 178
72 108 168
69 105 158
71 107 178
71 107 168
72 109 178
72 109 186
71 107 168
72 106 158
73 110 178
71 107 168
73 109 168
72 108 168
72 109 178
71 108 168
73 110 186
73 109 178
70 106 158
69 104 148
71 108 168
69 105 148
72 108 168
67 104 148
72 108 178
70 106 168
74 110 186
71 108 178
68 103 150
73 109 178
72 109 178
72 108 168
72 106 150
71 106 148
65 99 136
70 106 158
67 100 123
70 106 158
71 106 168
65 101 148
69 104 136
71 107 168
68 104 148
68 102 148
70 107 168
67 102 148
69 105 178
69 104 158
70 106 168
62 91 114
67 100 150
65 99 138
67 101 123
65 98 150
88 89 23
92 90 43
56 58 0
89 89 43
47 63 31
72 70 43
114 108 45
65 63 0
110 102 43
81 80 15
76 76 0
62 67 37
28 37 23
67 69 0
142 139 59
97 99 11
71 81 34
42 52 31
89 82 0
111 108 43
78 77 0
126 120 65
149 143 71
130 121 43
88 86 43
146 140 76
117 113 43
79 80 0
96 100 31
94 93 0
82 86 0
116 111 43
136 130 65
85 88 15
103 102 43
109 112 0
104 107 0
142 136 59
136 132 73
108 109 0
139 136 81
114 108 59
153 148 76
143 136 59
154 145 81
133 127 59
155 152 59
108 108 0
135 132 43
161 156 76
157 153 59
108 106 52
131 125 59
125 118 62
92 91 0
121 116 59
146 141 71
146 143 43
158 152 59
156 151 59
141 137 52
113 111 43
145 139 71
144 142 43
149 144 71
144 138 71
153 150 43
162 157 71
163 158 59
116 114 43
141 136 59
146 140 59
132 129 43
163 153 71
147 144 59
158 151 71
144 141 0
172 164 59
148 143 59
144 139 71
126 124 0
150 144 59
163 158 59
163 158 59
145 144 0
155 147 43
158 151 59
139 136 43
122 119 0
135 132 43
121 116 43
157 155 43
162 152 71
114 113 0
121 119 43
153 150 59
141 138 43
182 171 89
142 139 43
119 114 59
136 128 43
127 123 59
160 155 43
173 166 71
115 112 43
116 116 0
142 136 59
143 137 43
132 130 43
143 141 0
141 135 43
132 125 43
155 150 43
142 137 43
125 118 0
146 142 59
159 153 59
146 143 0
144 140 0
154 150 59
140 135 59
186 207 89
186 204 148
187 208 123
189 209 123
182 205 89
194 213 148
186 208 123
183 204 0
192 210 89
185 206 89
194 213 148
180 202 0
192 212 148
183 205 89
180 201 123
184 204 123
187 207 89
179 199 89
189 209 123
202 219 186
186 207 89
181 204 89
185 206 89
175 196 0
200 218 168
180 202 0
197 215 148
196 213 168
185 207 123
186 207 89
191 211 148
191 207 186
175 199 0
191 210 123
187 207 89
195 214 148
190 209 89
186 205 148
191 212 148
187 206 148
186 203 123
176 196 0
169 189 89
190 210 123
183 204 0
182 202 123
177 200 0
181 203 0
174 195 0
173 195 0
173 194 0
175 197 0
129 155 148
111 139 108
147 171 108
100 128 136
102 130 136
155 178 0
110 133 0
66 101 148
72 109 178
69 104 136
71 107 168
65 101 148
73 110 186
67 104 158
71 108 178
69 105 158
74 110 186
69 103 168
72 107 158
66 101 153
67 101 148
68 103 136
70 107 178
69 104 168
64 98 153
71 107 168
68 103 136
70 106 158
66 103 148
67 102 158
66 102 168
71 108 178
70 107 178
70 107 178
72 108 178
69 104 136
69 103 158
70 107 178
70 106 168
71 108 178
67 102 168
72 108 178
69 103 168
70 108 186
69 107 178
70 108 186
69 106 168
72 107 158
70 107 168
70 106 158
71 108 178
71 107 158
65 101 153
73 109 178
70 106 168
67 103 178
68 104 178
70 105 178
70 104 168
70 107 178
65 100 158
72 108 178
69 106 168
71 108 178
71 108 178
71 108 178
66 101 158
69 105 148
71 109 186
71 108 178
70 107 178
68 105 158
71 109 186
70 108 186
69 105 148
69 106 168
71 107 158
71 108 178
72 109 186
66 102 178
72 108 168
72 109 178
72 109 186
71 108 178
72 109 178
69 105 158
70 107 178
70 106 168
71 108 178
70 107 168
69 106 168
65 100 158
70 107 178
71 107 168
67 103 148
68 103 163
67 104 168
71 108 168
68 104 148
71 108 178
70 107 178
70 108 186
69 106 168
71 107 168
71 106 178
71 108 168
72 109 186
66 102 168
71 106 168
68 103 168
70 107 178
74 111 186
60 92 108
72 108 168
70 106 168
72 108 168
71 108 178
70 107 178
72 108 168
69 106 168
70 107 168
68 106 186
69 105 148
74 111 186
69 105 148
71 108 178
71 108 178
71 106 158
70 108 186
70 106 158
71 107 168
71 108 168
71 108 178
71 109 186
71 109 186
69 106 158
71 108 186
70 107 168
71 108 178
68 105 158
70 107 168
68 105 168
69 107 178
72 109 186
71 108 178
71 108 178
73 109 178
70 107 168
68 104 158
71 108 178
70 107 178
73 109 178
70 107 178
73 110 186
69 105 158
71 107 168
69 106 168
72 109 178
69 106 178
71 108 178
73 109 168
66 102 136
68 105 158
71 109 186
71 108 186
69 106 158
73 110 186
73 110 186
73 109 178
69 106 168
71 107 158
71 108 178
71 108 168
70 107 168
71 107 168
71 107 158
70 106 168
72 109 186
68 105 158
70 107 168
67 103 148
72 108 178
68 105 168
68 104 148
72 108 168
73 110 178
68 105 158
66 101 148
75 111 186
67 105 168
69 103 158
69 104 136
71 107 168
72 108 168
73 110 186
70 107 168
69 106 168
73 109 178
69 105 148
74 110 178
71 108 178
63 98 123
69 105 158
72 109 178
69 106 168
67 104 158
70 105 136
70 106 158
70 107 168
70 105 150
70 105 148
64 98 123
70 107 168
70 107 168
73 108 158
70 106 158
63 97 168
72 108 158
69 105 136
64 97 150
69 104 160
71 106 168
67 103 168
71 107 179
68 103 162
67 100 111
60 90 123
65 67 0
90 91 49
87 86 0
95 97 32
27 38 23
118 120 5
116 110 43
88 82 18
62 64 0
62 63 0
110 106 65
96 95 0
91 89 31
61 63 0
93 93 59
32 39 15
71 77 43
70 75 0
78 80 0
66 67 0
114 109 59
99 95 43
118 117 52
60 62 31
143 138 62
89 82 0
92 92 44
119 113 0
106 104 52
62 69 0
110 103 47
127 126 31
138 134 81
146 139 81
151 144 59
97 97 25
96 99 43
74 73 0
124 124 43
106 105 45
106 100 45
52 68 31
92 91 45
111 111 43
111 110 43
121 118 59
150 143 81
133 131 43
163 156 73
115 115 0
158 150 81
138 132 71
115 110 0
138 134 62
158 151 73
158 152 59
151 145 59
164 161 65
120 120 0
143 141 43
150 142 62
143 138 59
150 146 43
144 138 71
162 156 59
166 161 73
154 151 43
135 132 43
158 151 81
132 131 43
146 145 43
154 149 43
131 128 43
162 153 71
158 153 0
172 167 71
146 141 43
157 151 71
130 126 43
166 158 81
131 125 43
164 156 59
150 147 43
148 143 59
163 158 59
136 132 0
122 116 43
150 146 0
160 154 71
145 141 0
149 143 59
159 154 71
125 121 43
157 150 59
163 159 59
103 100 0
157 149 81
113 112 43
154 148 71
157 154 43
138 134 59
127 119 71
170 164 81
177 170 71
129 127 0
136 132 0
153 148 43
162 152 71
148 143 59
146 142 59
126 121 43
163 159 59
155 148 71
149 142 81
166 158 81
167 161 43
166 158 59
145 137 43
172 165 71
154 150 59
118 116 0
183 205 89
183 204 0
175 196 89
187 207 89
188 209 123
176 196 148
188 209 123
181 204 89
180 202 0
181 203 0
186 207 89
188 209 123
190 210 123
178 201 0
186 207 89
191 210 123
178 201 0
192 212 148
201 218 168
179 198 89
191 211 148
181 203 0
179 202 0
184 206 89
181 200 89
185 206 89
188 206 123
182 203 0
188 207 89
204 221 186
186 207 89
191 210 123
179 198 89
189 209 123
192 212 148
185 206 89
189 209 123
186 206 148
188 209 123
182 201 123
187 207 89
199 217 168
187 206 148
177 197 89
176 198 89
191 208 148
178 196 123
194 212 123
180 200 89
161 185 0
163 186 0
180 202 0
176 200 0
152 174 123
131 155 136
149 172 89
139 164 136
126 152 136
127 149 89
117 143 123
102 129 148
70 106 158
68 105 158
68 105 158
73 109 178
71 108 178
70 106 158
69 103 158
68 104 148
68 105 158
71 107 168
70 104 158
71 107 158
73 109 178
70 107 168
71 107 168
73 109 178
70 106 158
66 102 168
69 106 168
69 106 168
69 106 168
67 102 123
70 107 168
68 103 168
70 107 168
72 109 186
68 102 173
66 102 168
71 108 178
69 106 168
66 100 148
71 108 186
68 103 168
70 107 168
71 108 178
71 108 178
72 109 186
75 111 186
70 107 168
66 102 148
74 110 186
69 105 158
67 101 173
68 105 168
73 110 178
71 107 168
68 103 168
69 107 186
71 108 186
73 109 168
69 107 178
66 102 168
72 109 178
69 104 168
71 108 178
71 108 178
68 105 158
68 103 178
67 103 178
72 108 178
69 106 168
71 108 186
70 107 168
70 107 178
74 110 178
72 109 186
65 100 158
70 107 178
70 107 168
69 105 148
72 109 186
70 107 178
67 104 148
67 104 158
69 105 158
69 107 178
71 108 178
66 102 153
68 106 178
72 108 178
71 108 178
70 107 168
69 106 178
68 105 158
72 109 186
72 109 178
71 108 178
72 108 178
67 102 168
68 105 158
73 110 186
70 107 178
71 108 178
70 107 168
69 106 158
71 108 178
72 109 178
72 109 186
69 105 158
71 109 186
70 107 178
71 107 168
72 109 178
68 105 168
69 107 178
70 107 178
72 108 168
70 106 168
72 109 178
71 108 178
73 109 178
70 106 148
71 108 168
68 104 173
70 105 178
70 107 178
71 107 168
70 107 178
70 106 168
69 106 168
69 106 158
75 111 186
69 105 148
72 108 178
69 104 136
73 110 186
69 106 178
71 108 178
70 107 168
70 107 178
71 107 168
69 106 168
70 106 158
68 104 148
69 106 168
71 107 168
72 108 168
68 105 158
69 106 168
71 108 178
71 107 168
69 105 158
71 107 168
71 108 178
69 105 148
71 107 158
69 104 168
69 105 158
73 110 186
70 106 158
71 108 186
71 107 168
71 106 158
70 106 158
68 104 148
69 105 158
70 106 158
70 107 168
71 107 168
72 108 168
70 107 168
72 108 158
72 109 186
69 105 148
70 107 168
73 110 178
71 107 168
71 107 168
70 107 178
71 108 178
67 103 136
70 108 186
68 103 123
70 107 178
69 106 168
68 104 148
71 108 178
71 107 158
72 109 178
69 107 178
74 110 178
70 107 168
70 105 148
74 110 178
67 104 158
73 109 178
71 107 158
70 105 136
73 109 168
70 106 158
71 106 158
71 107 168
68 104 148
68 104 148
70 105 148
65 100 108
71 107 168
69 106 168
70 105 168
72 107 168
68 104 168
72 108 178
71 107 158
71 107 168
70 105 160
70 105 160
62 93 138
67 100 138
67 103 136
67 100 148
72 109 178
72 107 158
70 107 168
70 104 150
72 109 178
69 104 150
55 78 93
76 99 108
72 69 43
96 94 0
89 88 43
80 80 0
117 116 0
86 86 31
95 96 43
105 105 11
59 61 0
95 93 15
99 103 31
97 94 15
71 68 43
110 109 52
100 96 43
126 123 43
123 117 0
76 76 53
117 115 47
59 61 0
83 82 0
79 80 15
24 30 0
103 96 43
100 98 0
98 96 65
134 128 59
102 102 43
94 96 45
110 109 0
103 103 0
127 124 43
131 127 59
96 96 31
93 97 0
102 99 47
97 98 0
134 128 71
93 97 59
140 135 43
95 92 43
102 100 43
114 111 65
117 116 31
145 139 68
131 130 65
145 140 43
140 134 59
139 135 43
149 146 59
127 121 43
139 135 43
141 134 73
126 123 43
151 145 81
138 137 23
127 123 43
137 130 71
132 130 0
141 138 59
158 153 59
152 145 43
125 120 43
163 157 43
175 166 71
125 122 23
174 166 71
169 163 59
153 146 71
157 151 71
134 131 43
141 133 0
162 154 81
156 151 59
154 148 71
160 151 59
152 148 43
149 143 43
147 138 43
140 135 43
118 116 0
135 132 43
160 152 43
141 136 59
168 165 59
159 154 71
156 152 43
152 144 71
159 151 71
149 147 0
161 155 71
147 141 59
170 165 59
147 143 43
144 140 43
149 144 59
149 143 59
151 143 71
150 145 43
151 146 71
126 122 43
155 151 0
159 154 71
129 125 43
138 130 59
165 157 81
133 127 43
147 140 59
143 136 43
167 161 71
136 134 43
154 148 59
140 136 0
98 91 43
146 138 43
124 120 0
145 141 59
133 127 43
151 143 71
124 121 0
161 154 71
187 207 89
195 214 148
176 200 0
188 207 89
170 192 0
188 209 123
174 194 0
190 210 123
194 212 123
182 203 0
186 207 89
181 203 0
176 196 89
180 202 0
181 204 89
191 210 123
178 201 0
176 200 0
183 205 89
179 202 0
180 204 89
186 207 89
191 210 123
179 202 0
181 203 0
182 205 89
180 203 89
187 208 123
194 213 148
188 208 89
194 213 148
181 202 123
191 211 123
188 209 123
192 212 148
190 210 123
172 194 0
189 209 123
182 203 0
174 195 0
195 214 148
189 208 168
177 196 123
179 200 89
193 212 123
195 211 148
180 200 89
189 206 148
179 199 123
190 210 123
169 187 89
178 197 89
173 196 0
165 187 65
147 171 123
138 160 108
125 150 108
127 149 89
124 149 123
135 159 108
113 141 123
122 146 136
93 123 158
67 104 158
66 100 148
68 104 148
68 105 168
73 109 178
69 106 158
73 109 178
66 101 158
68 104 158
68 104 136
68 106 168
70 106 148
70 105 148
70 107 178
64 99 148
72 109 178
72 108 168
70 106 148
70 107 168
69 105 158
69 106 168
70 106 158
68 103 168
71 107 158
71 108 178
68 105 158
69 104 178
70 107 168
74 110 186
71 108 178
68 102 158
69 107 186
69 106 158
70 105 178
70 107 178
69 105 158
69 106 168
70 107 178
69 104 168
73 110 186
69 106 168
72 109 186
70 107 186
71 108 178
65 101 168
70 107 168
72 109 178
72 109 186
69 107 178
68 105 168
70 107 168
71 108 178
66 102 168
70 108 186
69 105 148
69 106 178
73 110 186
67 103 178
72 108 178
68 106 178
71 107 168
70 106 158
69 104 168
71 107 168
70 107 178
66 102 168
71 108 178
71 108 178
69 106 168
70 107 168
71 107 168
71 108 178
68 104 168
70 108 186
71 106 173
70 107 168
70 105 148
73 109 178
70 106 158
72 109 178
69 105 158
69 106 178
70 107 178
74 111 186
69 106 168
73 109 178
68 104 148
72 109 186
71 108 178
69 105 158
70 107 178
68 103 168
71 108 186
73 109 178
71 108 186
70 105 148
70 107 186
64 100 168
71 107 158
72 108 178
67 103 158
70 107 186
68 105 158
71 108 178
69 107 186
71 108 178
72 108 168
69 107 178
69 106 168
69 105 148
70 107 178
71 109 186
70 107 168
72 109 178
68 105 158
69 105 158
69 106 178
74 110 178
72 109 178
71 107 158
65 99 136
69 105 158
70 107 178
72 108 178
71 108 178
71 108 178
71 108 178
69 105 158
71 109 186
71 107 158
69 105 158
70 106 158
68 104 148
67 103 158
70 107 168
71 107 168
68 105 168
70 106 168
73 110 178
68 104 148
67 103 136
71 108 178
66 102 168
71 108 178
71 108 178
70 107 178
73 109 178
71 108 186
70 107 168
70 108 186
70 106 158
68 105 168
70 107 178
70 106 168
71 107 158
66 102 168
69 106 168
70 105 148
71 108 178
71 108 178
71 107 168
69 105 158
69 103 168
70 107 168
71 107 158
69 104 168
71 107 158
71 107 168
67 102 158
71 108 186
70 106 158
71 108 186
70 106 158
71 107 168
72 109 178
70 107 168
70 106 158
72 108 178
71 107 158
69 106 168
68 105 168
70 107 178
74 110 178
68 104 148
73 109 178
71 107 168
69 105 158
72 108 178
72 109 178
71 109 186
70 106 158
71 107 158
70 107 178
72 109 178
66 102 136
69 106 158
65 99 123
62 95 108
74 110 178
75 111 178
65 100 158
68 105 158
65 100 136
68 104 148
68 102 158
72 107 160
63 96 125
66 98 138
68 105 158
66 100 123
71 105 150
67 101 158
64 97 138
63 93 138
70 106 158
78 102 111
116 113 43
65 64 0
91 88 8
100 97 43
103 100 0
76 77 31
81 78 0
91 86 43
85 80 43
132 127 59
126 123 43
79 82 52
92 93 43
45 47 0
91 81 0
61 66 0
95 90 43
106 104 47
115 115 52
135 129 71
26 36 0
120 117 0
73 72 43
93 87 47
128 125 52
132 129 59
127 121 71
81 84 31
96 95 0
130 126 52
106 107 52
94 96 52
149 143 59
108 106 0
116 113 43
124 119 65
130 128 59
134 132 43
147 142 31
153 147 65
71 67 43
154 147 82
132 130 43
145 140 71
132 127 31
141 139 43
163 155 89
115 113 43
111 108 43
111 109 43
104 102 47
160 154 43
153 146 59
148 140 59
129 126 62
132 130 43
162 155 71
158 150 81
138 133 59
126 123 43
139 135 59
131 127 59
138 135 59
126 124 43
154 151 43
151 142 81
151 148 43
162 158 59
142 140 0
142 137 0
157 150 71
136 133 59
167 163 43
166 160 59
152 146 59
139 135 59
165 157 81
150 142 43
154 148 71
146 143 0
151 147 43
131 125 43
141 137 0
147 138 81
135 131 43
176 168 81
143 140 43
146 141 43
155 149 59
123 124 0
145 140 43
169 162 71
140 131 59
141 138 0
156 151 59
146 144 0
162 156 43
130 125 59
141 135 59
138 135 43
139 133 43
155 148 59
147 143 59
132 128 43
129 123 43
146 143 43
154 150 43
139 128 59
115 110 43
108 106 0
173 163 81
99 95 0
124 121 43
137 133 0
135 131 43
134 130 0
153 146 43
144 137 43
116 116 0
131 128 0
157 149 59
187 208 123
190 211 148
186 206 89
189 209 123
183 205 89
181 203 0
183 205 89
177 201 0
183 205 89
184 206 89
184 206 89
186 205 0
185 206 89
179 201 0
179 202 0
189 209 123
188 209 123
180 202 0
187 207 89
195 213 148
177 201 0
186 207 89
184 205 89
181 204 89
177 198 0
183 205 89
189 209 123
181 203 0
182 203 0
186 208 123
188 209 123
181 203 0
189 209 123
173 195 89
191 210 123
187 206 0
182 204 89
180 203 89
184 205 89
177 195 123
177 198 89
177 198 89
181 201 123
176 198 89
189 209 123
182 203 0
196 212 168
182 204 89
179 199 123
192 210 168
192 207 168
182 201 123
183 205 89
167 188 89
185 205 0
156 174 89
143 165 89
126 152 123
126 153 148
133 154 65
128 154 136
119 143 136
109 135 123
71 108 178
114 137 136
89 120 148
70 107 178
68 103 158
68 103 168
71 108 178
69 106 158
72 109 178
70 104 158
70 107 178
69 104 168
69 105 148
67 100 136
63 97 168
70 107 168
70 107 178
72 108 178
70 107 168
68 103 163
69 106 168
70 107 168
68 105 158
72 109 186
71 107 168
68 105 158
70 106 158
70 106 158
71 108 178
67 103 178
69 103 158
69 107 178
72 109 186
67 104 158
70 105 178
71 108 186
70 107 168
65 100 148
67 103 148
66 101 148
70 107 168
70 106 158
70 107 168
63 98 148
67 102 153
71 109 186
70 107 178
69 105 168
67 102 158
66 100 148
70 106 158
68 104 148
72 109 178
70 107 168
69 107 186
71 109 186
70 108 186
73 110 186
68 105 158
71 108 178
69 104 178
65 99 136
71 108 186
68 104 178
68 104 148
67 102 153
71 108 178
74 110 178
70 107 178
73 110 178
67 105 168
67 102 158
71 108 178
71 108 186
65 100 148
69 105 158
70 107 178
71 108 168
71 108 168
73 110 186
71 107 168
68 106 178
70 106 158
70 107 178
70 107 178
71 108 178
72 108 168
74 110 186
69 105 158
70 106 168
68 105 168
71 108 178
69 106 168
73 110 186
70 106 168
65 100 148
70 106 168
71 109 186
75 111 186
68 105 158
67 102 158
68 105 158
69 106 178
69 106 168
66 103 148
67 103 178
70 108 186
70 107 168
71 109 186
71 109 186
69 106 178
73 110 186
68 105 168
70 106 158
71 108 178
72 109 186
75 111 186
71 107 158
69 106 168
73 109 168
71 108 168
71 109 186
68 105 158
69 105 168
70 107 178
70 106 168
69 106 168
72 109 186
69 105 158
71 108 178
71 108 168
73 110 186
69 106 158
71 108 168
70 106 158
67 104 158
71 107 168
72 109 178
71 107 168
71 107 158
71 107 158
69 106 168
72 108 158
72 108 168
70 106 158
70 107 168
69 106 168
71 107 168
74 110 178
70 107 168
69 105 148
72 108 168
70 107 168
73 109 178
71 108 186
73 110 178
70 107 168
72 109 178
69 105 158
72 108 168
71 107 168
70 107 178
69 105 158
71 108 178
73 110 186
68 105 168
69 104 168
72 108 178
68 105 168
71 106 158
72 109 186
68 105 158
72 109 186
72 108 168
69 105 136
71 107 168
70 106 158
72 108 158
67 101 136
71 107 168
70 107 178
70 107 168
70 107 168
66 101 136
73 109 178
68 104 136
69 107 178
71 108 178
71 108 178
69 106 168
69 106 168
71 108 186
70 106 158
72 108 168
71 108 178
66 101 168
65 100 123
72 108 178
68 104 148
70 105 148
69 105 158
70 106 158
69 103 138
65 97 136
73 109 178
67 103 136
68 102 137
66 101 158
63 97 138
66 100 123
71 108 168
64 96 148
58 91 108
64 97 108
69 102 136
79 95 111
75 76 0
80 81 0
100 98 59
93 91 45
115 113 49
59 59 0
17 24 0
108 103 0
29 39 11
114 115 31
116 110 52
64 59 0
57 57 0
125 123 61
111 113 0
87 89 31
37 48 31
88 88 43
82 82 0
92 94 47
111 112 0
103 99 0
104 106 0
99 103 0
117 113 43
98 92 5
109 103 59
106 105 59
138 135 65
85 87 31
124 125 31
117 113 2
92 90 43
112 110 0
98 98 47
122 118 43
138 136 52
119 120 0
126 122 65
117 113 52
125 119 43
108 108 0
166 157 81
104 105 52
94 93 23
160 154 43
148 140 59
160 152 71
129 124 43
99 98 47
134 132 43
125 122 0
143 137 89
127 121 59
136 131 65
151 141 59
147 139 71
160 154 71
152 142 71
144 138 23
152 146 23
100 98 31
142 137 43
158 151 81
137 133 59
117 116 43
148 144 59
132 130 43
144 138 59
142 137 71
148 140 59
123 120 43
120 112 43
146 139 71
150 145 43
133 128 43
123 121 0
147 140 71
147 141 71
150 146 0
163 155 43
160 154 71
129 128 0
147 140 43
133 126 0
144 141 43
134 131 43
111 108 0
146 138 43
173 165 81
130 129 43
149 143 43
164 158 81
127 126 0
137 137 0
143 140 43
155 148 59
110 107 0
146 143 0
145 138 59
140 138 0
159 154 0
136 136 0
131 129 43
100 96 0
135 125 71
115 111 43
144 138 59
145 139 59
115 108 43
125 125 0
146 141 43
160 152 71
141 136 59
138 134 59
128 121 0
136 131 43
131 129 43
132 126 43
120 119 0
132 124 0
204 221 186
218 232 231
202 220 186
218 233 244
217 231 231
214 229 217
218 232 231
212 227 217
221 234 244
223 235 244
211 227 217
220 233 231
213 228 217
211 226 202
204 221 186
198 215 148
196 215 168
194 213 148
184 206 89
176 200 0
190 209 89
185 206 89
182 204 89
182 203 0
187 207 89
179 202 0
178 201 0
190 210 123
181 203 0
186 207 89
189 209 123
187 208 123
188 209 123
192 212 148
179 202 0
190 208 89
187 208 123
192 212 148
185 206 89
180 202 0
187 205 123
178 199 89
171 194 0
179 201 0
176 200 0
192 211 123
194 213 148
177 197 148
180 202 0
195 213 168
191 210 123
191 210 123
184 203 123
188 207 89
190 209 168
179 193 148
148 172 123
135 159 108
148 172 89
149 172 123
142 165 108
147 171 108
115 143 148
127 153 136
113 140 148
112 140 123
106 133 148
72 108 168
64 99 89
69 105 158
70 105 148
70 107 168
70 107 168
68 104 148
68 102 158
71 108 168
71 107 168
66 101 148
70 105 148
65 101 148
67 102 168
68 104 168
68 103 168
65 98 148
71 108 178
67 102 168
69 105 148
65 100 148
74 110 178
69 106 168
71 107 168
69 105 148
68 103 158
69 107 178
64 98 158
70 107 178
68 106 186
68 103 168
72 108 178
72 108 168
64 98 168
70 106 158
71 107 158
69 106 168
66 102 178
66 102 168
68 106 168
71 108 186
71 107 158
70 106 158
69 104 178
72 109 186
70 107 178
71 108 178
72 109 186
68 102 158
66 100 148
71 108 186
70 107 178
71 107 168
65 101 168
65 101 171
71 107 168
70 107 168
71 108 178
72 109 186
71 108 186
69 106 168
66 101 158
70 106 158
60 92 148
66 101 158
67 101 148
71 108 178
72 109 178
71 108 178
71 108 178
68 105 158
70 107 178
68 103 163
72 109 178
70 106 168
70 107 178
71 108 178
67 103 148
73 109 178
69 103 168
71 108 178
69 105 158
71 107 158
70 107 178
70 107 178
71 107 158
73 110 186
74 110 178
69 105 158
71 108 178
68 104 148
72 109 186
72 108 168
68 105 158
70 106 158
71 107 168
70 107 168
70 107 168
69 107 178
69 107 178
71 107 158
71 107 168
74 110 178
72 109 186
68 104 158
68 104 148
69 106 178
72 109 178
66 102 123
72 108 178
74 110 186
66 102 168
71 108 178
68 105 158
71 108 178
71 108 186
72 108 178
71 108 168
67 103 168
71 107 158
69 106 168
70 107 168
70 106 168
73 109 178
70 106 158
71 108 178
67 102 123
70 106 158
69 106 168
70 106 158
72 109 178
67 104 158
71 108 178
71 107 168
72 108 168
70 106 158
69 105 158
72 109 178
72 109 186
69 105 158
74 111 186
74 110 178
70 106 158
72 109 186
71 108 178
72 109 178
71 108 186
71 107 168
71 108 168
73 109 178
68 104 136
72 109 178
73 110 186
71 109 186
71 106 148
72 109 178
70 107 168
68 105 158
69 107 178
72 107 148
70 107 168
73 110 186
70 107 168
69 105 158
72 108 168
72 108 168
70 106 158
70 105 168
70 106 168
72 108 178
71 107 168
74 111 186
72 109 178
71 108 178
69 105 158
72 108 168
72 108 168
64 99 136
68 104 148
71 107 168
69 104 148
71 107 168
70 105 136
70 106 168
72 109 178
68 105 158
70 105 148
72 109 178
70 107 168
70 105 160
71 107 168
73 108 158
71 107 168
67 103 168
73 109 178
70 106 158
61 94 123
73 109 168
69 105 158
70 107 178
67 102 136
66 99 138
67 101 148
66 101 148
69 106 158
64 97 148
70 105 160
68 106 178
70 105 148
69 103 148
69 103 152
74 90 123
88 89 0
90 87 0
70 69 11
86 88 0
79 73 0
84 83 0
94 90 43
93 90 49
107 108 0
100 93 0
39 51 0
82 82 0
121 116 60
105 100 0
92 92 0
22 28 0
127 121 59
103 104 43
113 107 47
113 110 59
113 108 31
94 89 0
125 118 71
116 115 43
119 115 52
85 83 0
38 51 0
80 84 0
36 47 31
127 122 66
130 126 43
141 133 59
57 58 0
126 124 43
110 109 0
124 119 43
134 128 59
124 120 52
93 94 0
138 135 43
121 118 0
100 98 0
131 131 0
112 112 52
140 135 47
162 154 59
111 112 31
115 112 47
112 108 68
141 136 59
140 140 0
147 140 71
136 133 43
128 123 43
138 134 0
131 125 59
92 89 0
140 135 43
106 99 43
130 127 59
141 137 59
172 164 97
145 142 43
133 132 0
138 135 23
149 141 59
147 141 59
121 119 0
127 122 43
141 139 43
159 154 71
130 128 0
148 144 43
154 150 59
148 143 59
125 122 0
151 145 59
135 128 59
135 131 43
136 130 59
156 151 59
121 118 0
139 135 43
132 128 59
140 138 0
148 146 0
143 138 43
141 138 43
156 148 71
154 147 59
142 136 43
137 132 43
160 156 43
130 129 0
141 134 43
106 105 0
148 142 59
117 112 0
157 151 59
136 135 0
156 152 43
153 146 43
143 140 43
123 123 43
109 108 0
172 161 71
151 145 71
126 125 0
124 122 43
155 151 59
134 123 43
147 145 0
170 163 71
101 99 43
142 139 43
127 122 43
117 114 0
141 133 0
132 130 43
148 140 59
146 135 43
217 231 231
224 237 255
227 239 255
220 234 244
227 239 255
227 239 255
226 238 255
224 237 255
227 239 255
222 235 244
220 234 244
227 239 255
223 235 244
226 238 255
226 238 255
227 239 255
223 236 244
224 237 255
218 229 244
221 235 244
218 232 231
219 232 231
209 225 202
202 220 186
187 208 123
198 215 148
185 207 123
196 215 168
187 208 123
188 208 89
179 199 89
184 206 89
192 211 123
186 206 89
189 208 89
181 203 0
185 206 89
186 206 89
184 204 0
182 205 89
202 220 186
181 204 89
185 204 123
185 206 89
192 212 148
187 208 123
187 207 89
183 204 0
202 220 186
189 209 123
195 214 148
183 201 158
149 168 178
104 131 108
100 127 168
123 145 186
102 129 186
68 105 158
92 121 158
112 140 123
105 133 148
102 131 148
113 142 136
156 180 108
118 144 136
112 140 136
137 162 136
118 142 148
120 144 136
71 107 168
68 103 158
70 106 168
76 112 186
70 106 148
68 104 163
72 109 178
68 104 148
68 105 168
66 100 148
65 101 136
71 108 178
70 107 168
71 108 168
71 107 168
68 107 186
64 99 148
69 106 168
68 104 173
69 105 158
70 106 168
57 86 136
70 107 168
70 106 178
74 111 186
71 107 168
69 104 168
67 103 168
67 103 178
63 97 163
65 101 158
68 105 168
72 109 186
63 97 148
66 101 158
67 102 163
73 110 186
66 101 158
67 102 168
73 110 186
64 99 153
73 110 186
73 109 178
67 103 168
72 108 168
71 108 178
70 107 178
72 109 186
69 104 136
68 102 158
71 108 178
72 109 186
73 110 186
71 107 168
72 109 186
71 109 186
71 108 186
68 102 148
69 107 178
69 106 178
73 109 168
68 105 158
72 108 168
69 105 148
70 107 168
62 94 123
72 109 186
68 102 158
72 108 178
68 104 168
69 107 186
65 100 148
71 109 186
72 108 178
69 107 178
71 107 158
68 105 158
71 108 178
70 106 158
69 106 158
71 108 178
71 108 178
71 108 178
69 106 168
70 107 178
69 106 158
69 106 168
72 108 178
73 109 178
69 105 148
69 107 178
68 105 168
69 105 158
73 110 186
71 109 186
71 108 178
74 110 178
72 108 178
70 107 178
73 109 178
70 107 168
70 106 168
69 105 148
72 108 178
72 108 168
66 102 136
71 108 178
69 106 168
71 108 178
72 108 178
70 105 136
73 109 178
69 106 168
71 108 178
71 106 158
74 110 178
71 108 178
73 109 178
73 110 186
67 103 136
72 107 158
73 110 186
68 105 158
69 106 158
70 106 148
69 106 178
72 109 178
72 108 178
72 109 186
69 105 148
68 105 158
71 108 178
68 104 148
69 106 168
72 108 178
68 105 168
72 108 168
71 107 168
71 108 168
72 108 168
73 109 178
68 107 186
70 107 178
67 104 158
69 105 158
73 109 168
69 104 158
71 108 168
73 109 178
73 110 186
74 111 186
71 108 178
72 109 178
70 107 168
70 105 168
74 111 186
70 107 168
72 108 178
74 110 186
67 102 108
68 103 136
71 108 178
70 107 178
73 109 178
70 107 168
71 107 168
72 108 178
70 106 158
71 108 178
70 107 178
72 108 158
68 104 148
67 103 136
70 106 168
67 103 136
70 107 168
71 108 178
68 103 123
73 109 168
69 104 148
74 110 178
70 106 158
67 102 136
70 106 168
70 105 148
72 108 168
71 107 158
72 107 158
70 106 158
75 111 186
69 103 150
71 107 158
68 102 125
72 109 178
67 101 136
66 98 125
72 108 168
68 104 148
64 96 148
73 109 178
68 103 170
72 109 178
72 106 160
70 106 179
73 110 178
74 109 179
68 101 138
72 108 158
66 99 150
90 103 123
88 84 43
97 91 0
63 69 31
73 72 43
72 71 43
107 103 0
100 100 52
90 90 43
68 71 0
131 126 43
82 79 0
116 111 43
82 81 0
99 96 43
98 98 0
27 38 23
119 114 43
106 104 0
64 65 0
30 38 0
103 100 43
110 107 59
93 92 43
128 126 52
95 95 0
87 85 43
127 124 43
120 122 31
89 88 43
130 128 76
87 88 23
114 113 43
117 114 43
97 97 53
114 113 0
127 129 0
147 143 43
115 113 43
126 127 0
134 131 65
115 109 43
77 78 43
145 138 71
117 116 43
89 87 0
123 121 43
111 113 0
97 97 23
127 125 55
139 138 52
130 127 43
142 139 43
129 127 0
110 105 43
140 135 59
138 138 31
139 134 59
139 133 0
127 128 0
142 137 59
140 133 71
142 138 0
149 144 59
110 106 43
156 152 59
165 161 71
159 156 43
152 150 59
135 130 43
148 141 71
137 130 59
167 163 71
124 119 43
157 149 59
158 155 43
136 134 59
121 119 43
163 156 71
152 148 43
141 132 59
139 133 43
146 144 0
151 144 43
121 114 0
131 125 59
151 145 59
140 136 59
161 157 43
154 150 59
149 138 59
125 122 0
122 116 43
169 159 81
136 133 43
146 145 43
153 149 43
153 146 43
132 126 59
153 150 59
113 110 43
123 121 43
133 132 43
147 143 59
121 116 43
116 112 0
148 143 59
146 139 59
154 145 71
144 136 59
152 149 43
115 112 0
138 128 0
146 139 59
151 144 59
105 100 0
116 112 0
112 110 0
144 140 43
102 100 0
146 138 71
95 93 0
226 238 255
219 234 244
226 238 255
223 237 255
224 237 255
226 238 255
226 238 255
224 237 255
220 234 244
224 237 255
212 224 231
226 238 255
221 235 244
226 238 255
225 238 255
222 235 244
224 237 255
225 238 255
221 236 255
223 235 244
222 235 244
223 235 244
222 235 244
223 235 244
227 239 255
224 236 244
222 235 244
212 227 217
214 228 217
203 219 168
192 212 148
193 212 148
183 205 89
184 205 89
188 209 123
181 204 89
180 204 89
180 202 0
189 209 123
185 207 123
185 206 89
192 211 123
189 208 89
185 206 89
190 210 123
183 205 89
186 208 123
178 201 0
191 211 148
176 196 136
138 158 186
111 138 168
100 128 186
100 127 178
100 127 168
170 187 224
156 173 195
99 125 158
65 100 158
69 103 158
65 100 158
70 107 168
71 107 168
91 120 148
119 142 136
116 142 148
114 139 136
97 124 148
116 142 148
129 151 123
106 133 136
86 116 148
67 102 158
69 106 178
71 108 178
69 105 178
68 105 158
69 105 148
74 111 186
68 104 173
68 104 178
74 110 178
67 102 158
71 109 186
68 105 168
69 105 173
67 104 148
72 108 168
68 104 182
64 97 158
71 109 186
70 108 186
73 110 186
70 106 158
72 109 178
66 101 168
65 101 168
62 96 148
72 108 168
69 104 178
68 105 158
68 105 158
58 90 129
66 103 148
66 100 148
71 107 168
71 109 186
66 101 158
72 109 178
67 103 168
71 108 178
68 105 158
70 107 178
66 102 168
68 105 168
69 106 168
71 107 168
71 107 168
71 108 178
71 108 178
71 108 168
70 107 168
69 106 168
70 107 178
68 105 158
69 107 178
64 98 136
73 109 178
71 107 168
69 106 168
72 109 186
70 106 168
68 103 153
70 107 168
70 107 168
72 109 186
71 108 178
69 105 158
72 109 186
68 105 168
68 104 158
76 112 186
70 107 178
69 106 168
69 103 168
74 110 186
67 104 158
71 108 186
70 106 168
72 109 178
69 103 158
67 103 178
69 106 168
70 106 158
68 105 158
69 107 178
70 107 178
71 108 178
68 106 168
68 105 158
69 105 158
66 103 178
72 109 186
70 106 158
72 109 178
71 109 186
72 109 178
72 109 186
70 107 178
67 104 158
72 109 186
71 107 158
71 109 186
70 106 168
70 108 186
70 107 168
70 107 178
72 108 178
73 110 186
70 107 178
72 109 178
72 108 178
73 109 178
67 105 168
72 109 178
71 107 158
70 106 168
70 106 158
70 107 186
70 107 178
72 109 178
71 107 158
68 105 168
68 105 158
69 106 168
70 107 168
72 109 178
70 107 178
71 107 158
72 109 186
68 104 148
72 109 186
68 105 158
73 109 168
74 110 178
71 108 178
71 108 186
71 108 178
68 104 148
72 109 178
74 110 178
70 106 168
73 109 178
70 106 158
70 106 158
70 107 168
71 108 178
73 108 178
73 110 186
74 110 178
70 108 186
71 107 158
71 107 168
72 108 168
70 106 168
69 106 158
69 106 178
70 107 178
69 106 158
70 105 148
73 109 178
72 108 178
71 107 168
73 108 168
64 98 108
71 107 168
71 107 168
69 106 158
70 107 178
67 103 136
70 107 168
74 110 178
74 110 178
66 102 158
68 105 158
72 109 178
71 106 160
68 104 148
69 105 158
66 101 148
71 108 168
70 108 178
72 108 178
68 103 158
68 103 148
73 110 186
70 105 148
72 109 178
66 101 136
70 107 178
67 102 158
69 105 136
70 107 168
69 105 148
72 107 158
62 97 123
67 101 158
64 95 108
73 109 178
70 105 160
70 105 160
70 106 148
68 104 136
66 98 108
72 106 168
60 91 123
66 98 125
65 97 136
58 85 111
128 120 0
64 66 0
69 70 15
94 93 43
97 91 0
87 83 0
82 80 0
62 68 0
97 91 59
62 61 0
117 112 44
98 95 0
92 87 43
90 89 0
135 130 59
69 64 0
59 59 0
58 63 37
89 86 0
101 104 0
111 112 0
114 111 43
135 131 65
91 90 43
109 110 43
69 74 26
21 27 0
117 114 43
107 110 31
93 92 15
78 83 37
137 134 65
90 88 0
106 108 31
106 107 0
111 110 43
124 122 43
108 110 43
119 119 0
137 134 43
46 60 43
137 136 47
137 130 43
119 116 0
131 123 59
138 133 62
142 135 59
114 114 31
132 130 0
124 121 59
144 140 65
131 127 0
129 124 43
129 127 52
137 130 59
162 153 71
144 143 43
137 134 43
128 121 71
142 136 43
145 139 43
127 125 43
116 115 0
145 142 0
150 143 43
137 130 59
133 129 0
147 140 59
137 135 43
139 132 59
129 122 43
149 144 59
103 100 43
147 144 0
148 143 59
104 103 43
142 136 59
129 126 43
157 152 59
148 141 71
175 167 81
146 143 43
146 138 43
149 143 0
162 160 0
138 132 59
135 130 71
126 121 43
148 146 43
143 141 43
135 129 59
150 144 43
162 151 59
147 140 59
146 142 59
134 130 43
130 128 0
140 138 0
165 158 71
142 138 0
138 130 0
135 131 43
156 152 59
157 152 59
124 121 0
153 149 43
143 141 59
138 133 43
102 98 43
139 129 43
150 144 59
119 114 59
112 104 0
142 136 43
143 140 43
149 146 0
118 113 0
103 97 0
120 117 0
145 142 59
105 106 0
223 237 255
223 237 255
221 234 244
224 237 255
220 234 244
219 233 244
220 235 255
224 237 255
224 237 255
221 235 255
223 237 255
223 237 255
223 237 255
222 236 255
216 231 231
215 230 231
208 225 217
224 237 255
224 237 255
219 234 244
226 238 255
218 233 244
226 238 255
226 238 255
225 238 255
226 239 255
225 238 255
227 239 255
226 238 255
225 238 255
226 238 255
220 234 244
225 238 255
212 228 217
211 226 202
196 214 148
190 211 148
177 200 0
190 209 89
182 204 89
189 209 123
183 205 89
185 206 89
182 205 89
185 206 89
182 205 89
183 205 89
192 212 148
188 209 123
154 177 148
132 154 178
153 172 202
132 155 186
121 145 195
121 144 186
121 143 158
68 102 148
170 187 224
95 118 158
68 102 148
106 134 158
68 105 168
87 119 158
66 101 158
71 107 168
68 104 148
64 97 148
113 140 136
125 151 123
115 141 123
128 152 136
103 132 148
103 131 136
71 106 178
69 105 148
70 107 178
70 106 158
69 104 178
73 109 168
71 109 186
71 107 158
68 104 148
68 106 178
62 96 163
66 100 148
70 106 158
71 107 158
68 104 148
68 105 178
72 108 168
72 108 168
70 107 168
72 109 186
71 108 178
69 105 158
66 102 168
70 107 178
69 105 158
71 108 178
62 94 148
72 108 178
69 105 158
72 109 178
61 95 158
70 106 148
66 101 158
65 100 148
71 109 186
68 104 148
69 107 178
70 106 168
66 101 158
68 105 158
69 107 178
72 109 186
70 107 178
71 108 178
68 103 168
70 107 178
66 100 136
73 109 178
60 91 148
70 106 168
67 102 158
69 107 178
72 108 168
71 108 178
67 103 178
71 108 186
72 108 178
69 106 168
63 97 158
69 106 168
70 107 178
67 103 173
71 107 168
72 109 178
70 107 168
72 109 178
70 106 168
72 109 186
72 108 168
69 107 178
67 101 148
68 104 178
71 107 168
71 107 168
71 107 168
68 104 148
72 109 178
72 108 168
71 108 178
68 104 178
72 108 178
70 107 168
73 110 186
71 107 158
70 108 186
71 107 168
68 104 148
67 103 148
67 103 168
72 109 186
71 108 178
70 107 168
69 106 178
72 108 178
71 108 178
70 107 168
71 107 168
71 108 178
71 108 168
69 106 168
68 105 158
69 107 178
68 105 168
71 108 178
71 108 178
69 106 168
70 107 178
68 104 158
71 108 178
74 110 178
67 104 178
69 106 168
71 108 186
70 106 168
69 106 168
71 108 178
71 108 186
72 109 186
68 103 168
71 107 168
68 103 168
69 106 168
73 109 168
70 107 178
70 105 148
71 107 168
72 108 168
72 108 168
69 105 158
71 108 178
72 108 168
67 105 178
70 107 178
70 107 168
75 111 186
69 105 148
71 107 158
72 108 168
65 100 136
73 110 178
68 104 148
72 109 178
72 107 148
69 105 158
71 107 158
70 106 168
71 106 148
69 106 178
71 107 168
73 110 178
69 106 168
71 108 168
73 109 168
70 106 158
67 103 136
66 102 136
71 107 158
73 109 178
68 103 168
71 107 168
67 102 123
71 108 186
71 108 178
70 107 178
67 102 158
69 106 168
72 108 158
71 107 158
71 106 148
72 109 178
68 105 158
72 108 158
73 109 168
68 104 148
72 107 158
67 103 168
70 107 178
69 106 168
71 107 168
66 101 148
69 105 158
70 105 158
73 110 186
71 107 158
71 106 148
70 107 168
70 105 148
65 101 123
68 105 168
72 107 168
71 106 148
72 106 168
69 104 136
67 103 123
68 104 136
72 108 158
65 96 114
67 103 150
70 105 160
70 105 158
69 102 152
67 102 158
67 102 148
69 103 158
66 101 136
94 98 76
81 80 0
112 110 43
106 102 43
107 103 43
60 62 0
92 87 43
67 71 31
117 116 43
104 104 0
64 64 0
112 104 59
86 83 43
111 106 43
104 101 43
101 96 59
85 84 31
105 104 52
110 103 0
146 138 43
76 75 0
94 89 0
118 113 44
83 83 0
97 91 43
37 48 0
100 95 0
88 83 43
133 130 65
73 74 0
106 106 52
148 144 71
124 119 45
102 101 0
79 80 0
152 144 59
110 106 59
119 113 43
111 107 0
102 106 0
111 108 52
114 114 31
123 122 43
101 101 43
118 115 62
134 130 59
117 112 43
113 113 0
108 106 0
135 128 59
84 92 0
138 133 43
148 144 59
141 133 43
170 164 81
117 113 43
142 138 0
124 121 43
118 114 62
124 121 43
106 108 0
114 113 0
138 136 0
131 128 0
134 128 43
134 131 43
132 130 43
53 53 0
141 132 59
129 127 0
144 143 0
158 150 59
132 127 59
135 135 0
109 110 0
149 141 59
176 168 59
162 152 71
142 135 59
145 142 43
138 131 71
113 108 43
139 131 59
151 148 43
124 117 43
138 128 59
149 145 59
151 146 59
135 132 43
154 150 59
154 147 71
122 116 43
144 138 71
125 125 0
159 152 43
151 146 71
142 136 43
136 130 43
112 108 0
144 138 0
144 140 43
116 112 43
134 128 59
92 92 0
155 150 43
101 99 43
135 131 43
130 128 0
131 126 43
146 143 43
147 140 43
135 131 43
140 135 59
173 168 71
160 156 43
133 127 43
152 145 71
146 142 43
92 92 0
154 147 71
117 105 0
111 109 43
213 229 231
216 232 244
223 237 255
219 233 244
222 236 255
222 236 255
219 233 244
223 237 255
217 232 244
222 236 255
215 230 231
218 233 244
222 236 255
224 237 255
222 236 255
224 237 255
219 233 244
215 230 231
224 237 255
223 237 255
224 237 255
224 237 255
221 234 244
212 225 244
225 238 255
220 234 244
225 238 255
224 237 255
224 237 255
222 235 244
220 234 244
224 236 244
224 237 255
225 238 255
227 239 255
228 239 255
207 224 202
217 231 231
201 218 168
190 210 123
183 205 89
184 204 0
176 200 0
187 207 89
184 205 89
187 208 123
187 210 148
185 206 89
182 203 0
138 162 108
120 142 186
120 143 186
102 130 186
149 168 178
98 125 186
145 164 186
66 103 148
100 127 178
131 153 168
99 126 168
68 102 158
103 130 123
72 108 178
68 104 158
70 105 178
90 119 123
95 124 178
62 96 148
66 100 136
71 106 148
103 129 136
122 148 123
130 154 123
106 134 158
90 121 158
70 106 148
70 105 168
67 103 136
69 106 168
69 107 178
68 103 158
71 107 168
67 101 136
70 106 158
71 108 178
71 108 168
71 107 158
69 105 158
70 105 178
72 108 178
71 107 168
69 104 173
70 107 178
69 106 168
68 103 168
68 105 168
70 107 178
71 107 158
67 102 168
70 107 178
65 98 163
64 100 153
73 110 178
72 109 186
70 107 168
69 106 168
72 109 186
69 104 178
65 100 158
70 106 158
68 104 148
65 100 108
66 101 158
70 107 178
64 98 168
69 106 168
70 108 186
68 104 178
69 106 168
71 107 158
72 108 178
72 108 168
66 99 163
66 102 136
68 104 148
69 106 168
67 102 168
72 108 178
70 107 186
71 108 168
70 107 168
72 108 168
68 105 158
70 107 168
72 109 186
70 107 178
69 105 168
68 104 158
70 107 168
70 107 178
69 105 148
68 104 173
70 106 168
71 107 168
70 105 178
72 109 186
67 101 158
71 108 186
71 108 178
73 110 186
71 108 178
71 107 168
71 107 168
71 107 168
72 108 168
68 103 168
71 108 168
68 103 168
68 102 136
71 108 178
67 103 136
67 102 163
64 98 136
71 108 178
71 108 168
67 105 178
72 109 178
69 106 168
68 106 178
69 106 178
74 110 186
73 109 178
71 108 178
67 102 123
71 107 168
70 107 168
70 107 168
67 105 178
68 104 148
70 107 168
69 107 178
69 106 168
70 107 178
65 101 148
69 106 168
70 106 168
70 107 168
71 107 158
70 106 158
74 110 186
71 107 168
71 108 186
73 109 178
68 104 148
71 108 186
66 103 148
68 104 148
68 105 158
69 105 148
68 104 148
70 107 168
72 109 186
71 106 148
71 107 168
71 108 178
70 105 168
69 106 178
69 105 178
69 105 148
71 107 168
70 106 158
71 107 158
70 106 148
70 106 158
68 106 168
74 110 186
69 106 168
71 108 178
70 107 168
70 106 158
70 107 168
71 108 168
67 104 158
74 110 178
72 108 168
71 108 178
71 108 178
70 106 158
67 104 148
71 107 168
72 108 168
73 110 178
72 108 178
70 106 158
72 108 168
68 105 158
71 107 168
75 111 186
70 106 158
72 108 168
70 107 178
70 107 168
69 106 168
70 107 178
70 106 158
71 107 158
68 104 148
70 106 158
66 101 148
66 103 158
68 103 168
70 107 168
70 107 168
69 106 158
69 104 168
70 105 148
71 107 158
69 104 150
70 106 158
73 110 178
70 106 158
59 90 136
72 108 168
70 107 168
69 105 148
69 105 148
69 106 158
68 103 159
72 108 168
68 103 150
67 100 128
62 95 108
61 94 123
67 101 148
55 84 93
70 105 160
71 106 170
65 96 150
94 95 43
128 120 59
113 107 59
89 87 43
102 98 0
113 110 43
94 90 0
55 53 31
19 26 0
112 107 59
79 76 15
68 73 31
94 91 0
90 89 0
27 34 0
104 103 31
99 92 0
98 98 0
122 114 43
109 104 59
104 98 43
98 99 0
77 79 26
54 57 0
112 109 43
34 44 15
103 100 43
67 67 0
86 88 15
95 90 0
140 135 59
113 112 52
112 112 0
141 136 59
96 96 0
108 109 52
111 107 31
95 95 0
125 122 47
106 107 0
112 111 0
122 113 65
135 131 43
94 95 0
130 125 43
137 129 52
156 151 43
124 121 68
105 102 47
106 104 0
51 44 0
155 149 59
154 150 59
97 98 0
126 123 43
135 129 43
172 164 71
55 56 0
148 139 76
130 125 52
127 127 0
139 134 71
147 140 59
138 135 59
124 121 0
156 149 71
152 146 59
153 149 43
155 148 43
111 111 0
143 137 43
162 155 71
159 150 59
120 112 0
150 144 71
158 153 0
139 138 0
125 126 0
157 152 59
133 128 43
155 153 0
145 138 0
142 139 43
141 136 59
144 141 43
140 137 0
132 131 0
137 137 0
125 117 59
144 141 43
142 137 43
152 146 43
130 125 43
131 130 0
133 123 43
136 135 0
145 140 59
114 106 43
135 132 0
123 120 43
141 135 59
95 88 43
118 119 0
123 113 43
121 118 0
136 135 0
101 101 0
115 115 0
153 146 43
152 145 59
127 123 0
132 130 0
104 100 0
129 123 43
139 134 59
159 153 43
103 99 0
157 150 71
144 138 71
138 130 59
119 114 43
123 120 43
221 235 255
221 235 255
219 235 255
222 236 255
221 235 255
221 235 255
221 235 255
221 235 255
222 236 255
221 235 255
222 236 255
220 235 255
222 236 255
217 232 244
221 236 255
216 232 244
223 236 255
223 236 255
214 229 231
220 235 255
220 235 255
219 233 244
223 237 255
224 237 255
223 236 255
224 237 255
224 237 255
224 237 255
220 234 244
225 238 255
225 238 255
223 237 255
224 237 255
213 227 244
225 238 255
225 238 255
225 238 255
223 236 244
225 238 255
227 239 255
216 231 231
202 219 168
199 216 148
192 212 148
181 204 89
185 205 0
193 212 123
178 201 0
175 200 0
149 173 123
97 125 168
99 127 186
98 125 186
127 148 158
99 128 195
67 103 178
70 106 168
70 107 178
139 159 202
70 107 178
155 174 210
98 127 136
69 105 168
67 102 158
68 104 178
88 117 158
64 99 148
71 109 186
107 134 158
68 103 168
67 101 148
73 109 178
85 115 136
86 118 148
65 100 136
124 149 123
117 143 148
67 104 148
71 108 186
71 107 168
71 107 168
72 108 168
73 109 168
73 110 186
71 108 178
70 107 178
67 102 123
70 106 148
66 101 168
67 102 158
70 107 168
68 103 158
64 97 148
71 108 186
67 103 168
71 108 178
71 107 168
71 108 178
63 96 148
69 107 186
71 109 186
67 102 158
68 103 168
72 107 158
71 108 178
69 106 168
71 108 178
68 103 136
72 109 178
64 97 148
70 106 168
70 106 158
69 105 158
71 108 178
64 98 168
72 108 178
70 107 178
67 104 148
72 109 178
70 107 178
71 107 168
71 107 168
72 107 158
67 102 158
71 108 178
71 108 168
64 98 158
68 104 148
72 109 178
69 106 168
67 103 178
70 106 158
70 108 186
70 107 178
71 108 178
70 107 178
70 107 178
66 101 158
68 102 158
72 109 178
67 103 173
71 108 178
72 109 178
70 106 168
68 105 168
69 106 178
70 107 168
70 106 158
72 109 186
71 108 178
69 106 158
71 108 178
71 107 168
72 109 186
71 107 168
70 107 178
69 106 168
68 104 148
70 108 186
67 103 168
71 108 178
66 100 136
68 105 158
72 108 178
72 109 186
73 110 186
68 104 148
70 107 178
72 109 178
65 100 148
70 107 178
70 106 158
69 106 178
69 107 186
74 110 178
73 110 186
70 107 168
71 107 168
68 103 136
71 107 168
72 109 186
69 105 148
72 109 178
72 109 178
72 108 178
65 101 158
73 110 186
72 108 168
68 104 148
73 110 186
68 105 158
74 111 186
71 107 158
69 106 168
69 106 168
68 103 158
72 109 178
70 106 158
73 109 168
69 106 158
69 106 158
73 109 168
71 107 158
73 109 178
72 108 168
71 107 168
71 108 168
69 106 178
71 108 186
72 109 178
70 106 158
71 107 168
69 106 158
71 108 186
68 104 136
71 108 168
70 106 158
73 110 186
73 108 158
67 103 148
70 106 148
70 107 168
68 105 158
70 108 186
71 108 168
70 107 178
69 106 168
70 107 168
69 105 148
72 109 186
72 108 158
70 106 158
70 105 148
67 103 168
70 106 158
68 104 136
68 104 148
70 107 168
71 108 178
70 107 168
72 108 168
67 102 158
70 107 168
71 107 158
69 106 168
68 105 158
73 109 168
68 103 123
70 107 168
69 104 168
69 105 148
70 107 168
70 106 179
69 105 158
72 108 168
72 107 168
70 107 178
69 105 158
72 108 168
66 101 148
74 111 186
70 107 168
65 99 136
65 100 123
72 107 158
65 98 136
69 104 123
64 97 136
66 100 136
73 108 158
71 107 158
68 103 148
66 99 158
67 101 125
67 101 160
66 101 148
66 98 160
66 100 138
65 78 89
77 70 0
0 2 0
105 99 43
110 105 59
101 94 43
69 73 0
87 87 11
45 41 0
57 57 0
60 60 0
91 84 43
122 117 59
79 79 0
98 93 43
76 74 47
103 100 45
110 106 62
64 67 0
109 103 59
82 82 0
103 100 43
61 65 0
65 69 0
96 95 31
82 82 31
113 111 59
126 123 31
102 101 31
111 113 0
107 108 31
114 115 0
74 72 52
86 88 0
130 124 0
100 98 0
103 100 52
113 113 65
121 115 59
98 98 0
132 128 59
114 111 43
147 144 59
135 135 0
113 110 43
119 119 0
144 141 43
101 101 37
140 135 59
151 147 43
143 133 59
134 132 43
140 135 59
137 131 71
127 127 0
120 115 43
133 130 43
142 135 71
76 71 0
106 103 0
135 130 0
138 132 59
163 154 0
163 156 71
128 121 43
144 138 59
140 134 0
142 134 71
148 142 71
119 118 0
129 126 0
127 126 0
136 131 43
147 145 0
142 138 43
118 113 0
137 136 0
105 105 0
137 134 0
149 146 0
149 147 43
143 137 71
112 110 43
135 135 0
145 141 43
156 151 59
155 149 43
137 134 43
136 129 0
143 141 43
151 148 43
158 152 59
153 150 59
165 161 43
131 121 0
117 113 0
126 119 59
161 155 71
141 130 43
158 151 59
115 113 43
154 149 0
129 127 0
159 151 71
157 152 59
128 127 0
128 127 0
129 127 0
115 111 0
149 142 43
120 115 43
93 92 0
152 145 43
141 139 43
98 91 43
98 90 59
95 92 0
126 123 43
152 146 59
137 130 59
126 115 0
63 59 0
221 236 255
221 235 255
216 231 244
218 234 255
220 235 255
213 229 231
216 232 244
220 235 255
215 231 244
218 233 244
220 235 255
221 236 255
221 236 255
213 229 231
221 236 255
221 236 255
217 234 255
222 236 255
222 236 255
218 233 244
219 235 255
218 233 244
221 236 255
217 232 244
219 233 244
223 237 255
223 237 255
219 233 244
220 235 255
224 237 255
224 237 255
223 237 255
218 233 244
225 238 255
225 238 255
225 238 255
226 238 255
225 238 255
220 234 244
227 239 255
227 239 255
227 239 255
228 239 255
215 229 217
203 220 186
197 216 168
193 213 148
179 202 0
180 202 0
168 189 158
88 119 148
162 181 195
114 139 178
74 110 178
120 143 186
115 140 178
121 144 195
121 144 186
67 103 158
98 124 178
121 143 195
121 144 186
100 128 186
83 114 148
66 102 168
86 116 158
70 108 186
71 107 158
69 107 178
72 109 186
70 106 158
71 108 178
68 103 168
66 102 168
72 108 168
105 129 123
113 141 148
137 162 123
91 122 168
70 106 158
67 103 136
70 108 186
71 107 168
73 110 186
66 102 168
68 105 158
69 105 148
73 109 178
68 104 148
64 98 168
69 104 168
66 101 158
73 110 186
66 102 168
69 106 168
68 104 173
69 107 178
69 106 168
64 98 158
68 103 168
67 103 173
71 108 178
69 105 148
65 100 148
70 107 178
67 103 168
70 107 168
72 108 178
72 109 178
71 107 168
67 104 158
71 107 168
69 106 158
70 108 186
67 103 178
69 105 148
67 105 168
69 105 158
68 105 158
71 108 178
70 108 186
72 108 158
70 107 168
69 106 168
72 108 168
67 102 158
70 107 168
70 108 186
70 107 168
68 103 168
70 107 178
72 108 178
72 109 186
65 101 158
69 106 168
68 103 168
71 107 158
69 105 158
72 109 186
66 103 173
70 106 168
72 108 168
69 106 168
70 107 178
70 108 178
69 105 148
70 106 168
67 102 158
70 106 168
73 110 186
70 107 178
67 103 178
69 106 168
73 108 158
72 108 168
69 105 158
69 106 168
72 108 168
70 107 178
69 103 168
70 108 186
66 101 153
69 105 148
67 103 168
72 109 178
70 108 186
69 105 178
71 108 168
69 106 168
71 108 178
70 108 186
66 102 158
70 106 158
67 103 168
68 105 158
67 103 168
69 106 168
73 110 186
68 105 168
72 109 186
70 107 178
70 107 178
68 105 158
70 106 158
69 104 136
71 108 178
73 109 168
69 106 158
70 107 168
70 106 158
71 107 168
69 105 158
72 108 168
72 108 168
70 106 168
70 106 168
72 108 168
74 110 178
69 106 168
71 108 186
70 106 148
70 107 178
72 109 178
69 106 178
68 104 148
71 108 178
69 105 158
71 107 168
71 107 158
71 109 186
68 104 136
70 107 168
69 107 178
71 107 168
69 104 178
73 110 178
71 107 158
71 106 148
72 109 178
68 104 136
70 105 148
70 107 168
74 110 178
67 104 148
72 109 178
69 107 178
72 108 178
70 107 178
67 102 158
72 108 168
72 108 178
72 109 186
70 106 148
68 104 148
72 108 168
70 105 148
68 103 136
73 109 178
69 106 178
69 106 168
73 109 168
71 108 178
69 105 158
70 107 178
67 102 123
71 108 178
70 106 168
67 101 136
73 108 168
70 106 158
69 106 168
69 105 158
73 108 158
73 110 178
71 108 178
69 104 168
71 107 158
71 106 148
73 110 178
74 110 178
71 108 168
71 107 168
72 109 178
69 104 150
70 106 158
71 106 148
67 101 123
68 104 136
72 107 158
71 106 170
65 99 128
70 103 148
67 101 136
65 100 148
68 103 158
66 99 123
66 97 148
66 101 136
78 77 0
88 79 43
93 89 0
107 104 0
79 77 0
123 115 59
111 105 47
112 109 0
59 62 0
25 32 0
73 69 11
57 59 0
116 113 0
56 59 0
26 34 0
102 98 43
94 93 37
99 95 0
94 94 0
117 113 43
141 134 59
62 65 15
83 84 0
107 105 47
142 139 0
106 107 47
85 85 0
119 117 43
94 92 37
86 85 0
85 87 0
78 82 0
113 110 43
145 142 43
80 79 0
131 127 65
124 121 52
112 106 0
100 100 23
114 106 43
138 130 59
66 65 11
138 132 71
140 136 0
132 127 0
96 99 0
105 105 0
118 114 0
131 127 43
141 135 59
139 134 59
100 97 0
130 123 43
74 68 0
108 108 0
99 99 23
117 113 0
133 130 43
162 156 59
131 127 59
157 149 71
131 127 59
126 121 43
145 145 0
128 121 59
147 145 0
125 122 43
129 127 0
124 122 43
123 116 43
143 141 43
138 134 59
145 140 43
124 125 0
161 155 59
147 144 59
127 123 43
151 148 43
108 108 0
134 129 0
138 129 59
133 131 0
155 151 43
160 155 59
142 139 43
159 153 71
141 132 59
153 146 43
137 132 59
137 132 43
142 139 43
114 111 43
127 123 0
147 143 43
121 118 0
105 100 0
131 126 0
126 123 43
143 140 0
157 149 59
150 144 59
140 134 0
125 121 43
130 124 0
155 147 71
105 102 0
164 157 71
128 118 43
141 138 0
140 135 43
121 115 59
145 139 59
144 137 43
150 142 43
129 127 0
149 143 0
129 124 0
72 68 0
121 118 0
143 137 71
119 110 59
115 111 43
219 234 255
214 230 244
219 235 255
220 235 255
219 234 255
218 234 255
216 232 244
219 234 255
220 235 255
220 235 255
220 235 255
219 234 255
220 235 255
219 234 255
219 234 255
219 234 255
220 235 255
220 235 255
221 235 255
219 235 255
218 234 255
220 235 255
219 234 255
220 235 255
220 235 255
222 236 255
222 236 255
213 229 231
219 234 255
221 236 255
222 236 255
218 233 244
222 236 255
222 236 255
220 234 244
219 234 244
223 237 255
222 236 255
223 236 255
221 235 244
226 238 255
225 238 255
227 239 255
224 236 244
226 238 255
228 239 255
214 229 217
195 214 148
192 211 123
178 197 136
89 121 168
151 172 210
111 137 178
69 106 168
97 124 158
99 127 178
97 122 158
120 144 186
66 101 158
95 124 168
100 128 178
96 120 178
100 127 168
72 108 158
72 108 168
68 103 168
72 109 178
70 106 148
68 102 158
64 97 108
68 104 178
67 102 153
68 105 168
89 122 168
68 104 158
70 106 158
66 100 148
98 125 108
79 109 123
87 120 168
70 107 168
69 104 178
70 107 168
73 110 186
71 108 178
68 102 148
66 102 136
72 107 158
67 101 158
71 108 178
68 105 168
69 104 178
67 102 158
72 109 186
69 105 158
72 108 168
72 109 178
70 106 148
70 107 178
69 106 168
64 98 158
72 109 178
70 106 158
65 99 148
68 106 178
70 107 168
72 108 178
69 106 168
71 107 168
70 106 168
70 105 148
72 108 158
66 100 148
69 104 168
69 106 168
69 105 178
65 99 136
67 102 158
69 106 168
71 108 178
70 107 178
71 107 158
69 105 158
70 106 168
68 103 158
67 103 168
71 107 168
72 108 168
70 107 178
69 105 158
69 107 178
71 107 158
71 106 148
68 105 168
70 107 178
70 106 158
71 108 186
70 105 168
72 108 168
71 107 158
68 104 178
68 105 168
72 108 178
67 104 158
70 105 178
68 105 168
68 103 168
72 109 186
71 108 178
69 105 148
68 103 168
66 102 168
66 101 148
72 108 168
71 107 158
68 105 158
68 104 178
70 107 168
69 105 158
72 109 186
71 108 178
71 108 168
73 109 168
69 107 178
73 109 178
69 106 158
69 105 148
69 106 158
69 105 158
70 107 178
72 109 178
71 108 178
70 108 178
73 107 168
71 108 178
72 109 178
72 109 178
70 106 158
70 107 168
67 103 148
69 105 148
68 105 158
71 108 168
69 106 178
64 96 148
73 109 178
70 106 158
67 103 168
69 106 168
69 107 178
69 105 158
70 106 158
72 108 178
72 108 168
69 105 158
68 105 168
69 107 178
73 109 178
74 109 168
67 102 158
69 106 168
69 105 158
72 109 186
71 107 158
70 106 148
72 108 168
72 108 178
70 106 168
71 108 178
69 105 158
69 106 168
69 105 158
70 107 168
70 107 168
68 103 158
71 107 158
73 109 168
70 107 168
68 105 158
67 103 136
71 108 178
70 106 168
67 104 148
69 106 178
71 108 178
69 106 168
73 109 178
68 105 158
69 106 168
72 109 178
69 105 158
71 108 168
73 109 168
70 107 168
71 107 168
68 104 148
71 107 168
69 105 158
72 108 168
69 105 148
69 105 148
70 106 168
72 109 178
70 106 168
64 99 136
73 109 178
73 110 186
68 103 158
71 107 148
72 107 158
68 103 150
70 106 158
71 105 158
71 108 168
70 105 148
72 108 168
71 107 158
68 103 158
68 104 136
63 97 123
69 105 148
71 106 148
66 101 136
66 102 136
64 99 108
66 98 150
71 107 158
68 103 158
66 100 158
73 110 178
68 103 158
66 100 123
69 104 148
65 98 125
67 99 141
67 101 160
70 105 148
54 82 136
123 121 0
89 87 43
101 99 0
105 100 0
19 25 0
43 38 0
90 87 0
81 80 0
106 107 0
72 68 23
74 69 0
136 126 59
95 88 0
107 102 0
81 75 43
118 114 43
127 126 43
106 103 0
105 102 43
26 38 0
106 104 43
77 72 0
100 97 0
109 108 0
94 97 0
73 75 31
99 93 59
75 73 45
102 101 0
82 78 31
101 97 43
132 126 43
127 122 43
80 83 31
101 100 43
108 106 0
86 88 0
122 113 59
131 127 59
123 120 0
147 141 59
147 143 0
97 97 0
101 103 31
142 140 0
110 104 59
96 97 0
139 136 43
96 96 0
136 133 0
120 113 59
145 142 47
107 108 0
124 125 0
134 130 59
129 125 0
160 151 0
145 142 43
101 101 0
142 137 43
146 141 43
136 130 59
135 126 71
147 144 0
141 132 59
129 126 0
143 139 0
144 140 59
161 157 43
116 112 0
148 143 59
153 149 43
125 123 43
152 146 71
143 141 43
128 123 43
135 132 0
152 144 59
125 122 43
130 128 0
125 122 43
111 108 0
145 142 43
103 100 0
134 131 0
131 127 43
151 148 43
129 124 0
106 101 0
127 121 0
117 112 0
148 144 59
105 104 0
154 152 0
111 107 0
130 125 43
137 133 59
135 131 43
127 121 59
97 96 0
151 146 43
159 156 43
124 118 0
129 124 0
125 121 43
122 122 0
140 133 0
137 133 0
135 132 0
147 139 59
128 120 43
112 106 0
133 124 0
108 107 0
143 139 0
128 121 43
132 127 0
133 124 43
99 97 0
114 107 0
87 80 0
79 77 0
215 231 244
216 233 255
219 234 255
214 231 244
217 234 255
217 233 255
212 228 231
219 234 255
215 231 244
219 234 255
219 234 255
208 225 217
219 234 255
216 233 255
213 230 244
218 234 255
218 234 255
219 235 255
219 235 255
214 231 244
218 234 255
215 230 231
216 232 244
220 235 255
218 234 255
219 235 255
221 235 255
221 236 255
221 236 255
220 235 255
217 232 244
220 235 255
222 236 255
218 233 244
223 237 255
213 227 244
213 226 244
221 236 255
224 237 255
223 237 255
222 236 255
215 231 244
223 237 255
223 237 255
224 236 244
227 239 255
226 238 255
227 239 255
228 239 255
216 230 217
100 129 195
119 144 195
88 119 136
70 107 168
100 129 195
99 128 195
70 108 186
64 99 148
101 130 195
100 129 195
120 144 195
73 110 186
69 105 136
121 144 186
111 135 168
71 108 178
71 107 168
69 106 168
72 108 178
70 108 186
70 107 168
69 105 148
66 102 178
68 103 168
69 105 158
73 110 178
68 105 168
63 96 158
92 122 168
69 105 148
89 119 148
88 117 168
67 103 173
71 108 178
70 107 168
70 105 178
72 108 178
70 106 158
69 103 158
68 103 168
66 102 168
71 108 178
68 103 163
66 101 158
71 109 186
64 98 136
69 105 148
71 107 168
67 102 168
72 109 178
71 107 168
70 107 178
69 106 168
70 105 148
66 102 168
68 103 168
73 109 178
68 102 158
66 100 148
71 107 168
71 108 178
62 95 158
67 103 178
72 109 178
69 106 158
70 107 168
74 110 186
68 104 178
72 109 178
67 102 158
73 110 186
69 107 178
65 99 173
72 109 186
70 106 158
71 107 158
70 107 178
72 109 186
70 108 186
73 109 178
70 107 178
69 106 168
67 102 148
71 108 178
70 107 168
68 103 158
71 108 168
71 106 148
63 98 168
71 107 168
67 103 148
67 103 178
70 106 158
71 107 168
69 106 168
71 109 186
71 108 186
71 109 186
70 107 168
71 108 178
71 108 178
67 103 178
62 96 158
69 106 168
72 108 178
71 108 178
69 106 168
68 103 178
69 106 168
70 106 158
70 107 168
70 105 168
68 105 168
71 108 178
70 105 148
66 101 158
69 104 136
71 107 158
70 106 158
68 104 148
69 106 178
69 105 158
72 108 168
68 104 148
68 103 136
72 108 178
71 108 178
72 109 178
65 98 158
69 105 158
69 106 168
70 105 148
72 109 178
69 105 158
72 109 186
71 107 168
70 107 168
68 104 148
69 107 178
71 107 168
69 106 168
71 108 178
71 108 178
73 110 186
69 105 158
71 107 168
68 104 148
71 108 168
70 107 178
72 108 168
70 106 158
71 107 168
72 109 178
72 108 178
71 108 178
70 107 168
73 109 178
68 105 158
72 108 168
72 109 178
70 106 158
69 105 158
70 107 168
71 107 168
69 105 148
71 106 148
70 106 168
70 107 168
68 105 158
71 107 168
68 103 158
72 108 168
68 104 148
69 103 158
67 104 148
73 109 178
69 106 168
71 108 178
71 107 168
70 105 148
69 106 168
72 108 158
70 106 158
69 105 158
68 103 136
67 104 148
71 108 178
67 103 168
72 108 178
71 107 158
70 106 148
68 105 158
68 103 136
67 103 136
72 109 186
73 108 158
66 101 136
70 104 148
71 105 148
69 106 168
69 106 168
69 106 168
66 101 148
69 106 158
71 107 168
68 104 148
70 106 148
73 110 178
69 105 148
69 105 148
71 108 178
69 104 158
70 104 148
65 99 123
69 104 136
70 105 158
67 102 123
71 108 178
70 105 160
70 105 158
68 104 136
71 108 168
69 104 148
71 106 148
69 103 160
65 98 136
66 98 138
67 100 128
76 77 0
120 116 59
93 88 0
76 70 0
98 95 0
75 76 0
103 102 0
115 107 0
130 121 43
88 88 0
70 61 0
115 112 0
100 94 0
86 88 0
99 92 43
111 104 59
57 48 23
129 125 43
121 118 0
119 116 43
79 75 0
81 83 0
114 111 43
124 120 43
96 93 0
104 97 0
77 77 0
96 100 0
90 88 0
106 99 43
79 80 0
92 83 43
105 106 0
92 93 0
134 131 0
108 100 0
100 94 31
104 100 0
94 95 0
124 120 59
83 87 31
57 60 0
159 152 71
121 116 0
112 113 0
132 128 31
136 129 43
129 123 0
127 123 52
98 101 31
78 77 0
112 110 0
144 132 71
98 93 59
157 154 0
114 109 43
125 120 0
129 125 43
147 144 59
129 122 43
123 117 43
154 152 0
132 130 43
147 146 0
128 125 43
161 157 0
110 105 43
144 137 59
114 112 43
141 136 43
126 121 0
152 148 0
153 148 59
106 99 43
114 112 0
95 95 0
111 107 0
118 111 0
105 101 43
116 109 0
152 145 59
142 140 0
121 115 43
157 152 59
120 116 43
118 118 0
134 132 43
156 151 59
134 128 0
140 137 43
146 141 0
148 143 43
141 136 43
124 117 43
131 128 0
152 147 59
154 150 59
156 144 59
158 149 59
144 136 0
122 115 0
114 104 0
120 115 59
155 148 59
120 119 0
149 145 43
154 148 59
124 119 43
95 85 43
133 128 59
121 118 0
133 128 43
115 107 0
142 136 43
141 129 59
93 92 0
122 120 43
78 77 0
94 92 0
113 105 59
88 79 0
130 137 0
216 233 255
213 230 244
218 234 255
216 233 255
217 233 255
214 230 244
217 234 255
218 234 255
211 229 244
210 227 231
212 230 244
218 234 255
218 234 255
218 234 255
217 233 255
218 234 255
218 234 255
216 233 255
218 234 255
218 234 255
219 234 255
219 234 255
215 231 244
219 235 255
217 233 255
220 235 255
215 231 244
218 234 255
219 234 255
220 235 255
221 235 255
221 236 255
218 233 244
221 236 255
213 229 231
218 233 244
223 236 255
222 236 255
221 235 255
222 236 255
224 237 255
223 237 255
221 235 255
224 237 255
225 238 255
224 237 255
225 238 255
220 234 244
226 238 255
223 236 244
206 220 244
72 108 178
98 127 186
110 138 186
112 139 178
99 128 195
94 118 168
143 165 186
100 128 195
120 145 202
173 191 202
99 127 186
137 158 186
124 148 202
138 158 206
61 94 136
67 102 168
65 100 158
68 104 178
88 121 178
71 107 158
85 117 168
71 106 158
67 101 148
69 105 148
69 104 178
67 101 158
65 98 148
68 103 178
66 99 168
66 101 158
91 122 158
127 153 136
64 97 148
69 106 168
69 105 148
69 106 158
67 102 158
69 106 158
70 105 178
64 96 136
71 107 168
62 96 136
69 107 186
69 103 158
65 101 158
65 100 158
71 108 178
71 108 178
71 108 178
69 106 168
67 102 153
71 108 168
69 105 158
69 104 168
70 108 186
70 106 158
66 101 158
69 105 158
74 110 186
67 103 178
69 105 148
68 105 178
69 106 168
67 102 168
70 107 178
69 104 168
67 103 173
61 94 136
69 105 148
69 106 168
74 110 186
70 108 186
71 106 168
70 107 168
73 110 186
66 100 136
68 104 148
68 104 148
68 104 148
69 105 158
71 108 178
68 104 148
69 105 182
73 110 186
67 101 158
69 106 168
72 108 168
72 109 186
66 101 148
70 106 168
64 98 123
68 103 178
72 109 178
70 106 168
70 106 168
70 105 178
73 110 186
69 105 148
72 109 186
67 103 168
70 106 158
70 107 168
70 107 178
69 105 158
71 108 168
71 109 186
71 108 186
69 106 168
71 109 186
72 109 178
71 108 178
72 109 178
70 106 158
69 105 136
70 106 158
70 106 168
71 109 186
70 107 178
71 108 178
72 108 178
65 100 148
69 106 168
73 110 186
72 109 186
70 107 168
72 108 168
73 109 168
68 104 148
70 106 158
75 112 186
68 104 168
70 107 178
70 107 168
69 106 168
70 107 178
69 105 148
68 104 148
71 108 168
72 108 168
71 107 168
71 108 178
74 111 186
70 107 168
70 107 178
70 106 168
72 107 158
73 109 178
70 107 168
72 109 178
70 107 168
72 107 158
73 110 186
71 108 168
69 105 148
69 105 158
71 107 168
68 105 158
73 109 178
71 107 168
70 107 168
71 108 178
70 106 168
69 106 178
71 106 148
72 108 178
72 109 178
71 108 168
72 108 158
66 102 136
69 105 158
71 107 158
70 106 158
70 107 168
72 107 158
70 108 186
70 106 158
69 104 148
70 106 158
69 105 158
73 110 186
69 106 168
70 107 168
70 106 168
71 107 158
71 108 178
71 108 178
67 103 136
70 105 136
68 104 148
66 101 148
70 106 148
68 104 148
68 104 148
75 110 168
74 109 168
71 108 168
70 106 158
70 105 158
66 101 148
70 107 168
71 108 168
70 105 148
72 108 168
71 108 178
73 108 168
71 107 168
70 106 168
70 105 136
74 110 178
71 107 158
70 106 158
71 107 158
66 102 123
70 106 158
66 100 136
65 98 123
67 103 136
73 110 178
64 96 136
70 104 160
67 102 158
69 102 141
61 95 89
58 89 108
69 103 168
66 99 123
88 96 89
76 69 0
102 88 0
76 71 0
80 72 0
71 68 0
109 106 43
76 76 0
102 97 0
126 117 0
60 63 0
99 95 0
152 143 81
111 106 43
100 99 0
71 73 0
121 114 0
65 71 31
85 82 0
101 100 0
112 105 43
61 65 0
123 118 59
98 92 0
140 129 43
133 129 59
122 115 0
74 72 0
114 114 43
73 75 0
109 107 31
107 102 0
130 123 43
122 119 0
86 89 31
104 99 0
129 123 59
112 107 43
87 83 0
114 110 0
96 97 0
133 127 43
128 127 0
135 130 59
112 110 43
111 104 43
136 125 43
58 60 0
144 141 43
115 114 0
107 106 0
110 109 23
128 123 0
129 127 52
145 140 43
123 117 43
102 100 0
122 117 43
147 143 0
122 114 43
122 114 0
134 130 43
141 140 0
120 116 0
146 136 59
110 108 0
148 145 0
135 133 43
149 147 0
177 169 89
160 154 71
130 129 43
115 114 43
150 145 43
118 117 0
125 122 43
97 90 43
143 138 43
137 129 43
138 136 0
139 136 0
127 123 0
155 150 59
141 133 0
119 115 43
135 131 59
132 131 43
138 132 43
148 146 0
125 121 43
132 130 43
144 140 43
165 157 59
126 123 43
119 113 0
112 107 43
69 67 0
146 141 43
133 129 0
136 132 43
138 136 0
114 116 0
102 99 0
143 137 71
144 141 0
113 106 43
117 108 43
131 130 43
137 129 0
121 116 0
133 129 0
127 120 59
96 85 43
144 134 59
142 136 43
138 136 0
123 118 59
117 113 59
107 102 43
114 110 43
141 143 43
153 163 0
153 159 0
211 229 244
216 233 255
212 230 244
212 230 244
214 231 244
210 227 231
214 231 244
216 233 255
216 233 255
216 233 255
215 232 255
217 233 255
217 233 255
216 233 255
217 233 255
212 230 244
216 233 255
215 232 255
216 233 255
215 232 255
216 233 255
218 234 255
217 233 255
217 233 255
216 233 255
213 230 244
219 234 255
218 234 255
215 231 244
219 235 255
215 231 244
216 232 244
220 235 255
219 235 255
217 232 244
217 232 244
220 235 255
220 235 255
221 235 255
221 236 255
219 233 244
221 235 255
219 234 244
224 237 255
223 237 255
225 238 255
225 238 255
220 234 244
226 238 255
225 238 255
226 238 255
169 186 217
71 108 178
118 144 202
118 141 195
99 128 195
97 126 186
72 109 178
96 124 148
97 124 186
100 129 195
121 145 186
121 146 202
139 160 210
100 128 186
138 159 202
69 106 168
66 101 168
69 106 168
69 105 158
68 103 168
69 105 158
71 107 168
63 97 163
71 107 168
70 107 168
87 118 148
63 97 153
65 101 168
71 108 178
64 97 148
60 92 153
65 98 168
115 140 136
65 99 142
72 109 186
62 95 148
72 109 186
65 101 158
69 106 158
67 102 158
71 108 186
65 100 158
69 105 158
68 104 173
70 107 168
69 107 178
65 100 136
69 106 158
70 107 168
69 104 163
68 104 182
68 102 158
66 102 153
67 101 148
70 107 168
68 103 158
69 105 158
64 97 148
67 102 158
70 105 173
66 101 158
68 105 168
69 105 158
70 106 168
69 106 168
72 109 186
70 106 158
70 107 178
67 104 158
71 107 168
71 107 168
69 104 168
71 108 168
73 110 186
69 106 158
68 105 158
64 96 136
69 105 158
68 102 148
65 100 153
73 110 186
70 106 158
72 109 178
71 108 186
68 106 178
71 108 178
71 108 186
72 108 178
66 101 158
70 106 158
69 105 148
74 110 186
69 105 158
70 107 178
69 107 186
73 110 186
70 107 168
69 104 178
70 106 168
69 105 158
72 109 186
67 102 168
66 101 148
70 106 158
65 100 158
73 109 178
69 106 168
70 106 158
68 104 148
70 106 148
70 107 168
69 106 168
71 108 178
70 107 178
70 107 178
72 108 168
71 108 168
70 106 158
69 105 148
72 109 178
72 108 178
69 106 168
70 106 158
70 107 168
69 105 158
69 107 178
71 107 168
72 109 178
69 107 178
70 107 178
73 109 178
73 110 186
69 105 158
69 106 158
71 107 158
70 106 158
70 107 178
70 105 148
71 108 178
71 108 178
70 107 178
72 109 178
69 105 158
71 107 168
68 105 168
72 108 178
71 107 168
69 104 158
73 110 186
69 105 148
73 110 186
70 107 168
69 107 178
71 108 178
71 107 158
72 108 168
71 107 168
71 107 158
71 108 178
70 107 168
69 106 168
71 108 178
71 108 168
69 105 148
70 107 178
69 105 158
71 106 158
71 109 186
67 103 158
72 109 186
72 108 168
67 104 158
71 107 168
70 106 168
67 104 158
73 109 168
69 106 168
70 105 148
72 107 158
70 107 168
70 106 158
72 108 168
72 108 168
69 104 136
71 108 178
69 105 158
71 107 168
71 108 168
70 105 148
69 105 158
66 99 158
71 108 168
66 101 158
70 105 148
70 106 148
70 107 168
70 107 178
70 107 178
71 108 168
70 106 158
67 103 148
68 104 148
69 105 158
71 106 148
70 105 136
70 106 158
71 107 168
71 108 168
73 109 168
64 97 108
71 107 158
67 101 123
73 108 170
68 104 148
70 106 148
70 107 178
70 104 168
71 107 158
67 102 123
66 100 158
64 99 136
71 105 160
67 101 136
66 97 128
67 101 136
67 101 136
95 95 0
77 73 0
128 125 43
47 43 0
62 60 0
76 70 0
82 82 0
73 62 0
113 108 43
89 84 0
120 113 43
102 92 23
82 82 0
75 76 0
118 113 43
66 73 0
99 96 0
56 58 0
105 102 43
76 70 0
134 131 43
83 83 0
96 91 0
125 121 43
128 123 43
127 130 0
115 108 43
102 96 0
122 122 43
106 100 43
90 90 0
95 93 0
136 133 43
115 112 0
61 63 0
111 113 0
111 104 59
130 126 43
99 97 0
132 125 0
98 97 0
113 110 0
140 129 43
112 108 0
125 124 0
128 127 0
31 40 31
147 140 59
123 119 43
123 117 59
92 89 0
155 148 71
116 115 43
115 114 0
128 129 0
130 127 43
135 132 43
132 128 0
122 115 0
132 127 59
152 148 43
94 96 0
106 105 0
121 118 0
74 75 0
125 120 0
112 113 0
119 115 43
132 123 59
113 111 0
127 123 0
108 104 0
156 151 59
133 129 0
152 145 43
109 102 0
144 141 0
141 135 59
139 135 0
135 130 43
130 122 59
126 123 0
121 118 0
137 130 59
117 117 0
115 108 0
127 126 0
126 122 0
139 137 0
131 126 43
109 108 0
138 132 43
142 132 43
115 113 43
132 122 0
107 104 43
141 139 0
126 118 59
125 119 43
132 134 0
134 126 43
142 138 0
119 113 43
107 105 0
104 101 0
119 113 0
129 127 0
130 125 0
121 117 0
120 116 0
138 133 43
146 139 43
144 138 59
100 89 0
129 120 43
169 159 71
129 123 43
121 115 59
89 86 43
117 117 0
163 173 0
164 171 0
176 188 0
215 232 255
214 232 255
217 233 255
215 232 255
214 232 255
214 232 255
214 232 255
215 232 255
216 233 255
215 232 255
215 232 255
213 231 255
217 233 255
212 231 255
216 233 255
216 233 255
216 233 255
215 232 255
216 233 255
216 233 255
217 233 255
213 230 244
212 230 244
216 233 255
217 233 255
215 232 255
218 234 255
214 230 244
217 233 255
216 233 255
217 234 255
219 234 255
219 234 255
214 230 244
218 234 255
210 227 231
220 235 255
221 235 255
221 235 255
221 236 255
222 236 255
222 236 255
219 233 244
222 236 255
220 234 244
221 236 255
219 233 244
223 237 255
225 238 255
215 227 244
216 229 250
225 238 255
102 129 186
97 125 186
118 144 202
69 106 178
72 109 186
100 130 195
67 102 168
72 109 178
96 122 158
98 124 178
72 109 178
70 107 178
99 127 178
101 128 178
72 109 186
94 118 168
72 108 168
69 106 168
70 106 158
101 126 108
86 115 178
64 100 168
70 106 148
64 97 142
71 108 178
68 104 168
88 121 158
62 95 148
89 120 158
100 129 148
89 121 168
65 99 123
71 108 178
115 142 148
73 109 168
64 99 148
66 102 136
70 107 178
72 107 158
67 103 173
72 109 186
70 107 178
66 102 178
71 107 148
66 101 153
70 107 178
69 104 178
67 104 158
67 101 148
65 99 136
73 110 186
71 108 178
71 106 148
69 106 168
71 108 186
68 105 158
69 105 178
69 105 158
73 110 186
71 107 168
68 106 178
67 104 158
68 103 178
68 105 158
72 109 178
69 107 178
67 102 168
67 103 148
67 102 168
69 106 168
67 101 148
65 98 158
66 102 168
72 108 178
70 107 178
70 107 168
72 109 186
67 104 148
67 102 158
66 102 168
67 105 168
70 107 168
69 105 148
69 106 178
72 109 178
71 108 178
70 107 178
67 102 158
69 105 158
68 105 178
72 108 168
67 101 148
69 106 168
71 108 178
71 108 186
71 108 178
70 106 168
69 105 158
68 103 168
69 104 163
71 107 158
72 107 158
70 107 168
71 108 178
70 107 178
71 109 186
74 110 186
71 107 168
72 108 168
73 108 158
72 108 168
71 108 186
68 105 168
70 104 168
73 109 178
72 109 178
70 107 168
70 106 168
70 106 158
74 110 178
68 105 158
71 108 178
68 103 178
69 106 168
71 107 158
72 109 178
71 107 168
73 110 186
73 110 186
71 107 158
64 99 136
74 110 168
70 106 148
71 107 168
68 104 136
71 107 168
69 106 158
71 107 168
71 107 168
73 109 168
72 109 178
70 107 168
66 103 148
67 104 148
71 108 178
64 98 136
69 105 158
70 106 148
69 105 148
70 107 168
69 106 168
73 109 168
66 101 148
69 105 158
68 103 158
72 108 168
68 104 148
69 105 158
73 109 178
69 105 148
69 105 158
72 109 186
69 105 148
71 108 186
71 108 186
71 108 178
69 106 168
66 100 136
68 105 158
74 110 186
71 108 178
70 106 158
71 107 168
71 108 178
70 106 158
69 106 158
69 106 168
71 107 158
73 109 178
70 106 158
70 106 158
71 108 168
71 108 186
69 105 168
73 109 178
74 110 178
69 106 168
72 109 178
71 107 168
71 107 158
71 107 168
72 109 178
71 108 178
68 104 148
70 105 136
72 108 178
71 106 148
68 104 168
70 106 148
72 108 178
63 97 123
69 105 158
72 107 148
70 105 148
73 110 178
68 104 148
68 103 136
65 99 158
71 107 168
64 99 148
65 99 136
66 100 136
71 106 170
71 107 158
68 102 123
68 104 148
66 100 111
69 105 148
63 95 136
71 106 170
71 107 158
62 94 123
67 102 148
71 107 158
70 106 158
100 116 65
99 98 0
113 117 0
93 89 0
22 28 0
92 86 43
94 87 0
132 131 0
97 93 0
98 97 0
54 55 0
83 78 43
75 62 0
81 82 0
80 78 0
86 77 43
55 56 0
60 65 0
101 96 23
118 116 52
117 109 43
113 112 43
145 137 43
109 103 0
81 81 0
101 98 43
93 87 43
108 100 52
125 119 43
96 98 0
92 86 43
115 117 0
77 78 0
100 93 0
110 110 0
106 98 0
105 105 0
143 140 43
142 137 43
101 97 0
107 99 0
122 120 0
100 96 0
135 132 43
141 140 0
111 109 43
88 89 0
102 97 0
113 108 0
93 88 0
96 98 0
109 106 43
110 107 43
79 72 0
143 137 43
102 97 0
101 98 43
141 134 43
116 109 43
134 127 0
141 136 43
138 129 59
136 133 43
130 123 43
102 100 0
89 90 0
149 144 59
167 160 59
107 102 0
92 93 0
118 111 43
98 94 0
136 132 0
145 141 43
164 158 43
134 130 43
137 129 43
140 133 43
103 100 43
132 129 43
141 137 0
148 145 0
128 123 0
119 117 0
84 82 0
112 111 43
142 136 43
149 144 59
140 136 59
113 109 43
151 144 59
143 140 43
130 124 0
104 101 43
119 114 43
148 140 43
151 144 43
130 124 0
143 139 43
117 113 0
141 140 43
135 127 43
145 138 71
129 124 0
102 98 43
119 115 0
117 113 0
149 146 0
129 125 0
126 119 0
109 102 0
133 127 43
121 114 0
139 134 0
124 123 0
116 116 0
107 105 0
162 159 71
139 142 0
141 141 0
168 176 0
170 180 0
165 174 0
214 232 255
213 231 255
214 232 255
217 233 255
215 232 255
214 232 255
214 232 255
213 231 255
215 232 255
216 233 255
212 231 255
215 232 255
214 231 255
215 232 255
213 231 255
215 232 255
215 232 255
217 234 255
218 234 255
217 233 255
214 232 255
217 233 255
216 233 255
217 233 255
216 233 255
216 233 255
215 232 255
212 230 244
217 233 255
216 233 255
218 234 255
214 231 244
217 233 255
215 231 244
216 233 255
218 234 255
219 235 255
220 235 255
219 234 255
219 235 255
220 235 255
221 236 255
221 236 255
221 235 255
222 236 255
221 236 255
223 237 255
221 235 255
213 227 250
204 218 237
223 237 255
224 237 255
203 218 244
71 108 186
97 127 186
71 108 178
119 143 186
98 128 195
98 127 186
99 128 195
99 128 186
70 107 178
120 144 202
98 127 178
96 122 168
96 122 158
100 129 195
121 145 202
95 119 168
70 107 178
69 106 168
65 100 148
87 120 168
67 102 158
89 118 168
74 109 168
68 104 178
68 104 173
70 107 178
68 103 168
71 108 178
80 106 115
57 89 136
62 93 148
89 121 158
73 109 168
91 120 136
101 131 136
68 102 158
69 105 173
70 106 148
70 107 168
64 99 173
68 106 168
70 107 168
69 105 158
68 106 168
68 103 168
68 105 168
66 101 168
69 105 158
69 105 158
69 105 158
74 110 178
70 108 186
71 108 178
68 104 168
67 101 173
65 101 168
65 97 148
71 107 168
70 106 168
69 107 178
68 105 168
67 104 158
72 108 168
71 107 168
70 107 178
68 105 158
67 102 168
67 102 168
67 104 158
70 106 158
68 104 178
68 104 158
69 105 158
71 108 186
66 100 148
69 106 178
70 107 168
71 109 186
68 105 158
66 101 148
70 107 178
68 105 168
69 106 178
69 107 178
71 108 178
72 109 186
70 107 168
70 107 168
73 109 178
73 110 186
72 109 178
68 102 148
71 108 186
70 107 178
68 103 158
71 109 186
72 108 178
70 107 178
64 100 148
70 107 168
70 106 168
69 106 168
71 108 178
71 107 168
70 107 168
72 109 186
69 103 168
73 110 186
72 109 178
71 106 148
73 109 168
69 106 168
68 103 158
66 102 168
68 105 158
72 108 168
70 107 168
68 104 148
70 107 168
70 106 158
71 108 178
70 106 158
71 108 168
70 106 158
69 104 173
71 108 186
71 108 178
71 108 178
70 107 168
70 107 168
71 106 182
69 106 168
70 107 168
66 101 158
68 104 136
71 107 158
70 107 168
69 105 168
70 107 178
71 107 158
70 107 178
70 107 168
71 107 168
71 108 178
71 107 168
72 108 178
73 110 178
71 108 178
71 107 158
68 105 158
69 105 148
70 106 168
70 107 168
68 104 148
71 108 178
73 110 186
70 106 158
72 109 178
69 105 148
68 105 158
70 106 148
72 109 178
71 108 168
69 105 158
70 106 158
70 106 158
70 107 178
72 108 178
68 105 168
74 110 178
71 108 178
69 105 148
69 106 168
69 104 168
69 106 158
71 107 158
71 107 168
68 104 148
71 107 168
68 103 136
71 107 158
68 103 136
69 105 148
68 104 148
71 107 168
73 110 186
67 102 158
69 106 168
71 107 168
72 108 168
70 106 158
70 105 136
70 107 168
69 104 136
69 105 148
71 107 158
67 101 148
70 106 148
72 109 178
73 109 178
67 101 148
69 105 148
70 105 160
65 98 148
66 101 148
66 102 136
64 95 123
71 108 178
65 99 136
69 106 158
72 108 168
71 107 158
68 102 158
66 100 108
67 102 158
66 101 148
69 105 148
65 99 123
69 105 158
68 101 136
69 105 158
66 100 136
67 99 158
62 95 123
138 143 0
143 153 0
143 148 0
127 129 0
95 74 0
83 80 0
98 95 0
58 62 0
123 122 0
78 80 0
97 86 0
94 86 0
0 0 0
87 83 43
60 61 0
107 107 0
24 30 0
107 102 0
115 111 43
96 95 0
98 96 0
80 82 0
123 116 43
115 112 43
115 108 43
126 121 0
93 91 43
106 105 0
100 98 0
113 110 43
115 111 43
86 84 0
72 72 0
108 108 0
123 117 59
109 110 0
82 84 0
90 91 43
124 121 43
123 118 0
128 123 43
93 86 0
128 127 0
127 122 43
115 107 43
121 118 0
134 127 43
140 137 0
110 108 0
152 148 0
136 130 0
109 108 0
119 117 0
76 76 0
85 84 0
115 111 43
137 137 0
126 124 0
114 112 43
129 128 0
132 128 59
101 97 43
124 120 43
139 132 59
128 123 0
142 135 0
114 108 0
107 103 0
105 102 0
151 145 59
121 116 0
127 116 59
133 135 0
132 130 43
150 143 0
161 154 59
106 105 0
128 128 0
125 118 0
134 131 0
119 115 0
134 128 43
125 121 43
127 120 0
127 123 0
142 135 59
131 127 59
134 127 43
140 132 0
137 133 0
160 156 0
126 122 0
139 136 0
139 133 0
113 108 43
132 128 59
138 131 43
100 98 0
139 132 0
119 117 0
116 113 0
127 122 0
96 92 43
105 106 0
108 106 0
138 135 0
137 131 0
121 113 0
131 128 0
127 123 0
128 120 59
104 99 43
107 104 0
138 136 0
114 111 0
88 84 0
129 132 0
152 154 0
122 130 0
166 177 0
163 179 0
171 186 0
167 178 0
213 231 255
214 231 255
213 231 255
214 232 255
214 232 255
212 231 255
211 229 244
214 231 255
213 231 255
216 233 255
214 231 255
213 231 255
214 231 255
215 232 255
214 232 255
214 232 255
214 232 255
213 231 255
213 231 255
214 232 255
214 232 255
215 232 255
215 232 255
214 232 255
216 233 255
217 233 255
215 232 255
216 233 255
215 232 255
216 233 255
218 234 255
217 233 255
210 228 231
216 233 255
218 234 255
216 233 255
216 233 255
216 233 255
218 234 255
214 231 244
217 234 255
220 235 255
207 225 217
221 235 255
220 235 255
222 236 255
220 235 255
212 227 250
223 236 255
219 234 255
223 236 255
223 237 255
224 237 255
193 209 237
71 108 186
71 109 186
71 108 186
70 107 178
136 159 210
99 128 186
70 108 186
98 127 195
97 127 195
95 120 178
100 128 195
119 141 186
71 108 168
71 108 178
101 129 186
102 130 195
70 107 178
69 107 186
71 108 178
69 104 168
64 99 136
70 107 178
67 102 158
69 105 158
69 106 158
86 110 148
65 99 148
65 99 136
83 114 148
68 103 168
68 104 178
72 109 178
82 111 136
70 105 182
102 127 123
71 107 168
64 98 123
72 108 168
65 102 136
65 101 168
68 103 163
70 107 178
65 101 168
71 108 178
68 104 163
67 101 148
72 108 168
70 106 158
72 109 186
63 99 153
72 109 186
75 111 186
69 106 158
70 105 148
62 95 148
69 104 178
73 110 186
68 103 158
71 107 168
66 101 148
67 102 158
71 107 168
66 102 153
73 110 178
69 105 148
70 107 168
68 102 148
70 107 178
70 107 178
72 108 178
72 109 178
72 108 168
67 102 168
64 97 158
71 108 178
71 108 178
72 109 178
67 103 163
68 103 168
65 100 158
70 106 168
69 105 158
73 110 186
70 107 168
72 109 186
67 104 158
68 105 158
61 95 158
68 104 173
69 106 168
71 109 186
72 109 178
72 109 178
70 106 158
70 107 168
72 109 178
68 103 108
69 107 178
68 105 158
70 107 168
68 105 158
66 102 136
69 104 168
70 106 158
71 109 186
71 107 168
70 107 178
68 104 148
70 106 168
68 105 158
71 107 168
69 106 178
69 105 158
69 103 158
71 108 178
71 106 148
72 109 178
70 108 186
71 108 178
68 103 168
69 105 158
72 109 178
72 108 168
72 108 178
70 107 168
71 107 168
71 108 178
73 109 168
72 108 168
69 103 148
67 104 158
70 106 168
70 106 158
72 109 186
72 108 168
71 108 178
73 110 178
72 109 178
69 106 158
71 106 148
71 108 178
72 109 178
68 105 158
71 107 158
72 109 186
71 108 168
69 106 168
69 105 148
70 108 186
71 107 158
70 105 148
72 108 158
70 106 158
67 102 158
69 106 168
69 105 148
68 106 178
73 110 186
71 108 178
71 107 158
67 102 158
69 106 168
72 108 158
72 108 168
69 106 158
71 108 168
73 110 178
72 108 168
69 105 158
67 104 158
68 105 158
72 109 178
68 104 136
70 107 168
69 105 158
71 108 178
73 109 168
71 106 148
70 107 178
69 106 168
67 101 136
71 107 158
66 101 158
71 108 178
75 111 186
68 104 148
68 104 148
72 108 178
68 102 148
72 109 186
69 104 158
66 99 158
67 102 158
73 109 168
70 106 148
69 105 148
71 105 148
64 98 136
69 104 168
66 100 136
67 102 148
68 104 148
69 104 136
67 100 136
64 97 123
68 104 136
72 107 178
70 106 148
69 104 158
69 105 160
71 108 178
73 110 178
70 106 158
68 105 158
71 106 148
69 103 138
65 99 136
65 100 148
65 99 123
70 106 158
66 99 138
62 96 108
63 94 89
113 115 0
117 128 0
97 103 0
129 133 0
72 81 0
98 98 0
116 108 43
98 98 0
80 82 0
83 83 0
84 70 0
74 71 43
79 77 0
113 106 43
92 86 0
90 83 0
84 81 0
83 81 0
89 86 0
77 80 0
88 76 0
104 99 0
112 111 0
94 88 0
116 109 43
113 110 0
117 116 0
103 102 43
58 57 0
63 67 0
93 90 0
106 107 0
57 59 0
132 125 0
118 113 0
107 100 0
77 78 0
128 121 43
87 73 0
122 119 0
107 102 0
128 128 0
141 136 59
91 92 0
74 71 43
85 80 0
98 90 0
117 119 0
87 82 43
104 102 0
135 131 0
95 99 0
104 105 0
115 115 43
126 124 0
113 106 59
124 119 0
147 142 43
139 133 43
123 120 0
117 111 43
109 110 0
102 100 43
112 106 0
107 107 0
82 81 0
110 105 0
103 101 43
142 140 43
118 115 0
121 117 43
120 116 43
137 136 0
142 138 43
156 151 59
122 114 43
112 109 43
156 150 43
136 132 43
111 109 0
57 49 0
146 136 0
131 128 0
160 153 59
123 117 0
130 124 0
130 121 0
80 80 0
112 109 43
128 123 0
118 116 0
151 148 43
93 92 0
130 128 0
110 107 0
120 116 0
124 119 43
144 135 43
110 101 0
123 120 43
119 115 43
106 101 0
146 141 0
132 127 43
131 126 0
158 153 59
141 136 43
110 108 43
112 102 0
129 120 0
100 88 0
110 108 0
128 123 0
86 80 0
81 78 0
146 155 0
179 189 0
147 151 0
148 155 0
160 169 0
163 172 0
166 179 0
160 166 0
212 230 255
214 232 255
203 220 244
214 232 255
204 221 244
213 231 255
204 221 244
204 221 244
192 207 217
212 231 255
195 210 231
213 231 255
213 231 255
180 196 217
204 221 244
213 231 255
213 231 255
214 232 255
213 231 255
215 232 255
214 231 255
214 232 255
214 232 255
213 231 255
213 231 255
212 231 255
215 232 255
215 232 255
215 232 255
216 233 255
217 233 255
216 233 255
219 234 255
219 234 255
218 234 255
212 230 244
214 230 244
218 234 255
218 234 255
218 234 255
219 234 255
208 225 217
219 235 255
220 235 255
219 234 255
221 235 255
221 236 255
211 226 250
222 236 255
222 236 255
223 236 255
212 227 244
221 236 255
215 228 250
138 159 210
97 126 178
71 108 178
72 108 178
68 104 178
98 127 186
70 107 178
71 108 178
70 107 178
119 144 195
98 127 195
68 106 178
68 103 178
71 108 178
121 145 195
96 123 186
121 145 195
100 128 186
69 107 186
59 91 148
73 110 186
70 106 158
85 116 148
103 133 168
68 105 168
62 96 158
66 101 168
67 101 148
64 97 158
69 106 178
70 107 178
87 116 129
68 103 168
60 94 148
68 102 158
93 122 158
83 114 148
64 97 158
70 106 158
69 104 136
71 108 168
70 106 158
62 96 108
70 106 148
69 106 168
67 102 168
68 105 158
69 104 173
68 103 158
69 106 168
68 104 173
68 104 136
67 102 158
68 102 158
69 105 148
67 101 136
64 97 148
66 101 158
70 105 178
69 107 178
69 106 168
69 106 168
65 101 158
70 106 158
71 108 168
70 106 168
71 108 178
64 97 158
62 95 136
70 107 168
70 106 168
71 108 178
71 108 178
63 97 158
67 102 168
70 106 182
70 106 158
72 109 178
69 106 178
72 108 178
73 110 186
68 103 163
71 108 178
69 103 158
68 105 168
70 107 168
70 107 168
70 106 158
74 110 178
70 107 178
71 108 186
69 105 148
72 109 186
68 106 168
71 107 158
72 108 158
65 97 148
69 105 178
69 104 168
70 106 168
69 105 158
69 107 178
66 101 158
69 104 168
66 101 108
70 107 168
69 106 168
71 107 158
73 109 178
70 106 168
72 109 186
70 105 148
70 107 168
73 110 186
69 106 168
71 108 178
70 108 186
70 107 178
71 107 168
72 107 158
67 104 158
72 109 186
72 108 168
72 108 178
72 109 186
69 107 178
73 109 168
70 107 178
70 106 158
69 106 168
68 106 178
70 106 158
71 109 186
70 106 158
69 105 158
73 109 168
71 106 168
71 108 178
70 106 148
70 106 158
71 107 168
70 107 168
70 106 158
73 110 186
73 110 178
71 107 168
73 109 178
68 105 158
71 107 158
70 106 158
72 109 186
71 107 158
72 108 178
72 109 178
68 105 168
70 108 186
70 106 158
69 104 136
72 109 178
70 106 158
69 107 178
71 108 168
69 106 158
76 112 186
73 109 178
68 104 148
68 103 123
71 107 158
67 103 148
69 106 158
70 107 168
69 105 158
70 106 158
65 99 123
69 106 168
74 110 186
74 110 178
69 106 168
71 108 168
71 108 178
68 104 158
74 111 186
71 108 178
71 107 158
71 108 178
68 104 148
71 108 186
69 105 158
70 106 158
68 103 148
70 106 158
70 107 168
67 102 168
73 110 178
67 102 123
70 106 158
69 105 148
70 106 158
73 109 178
71 107 158
68 103 123
72 107 170
71 107 168
65 98 148
70 106 168
73 109 178
69 105 168
68 103 158
73 109 168
69 104 136
68 103 136
67 101 89
72 109 178
67 101 123
68 103 158
68 102 136
70 105 168
68 104 158
75 111 186
72 108 158
55 83 93
65 97 128
68 90 108
133 132 0
151 163 0
113 123 0
104 103 0
112 110 0
120 128 0
88 81 0
92 85 0
50 46 0
64 62 0
89 83 0
99 97 0
104 91 0
65 64 0
127 111 0
90 84 0
81 80 0
70 68 0
125 119 59
115 111 0
123 117 0
94 88 0
97 93 0
107 102 0
111 102 0
119 117 0
101 99 43
80 75 0
125 119 0
114 112 0
110 108 0
116 113 43
143 138 59
79 71 0
106 98 43
136 132 0
126 117 0
83 85 0
78 79 0
88 82 0
117 113 43
120 111 59
86 91 0
97 98 0
112 112 0
114 112 43
124 120 0
111 103 43
109 105 0
117 115 0
131 125 59
129 121 0
119 114 0
122 118 0
113 110 43
109 107 0
115 111 43
115 111 43
128 123 0
77 78 0
144 140 43
144 133 43
111 106 0
98 94 0
117 113 0
122 116 0
95 95 0
125 120 0
145 136 43
134 127 43
136 136 0
136 128 0
108 107 0
132 126 43
128 122 59
103 99 43
130 117 43
138 134 0
107 102 0
133 129 0
130 126 43
151 145 43
124 117 43
59 57 0
150 145 43
129 124 43
78 77 0
138 132 59
125 122 0
139 132 43
140 138 0
121 114 0
151 145 43
110 105 0
125 119 0
114 115 0
122 116 43
116 109 0
106 101 0
135 131 0
89 85 0
126 122 0
108 104 43
101 100 0
108 103 0
111 109 43
116 116 0
92 92 0
78 77 0
150 144 59
119 113 0
90 86 0
124 116 0
157 160 43
149 162 0
164 176 0
151 159 0
164 182 0
169 182 0
151 162 0
148 153 0
162 177 0
151 151 0
194 208 217
180 195 202
206 223 202
186 202 186
199 215 202
203 218 217
199 216 217
168 184 148
198 215 217
180 194 186
169 185 148
202 220 186
198 214 202
176 195 168
166 184 168
220 234 244
191 207 186
185 201 186
205 220 231
210 228 231
213 230 244
202 220 244
216 233 255
185 203 202
213 231 255
214 231 255
214 231 255
214 232 255
214 232 255
215 232 255
215 232 255
214 232 255
216 233 255
214 232 255
215 232 255
216 233 255
219 234 255
218 234 255
217 233 255
216 233 255
218 234 255
216 233 255
219 234 255
219 234 255
219 235 255
220 235 255
219 234 255
219 235 255
220 235 255
202 217 244
201 215 237
212 227 250
220 235 255
223 237 255
204 218 244
102 130 195
97 126 186
71 108 178
72 109 186
98 127 195
118 144 202
96 125 178
119 144 195
71 108 186
70 107 186
98 128 195
97 126 178
69 106 168
69 107 178
73 110 186
100 129 195
99 127 178
69 107 178
60 93 163
72 109 178
69 105 178
71 108 168
67 102 168
71 108 178
73 110 178
73 109 168
65 100 158
83 111 148
88 120 158
62 95 148
87 114 158
71 107 168
68 105 158
69 106 168
68 104 178
88 120 158
99 127 136
90 120 148
66 102 168
68 105 168
70 107 168
69 106 168
66 100 148
67 103 136
67 101 148
73 109 178
58 89 129
66 102 163
69 104 168
66 100 148
71 108 178
66 101 158
69 105 158
70 107 168
69 106 178
70 107 178
64 98 158
67 102 153
67 102 168
70 107 168
70 105 168
63 97 153
65 100 158
71 108 178
71 108 178
70 106 158
70 107 168
68 105 158
66 101 148
69 107 178
66 100 148
72 108 168
68 105 158
70 105 163
69 107 178
67 104 158
67 103 173
72 109 178
72 109 186
70 107 178
69 106 168
70 107 168
69 107 178
71 107 168
67 103 148
68 106 178
69 105 178
70 108 186
69 106 168
68 103 158
73 108 158
73 109 178
66 101 158
71 107 158
70 106 158
68 104 168
69 106 168
69 106 168
71 107 168
72 108 178
68 105 158
61 96 123
63 98 148
74 110 186
69 105 148
70 107 168
67 102 168
69 105 158
71 108 178
70 106 158
71 107 158
69 106 168
74 110 178
69 105 148
71 108 186
75 111 178
70 107 168
70 106 168
68 104 148
70 106 168
69 105 148
71 108 178
72 108 168
66 101 148
70 107 168
73 110 186
72 109 186
74 111 186
69 104 158
70 106 158
67 104 148
71 108 178
71 107 168
71 108 168
70 106 158
68 104 148
70 106 158
69 106 168
67 103 136
72 108 168
72 109 178
71 109 186
69 105 136
67 104 148
68 105 158
69 104 136
70 107 168
72 107 158
70 106 168
73 109 178
72 108 168
65 100 136
72 109 186
72 108 168
74 111 186
70 106 158
69 104 158
71 108 178
69 104 158
72 108 168
68 105 158
69 105 148
69 103 158
72 108 178
69 105 148
70 107 178
72 109 178
71 108 168
68 104 136
69 105 158
71 107 158
65 99 123
70 107 168
74 109 168
66 101 148
72 108 168
73 109 178
72 108 168
68 103 123
69 104 136
69 104 168
74 110 186
72 108 158
72 108 168
70 106 148
74 109 158
67 103 136
65 100 148
67 102 148
72 109 178
73 110 186
72 107 170
72 108 178
70 107 168
72 108 178
75 111 178
71 107 168
72 108 168
70 106 158
68 104 148
71 107 158
69 103 138
65 99 123
66 102 123
69 105 148
71 108 178
65 100 148
67 101 148
67 103 136
64 96 89
69 105 148
68 103 148
69 102 150
59 90 108
72 108 168
67 100 128
67 101 108
67 102 158
65 97 89
66 100 123
65 98 148
109 126 123
142 144 0
136 134 0
125 123 0
146 154 0
141 149 0
91 97 0
153 158 0
142 143 0
61 59 0
17 24 0
91 82 0
97 86 0
89 86 43
89 83 0
88 86 0
91 84 0
59 61 0
73 68 0
130 120 43
125 116 43
95 83 0
116 114 0
90 88 0
97 96 0
77 76 43
100 94 0
87 83 0
94 83 0
100 98 0
79 80 0
110 108 0
92 90 0
127 124 0
116 112 43
113 110 0
72 64 0
61 64 0
118 113 43
138 131 43
107 109 0
116 112 0
101 96 43
127 111 43
57 58 0
78 78 0
95 97 0
108 107 0
124 118 43
81 77 0
112 111 0
114 115 0
132 130 0
143 141 0
147 140 0
124 114 43
85 88 0
152 146 43
110 108 0
166 156 81
133 128 0
132 125 0
93 92 0
103 102 43
154 148 43
137 132 43
75 74 0
130 124 0
120 116 0
107 108 0
117 111 43
89 88 0
134 131 0
141 131 43
108 108 0
104 103 43
132 125 0
137 134 0
119 117 0
121 118 0
141 138 0
133 130 43
93 92 0
141 134 0
116 109 0
126 122 0
113 107 43
125 122 0
134 130 0
123 118 0
135 127 43
112 111 43
133 126 59
119 115 0
120 116 0
109 108 0
44 33 0
135 128 43
109 106 0
139 135 43
133 127 43
130 126 0
120 117 0
106 101 0
71 60 0
85 83 0
123 116 0
144 139 0
116 110 0
97 94 0
117 115 43
111 104 0
107 101 0
124 121 0
175 184 0
161 172 0
162 160 0
169 188 0
158 165 0
139 150 0
152 152 0
178 195 0
176 191 0
171 186 0
199 218 186
180 201 123
199 216 202
173 191 123
207 225 217
196 216 186
209 222 231
208 225 244
189 205 202
198 218 186
210 227 231
215 230 231
200 215 202
202 221 202
196 212 186
205 222 202
206 220 217
181 197 186
207 225 217
203 222 217
199 218 186
192 210 186
203 218 217
207 221 231
196 212 186
212 227 217
200 216 217
207 221 231
207 222 244
204 221 244
203 220 244
216 233 255
214 232 255
217 233 255
215 232 255
214 232 255
212 231 255
215 232 255
215 232 255
215 232 255
216 233 255
217 233 255
211 228 231
217 233 255
219 234 255
219 234 255
219 235 255
209 225 244
220 235 255
219 235 255
220 235 255
219 234 255
222 236 255
220 235 255
222 236 255
213 228 250
99 127 186
68 105 168
72 108 168
116 140 195
99 129 195
98 126 178
69 107 186
74 111 186
118 144 202
99 128 195
94 120 178
117 140 195
96 123 168
68 107 186
69 106 178
119 142 195
95 121 168
71 108 178
67 102 158
70 105 178
68 104 158
71 108 178
64 97 158
69 106 178
63 98 158
73 109 168
90 121 158
85 116 158
68 104 148
70 106 158
67 104 158
79 106 136
62 96 142
68 102 158
62 94 108
89 121 168
66 99 136
74 111 186
69 106 168
64 97 136
71 107 148
70 108 186
67 103 136
68 102 158
71 107 168
63 97 158
63 97 153
67 103 136
68 104 158
71 107 158
62 96 158
65 100 148
62 96 142
73 109 178
71 107 168
66 100 148
67 104 148
72 109 186
71 108 186
71 107 168
68 104 148
66 99 158
67 103 148
68 105 168
68 104 158
67 102 153
68 104 148
71 107 168
62 96 158
62 95 148
66 101 158
73 110 178
64 98 158
65 100 148
70 107 168
66 102 148
70 106 168
71 108 178
71 108 178
66 101 136
70 106 158
66 101 158
70 106 158
71 107 158
71 108 178
65 100 158
68 105 168
68 102 148
71 108 178
68 103 168
67 104 158
70 106 158
69 104 158
64 98 168
70 107 178
68 103 168
67 103 148
71 108 178
71 108 186
69 106 158
70 107 178
70 106 158
69 105 148
69 105 148
69 103 168
72 109 178
69 103 168
71 108 178
68 105 168
69 106 168
73 109 168
71 107 168
73 109 178
70 106 158
69 106 168
69 106 168
72 108 168
70 106 158
64 98 163
69 105 178
70 106 168
70 106 168
72 109 178
73 110 186
65 100 158
70 106 148
72 108 158
72 109 186
66 101 148
71 108 178
69 105 158
70 104 168
69 105 158
70 106 158
66 102 158
69 105 158
71 106 148
70 107 178
71 108 178
70 106 148
69 106 168
70 106 158
66 101 158
72 108 158
71 108 178
73 109 178
71 109 186
68 103 123
71 106 148
71 107 168
70 108 186
69 105 148
69 105 148
69 106 168
70 106 168
72 108 158
70 106 158
68 103 168
69 106 158
68 104 136
70 106 158
71 108 168
69 105 148
74 110 186
71 108 178
71 107 158
68 105 168
71 107 168
69 104 136
69 104 168
70 106 158
68 103 168
69 105 148
73 108 158
69 105 148
74 110 178
67 103 136
72 109 178
68 104 136
70 107 178
73 109 168
68 104 136
65 100 148
72 108 158
67 103 136
70 106 158
71 107 158
70 107 178
70 107 168
68 103 158
72 108 168
70 107 178
73 109 178
67 102 136
73 108 158
67 101 136
66 101 158
71 108 168
70 104 148
64 98 123
71 107 158
72 108 168
70 106 148
71 106 148
72 108 168
71 105 148
70 105 148
71 106 168
62 92 89
66 101 123
71 105 170
64 97 136
69 104 136
66 101 148
64 95 89
68 102 136
71 107 148
66 101 138
64 96 123
69 103 125
72 86 108
115 122 0
130 136 0
146 156 0
125 135 0
135 142 0
145 154 0
110 113 0
146 158 0
82 88 0
100 102 0
111 108 0
87 80 0
87 85 0
86 82 0
66 65 0
63 59 0
77 79 0
74 71 43
92 88 43
20 23 0
80 83 0
94 94 0
60 50 0
67 55 0
77 77 0
55 55 0
64 63 0
80 76 0
95 93 0
88 86 0
46 44 0
116 108 43
81 80 0
77 71 0
117 114 43
97 95 0
97 93 0
100 98 0
124 119 0
76 76 0
113 104 0
116 112 43
131 130 0
118 119 0
120 116 0
79 83 0
129 124 0
92 87 0
106 102 0
137 127 59
109 104 0
122 117 0
105 96 0
144 135 59
125 118 43
112 110 0
100 97 0
119 117 43
106 104 0
114 108 0
133 125 43
145 141 0
107 105 0
119 111 0
131 125 0
121 116 0
134 129 0
128 124 0
111 105 0
133 125 0
111 103 0
118 118 0
136 129 43
138 137 0
129 127 0
110 109 0
107 97 0
132 130 0
135 129 0
108 111 0
84 82 0
101 100 0
106 104 0
94 94 0
71 64 0
120 113 59
113 109 0
127 128 0
120 113 0
117 116 0
92 88 43
76 78 0
122 120 0
134 131 43
119 118 0
137 131 43
135 128 0
122 119 0
104 103 0
144 135 59
131 129 0
127 126 0
126 119 0
141 132 43
144 139 59
104 94 43
76 76 0
70 65 43
124 117 43
106 104 0
146 144 43
155 164 0
141 150 0
152 164 0
145 146 0
142 147 0
163 179 0
158 169 0
140 150 0
165 176 0
162 168 0
164 178 0
182 193 0
210 223 231
218 233 244
208 224 202
200 213 231
216 231 231
203 219 217
196 213 186
208 222 231
213 228 217
209 226 217
196 213 186
206 221 217
203 220 186
205 219 217
214 229 231
196 212 186
214 227 244
223 237 255
201 216 202
193 210 186
211 227 217
198 217 168
214 230 231
192 208 168
193 207 202
198 218 186
201 217 217
200 219 186
197 217 186
188 203 186
219 234 255
194 212 202
177 192 186
199 216 217
195 210 231
206 222 244
215 232 255
216 233 255
215 232 255
214 232 255
216 233 255
216 233 255
218 234 255
214 230 244
217 233 255
208 225 250
218 234 255
219 234 255
209 224 244
219 235 255
210 226 250
211 226 250
221 235 255
210 224 244
210 224 244
222 236 255
192 208 237
115 140 195
98 128 195
96 125 178
97 127 186
69 107 178
71 108 186
70 107 178
71 108 178
97 126 178
99 128 186
66 102 168
98 127 195
69 106 168
118 141 195
70 108 186
71 108 178
99 128 195
71 107 158
70 107 186
70 107 178
64 97 158
71 108 186
70 108 186
68 104 178
71 108 186
64 99 148
63 97 123
67 104 158
68 103 158
66 101 158
65 100 148
73 109 178
69 104 178
91 118 148
61 92 148
62 95 136
71 108 178
69 106 168
49 79 136
71 107 158
65 100 142
66 103 148
67 101 148
68 103 168
71 109 186
70 107 178
67 103 136
70 104 168
69 105 148
68 105 158
71 107 158
64 98 123
68 105 158
66 101 158
71 108 178
67 104 148
68 103 168
63 99 148
66 103 158
71 108 186
74 110 178
69 106 158
72 107 158
68 103 158
67 102 123
73 110 186
68 104 158
67 101 158
70 106 168
71 108 178
71 107 168
69 105 148
68 105 168
61 94 123
71 107 158
69 102 148
69 106 168
75 111 178
67 103 173
69 106 158
70 105 148
70 106 158
66 101 168
71 107 168
69 106 168
67 101 148
73 110 186
68 103 158
69 106 158
70 107 168
72 109 178
71 108 178
69 103 158
70 105 168
70 107 178
73 110 186
69 106 168
71 108 178
67 102 168
68 104 168
67 103 136
73 109 178
59 91 148
71 106 148
69 104 136
65 99 136
70 105 168
74 110 186
70 106 158
70 105 168
74 110 178
70 106 148
73 110 186
69 104 168
70 106 168
71 108 178
67 101 148
69 105 158
73 110 186
71 109 186
70 106 158
70 107 168
70 106 158
68 104 148
71 107 158
70 106 158
69 104 136
72 109 178
71 108 178
69 106 158
70 108 186
71 107 168
70 106 158
70 107 168
71 108 186
67 102 123
71 108 168
69 105 158
65 101 158
73 109 178
69 104 158
73 109 168
74 110 186
73 109 168
68 104 148
72 107 158
74 110 178
69 105 158
67 102 158
70 105 148
66 101 148
71 108 178
72 108 168
72 109 178
68 103 148
70 106 158
70 105 148
72 108 168
66 101 148
70 107 168
66 101 148
73 109 178
70 106 158
72 108 168
73 109 178
72 108 168
72 109 186
72 109 178
71 108 178
69 104 158
70 106 158
72 107 158
69 104 136
69 106 168
70 106 148
71 107 158
73 108 158
70 107 168
70 105 168
69 105 148
68 104 148
69 105 158
72 109 178
71 107 168
66 101 148
69 106 158
71 107 158
71 108 178
69 105 148
71 108 168
71 109 186
69 105 158
73 109 168
63 97 136
68 103 136
72 108 178
69 105 148
66 100 136
66 99 123
67 102 148
72 108 168
68 100 148
64 97 138
69 105 158
71 106 168
70 105 136
62 95 150
69 105 148
72 108 168
69 104 148
69 105 158
70 105 160
68 104 148
64 98 136
64 97 125
62 94 90
66 100 136
61 92 123
66 100 125
103 111 0
122 132 0
108 110 0
121 133 0
120 124 0
138 146 0
97 101 0
121 132 0
99 90 0
112 117 0
124 128 0
92 94 0
105 97 0
83 79 0
88 81 0
70 60 0
63 65 0
119 113 0
69 71 0
104 99 43
58 60 0
80 67 0
82 81 0
105 98 0
101 92 0
83 82 0
100 84 0
85 78 0
128 126 0
112 106 0
45 40 0
65 65 0
81 74 0
125 120 59
102 100 0
98 95 0
98 93 0
96 93 0
116 110 0
79 77 0
86 81 0
84 81 0
93 90 0
99 97 0
93 92 0
107 102 0
115 113 43
113 108 0
83 82 0
124 119 59
86 79 0
76 76 0
123 121 0
75 69 0
122 120 0
133 130 43
121 119 0
98 95 0
136 125 43
109 109 0
130 123 43
97 94 0
77 79 0
127 123 0
80 81 0
71 71 0
93 92 0
129 129 0
139 134 43
91 87 0
108 108 0
132 128 43
103 104 0
101 98 0
123 123 0
86 86 0
109 103 59
129 125 43
96 96 0
141 134 0
114 107 0
134 125 43
112 111 0
118 117 0
105 100 0
114 110 0
86 81 0
93 87 0
111 103 43
90 91 0
121 116 43
145 137 59
133 124 43
95 94 0
92 88 0
111 107 0
127 124 0
101 97 43
92 85 0
122 115 0
109 102 0
107 97 0
100 95 43
136 129 0
114 107 0
108 99 0
124 119 0
139 130 43
103 100 0
131 137 0
160 161 0
160 158 0
166 173 0
148 154 0
144 155 0
149 158 0
173 186 0
139 142 0
176 194 0
167 183 0
163 166 0
147 156 0
173 185 0
176 194 0
201 216 186
193 206 186
212 227 217
192 209 168
217 232 244
215 230 231
204 221 186
204 220 217
207 220 217
214 227 244
208 224 202
222 235 244
206 222 186
206 221 217
218 233 244
219 233 244
209 226 217
220 234 244
206 220 217
216 231 231
216 229 217
210 225 202
208 223 231
197 210 202
207 223 202
216 231 231
184 201 186
193 208 217
203 218 217
190 205 202
218 232 231
187 204 168
216 232 244
210 226 217
203 219 231
183 200 186
189 207 168
198 212 231
206 221 231
215 232 255
215 232 255
214 232 255
215 232 255
216 233 255
213 231 255
217 233 255
215 232 255
218 234 255
218 234 255
218 234 255
219 234 255
218 234 255
219 234 255
210 226 250
210 224 244
209 225 250
220 235 255
167 185 224
115 140 195
72 109 186
72 109 186
72 109 186
97 127 186
72 109 178
134 156 202
150 171 217
119 145 202
70 108 186
96 123 182
117 141 168
136 159 210
99 127 186
118 143 195
68 103 168
69 105 148
71 109 186
69 104 168
69 104 178
72 108 178
71 108 178
85 112 136
72 109 178
63 96 158
83 113 158
72 109 178
66 101 158
64 100 158
67 103 178
101 131 148
66 100 158
67 101 142
83 111 136
66 102 136
68 103 168
68 104 148
66 99 168
66 102 168
67 103 173
68 104 148
69 106 158
70 104 158
68 105 168
69 106 168
62 96 153
69 106 168
71 108 168
69 106 178
66 100 148
68 105 168
62 94 153
66 101 158
66 98 158
66 102 163
70 105 178
71 108 186
63 98 158
71 108 178
69 105 158
71 108 186
68 105 168
68 103 168
71 107 168
71 107 168
71 108 168
67 104 158
66 101 158
70 107 178
70 105 148
68 104 148
68 104 148
67 104 158
70 107 178
70 107 178
70 107 178
71 108 186
71 108 178
65 100 158
70 107 178
70 107 168
69 106 158
71 108 168
71 108 186
71 108 178
72 109 178
69 103 148
67 103 168
69 106 168
67 104 158
75 112 186
70 107 168
66 103 158
71 107 158
70 106 168
71 107 168
69 105 168
74 110 186
71 108 168
69 105 158
68 103 168
63 99 148
67 102 168
69 105 158
66 101 148
72 109 186
73 109 168
65 99 136
71 108 178
71 108 178
71 108 168
68 105 168
67 103 168
70 106 148
70 107 178
69 106 168
72 109 178
72 108 158
68 105 158
70 106 158
68 103 168
71 108 178
70 107 168
69 105 158
67 103 148
70 106 168
68 102 158
71 107 168
70 107 178
72 108 178
68 104 158
71 107 168
71 108 168
70 105 136
73 108 168
68 103 158
69 106 168
71 107 168
71 107 168
73 109 178
72 109 186
70 105 178
69 105 158
74 110 178
71 108 178
72 109 186
72 109 178
64 100 108
70 107 168
70 106 158
69 106 168
72 108 178
73 109 168
69 105 148
71 106 148
69 105 148
70 106 148
74 110 178
68 105 168
72 109 178
68 103 136
71 107 158
71 107 158
71 108 178
72 107 148
74 110 168
71 106 148
70 108 186
70 106 158
71 107 168
72 109 178
72 108 168
72 108 168
71 108 178
69 104 123
68 104 168
68 104 148
70 107 168
68 103 123
70 107 168
73 110 178
70 106 158
72 108 178
68 104 148
68 104 148
70 107 168
72 107 158
69 105 148
71 107 168
69 105 158
68 103 168
66 100 148
71 107 168
73 108 168
68 103 158
72 107 148
73 108 168
70 106 148
72 107 158
72 108 178
66 101 148
70 105 148
67 101 136
71 107 158
69 105 148
69 105 148
64 98 108
69 106 168
68 103 148
66 101 136
65 99 111
66 99 125
61 94 108
67 102 138
67 103 148
71 106 160
67 100 148
66 102 136
86 91 0
140 150 0
136 149 0
129 141 0
111 119 0
64 63 0
121 126 0
65 69 0
108 106 0
86 76 0
134 143 0
129 142 0
119 123 0
94 88 0
132 126 0
100 98 0
43 39 0
82 76 0
91 83 0
99 92 0
59 58 0
74 71 43
58 56 0
74 70 0
77 72 0
100 97 0
94 93 0
74 69 0
66 65 0
49 41 0
87 84 0
114 108 43
15 19 0
50 48 0
89 83 0
105 98 0
104 94 0
101 97 0
65 65 0
75 74 0
108 106 0
94 90 0
76 76 0
92 92 0
128 120 59
124 120 0
76 78 0
79 74 0
121 116 0
127 123 0
119 114 0
117 117 0
108 107 0
143 137 0
78 76 0
103 98 43
134 132 43
115 113 0
74 71 0
71 60 0
88 86 0
121 117 43
120 114 0
107 105 0
122 118 0
109 105 0
96 93 0
123 113 0
129 121 0
128 125 43
112 106 43
138 133 0
104 104 0
135 126 0
130 126 43
117 112 0
111 105 0
133 124 43
132 125 0
122 117 0
150 144 59
139 132 43
121 116 0
116 111 43
119 110 0
130 127 0
142 136 59
94 93 0
142 136 43
104 104 0
110 109 0
139 134 59
141 136 43
98 97 0
103 104 0
130 124 0
125 117 0
145 135 43
128 128 0
110 109 0
106 103 0
94 94 0
112 105 43
133 124 43
108 102 0
115 110 0
110 107 0
108 102 0
107 97 0
150 151 0
163 169 0
172 182 0
180 195 0
153 164 0
147 152 0
155 170 0
156 170 0
157 166 0
168 179 0
160 167 0
164 171 0
145 151 0
159 167 0
172 186 0
202 217 217
193 208 202
224 237 255
217 228 244
205 219 202
221 236 255
214 229 217
225 237 244
205 219 217
200 214 186
193 209 168
200 212 217
201 219 186
204 218 202
208 224 202
200 212 217
201 217 202
209 225 202
214 229 217
217 231 231
219 232 231
213 226 231
213 225 231
220 235 255
227 239 255
211 227 217
214 229 217
219 233 244
213 228 217
194 207 202
208 222 217
210 223 231
208 222 231
190 204 186
195 212 202
198 212 217
197 214 202
164 182 123
197 212 186
188 206 168
170 184 202
215 232 255
196 211 231
214 232 255
216 233 255
217 233 255
217 233 255
217 233 255
217 234 255
208 225 250
217 233 255
216 233 255
218 234 255
219 234 255
211 226 250
219 235 255
221 236 255
220 235 255
151 170 210
96 126 195
72 109 186
67 102 168
72 109 186
70 107 178
71 108 178
97 127 195
99 128 186
96 125 168
74 110 186
118 141 186
70 108 186
97 124 186
70 104 168
97 125 191
117 139 178
100 126 178
70 107 168
71 108 178
63 97 158
69 106 178
74 110 178
72 108 168
67 103 168
68 103 168
67 101 158
69 107 178
72 109 186
69 106 168
68 105 168
87 116 148
69 106 168
73 110 178
84 115 148
87 117 163
59 91 142
72 108 178
68 102 158
69 105 148
68 105 158
69 106 158
72 108 178
62 94 123
67 104 148
66 101 158
64 98 129
62 96 158
72 109 186
71 107 158
67 103 168
72 108 158
68 104 158
69 106 168
68 104 148
68 104 178
66 102 168
66 101 148
72 109 178
70 107 178
71 108 178
62 94 136
69 105 158
71 108 178
68 105 158
70 106 158
70 107 168
70 107 168
71 107 168
71 108 178
68 105 158
75 111 178
67 103 163
72 108 168
64 100 158
69 104 168
70 106 168
71 106 178
67 103 173
70 105 178
68 103 136
67 101 148
72 109 178
66 103 178
70 105 148
70 106 158
65 99 148
70 107 178
70 107 168
65 99 136
69 106 168
71 108 178
71 107 168
72 108 168
69 105 158
71 107 158
68 105 168
70 105 148
66 101 158
69 105 158
69 104 136
71 107 158
67 103 168
73 109 178
71 109 186
69 106 168
67 103 148
70 107 168
70 106 168
66 102 136
72 108 178
72 108 178
71 107 158
70 107 168
69 105 158
71 107 168
71 107 158
70 106 158
70 107 178
71 108 178
73 110 186
68 104 136
72 108 168
70 106 158
71 108 178
68 104 148
66 101 148
72 108 168
71 108 178
73 110 186
71 107 158
70 107 178
71 107 168
71 107 168
69 104 136
69 105 148
69 105 148
70 106 158
71 108 168
74 109 168
71 108 178
71 108 178
69 106 168
70 107 178
72 109 178
72 108 168
69 105 158
70 107 168
70 106 158
74 110 186
73 109 178
69 105 178
70 106 158
63 96 148
71 107 158
70 106 158
71 108 178
67 102 123
69 106 158
68 104 148
67 103 136
72 108 158
72 108 168
72 109 178
71 107 168
71 107 158
69 106 158
66 102 158
70 105 148
69 103 123
65 99 136
68 104 136
71 107 168
70 107 178
71 108 178
70 106 158
70 104 148
71 107 158
73 109 178
71 108 178
70 106 158
73 109 178
67 104 148
72 108 168
72 109 178
68 105 158
67 103 136
68 103 148
71 108 186
71 107 158
73 110 178
69 105 148
72 107 158
70 107 168
71 108 168
68 105 158
69 104 136
66 100 136
66 101 148
67 102 123
73 109 168
65 101 158
67 103 158
65 98 123
64 97 89
73 108 170
69 104 168
72 108 158
68 103 158
70 106 158
70 105 136
69 104 136
65 98 136
66 101 148
71 106 148
68 103 136
66 100 128
58 84 108
142 149 0
140 147 0
109 116 0
120 131 0
102 116 0
122 125 0
112 110 0
117 122 0
89 92 0
86 93 0
120 121 0
110 114 0
148 159 0
82 78 0
95 84 0
89 98 0
60 58 0
7 12 0
106 98 43
59 58 0
87 81 0
84 80 0
110 105 43
120 115 0
120 117 0
151 141 59
93 84 43
71 63 0
28 37 0
85 82 0
93 92 0
63 66 0
135 129 43
94 94 0
93 95 0
110 104 0
112 106 43
82 74 0
45 40 0
80 82 0
118 115 0
76 67 0
103 102 43
100 97 0
144 140 0
104 101 43
123 117 0
82 82 0
118 115 0
135 130 0
121 118 0
109 106 0
90 91 0
122 120 0
126 119 43
125 122 0
93 87 0
109 104 0
135 127 0
114 105 43
74 74 0
113 110 0
130 122 43
147 142 0
136 130 43
81 82 0
102 102 0
140 134 43
118 114 0
122 118 0
95 94 0
136 130 59
55 56 0
132 120 0
124 116 0
94 92 0
122 117 0
132 127 0
136 129 43
108 104 0
82 78 0
100 97 0
99 95 0
118 114 0
110 101 43
126 117 0
87 85 0
100 97 0
140 129 59
145 138 0
110 106 0
115 112 43
105 101 43
110 105 0
86 80 0
81 82 0
134 126 0
93 93 0
121 115 0
128 116 0
119 110 0
81 78 0
105 104 0
114 108 0
55 48 0
91 93 0
160 168 0
151 163 0
126 129 0
164 173 0
144 153 0
161 169 0
170 187 0
154 156 0
157 158 0
181 196 0
139 148 0
172 182 0
163 170 0
163 171 0
175 194 0
167 180 0
134 145 0
155 161 0
189 207 168
182 202 123
172 189 89
179 203 89
183 204 0
175 197 89
182 203 0
176 198 123
177 200 0
182 203 0
185 205 0
184 207 123
184 207 123
172 193 0
180 202 0
177 202 89
171 191 123
182 205 89
157 177 0
173 194 0
182 206 123
158 177 89
182 204 89
177 198 89
181 202 123
204 221 186
179 194 123
180 199 123
185 204 148
201 216 202
214 229 217
222 236 255
206 221 217
219 232 231
220 234 244
198 211 217
188 206 148
183 199 168
214 230 231
182 201 168
196 213 202
198 218 186
201 219 186
203 218 217
193 208 217
205 222 244
217 233 255
206 223 250
216 233 255
216 233 255
217 233 255
217 233 255
215 232 255
219 234 255
219 234 255
210 226 250
211 226 250
221 235 255
200 215 237
120 142 195
117 143 202
96 126 195
71 108 178
96 126 186
74 110 186
98 128 195
68 106 186
71 108 178
71 108 186
73 110 186
119 144 202
73 109 178
120 144 195
137 159 202
137 158 202
97 123 178
101 129 195
70 107 168
68 103 158
67 103 178
70 104 168
73 109 178
63 96 148
70 104 158
70 108 186
65 98 158
102 129 136
72 109 178
85 115 136
68 103 168
68 105 158
62 97 123
87 120 178
64 98 136
67 102 168
66 101 158
66 102 168
61 93 148
62 94 123
70 106 168
68 103 163
68 104 136
67 101 148
70 104 168
69 103 158
67 102 153
64 98 163
70 107 186
70 105 148
66 103 148
71 108 178
73 109 178
68 102 158
68 102 148
66 99 123
73 109 168
70 105 178
70 105 136
71 108 178
64 97 158
70 107 178
64 97 158
66 101 123
70 107 168
69 105 148
69 106 168
70 106 158
67 102 158
64 98 163
67 102 123
68 106 178
70 107 178
72 108 168
71 107 168
69 106 168
62 94 158
73 110 186
70 108 186
67 102 163
71 107 168
71 108 178
69 107 186
68 103 168
69 105 158
67 103 136
62 95 136
72 109 186
72 109 186
67 105 178
66 102 168
71 107 168
73 110 186
69 105 158
70 106 168
69 105 158
64 100 158
67 104 158
68 103 168
72 108 168
67 102 158
70 107 168
64 98 136
65 99 136
71 108 168
70 107 178
72 108 168
70 106 148
71 107 158
69 105 148
72 109 178
73 109 178
72 109 186
70 106 168
71 108 178
67 102 163
66 101 148
70 106 158
71 107 158
73 109 178
68 104 148
70 107 168
73 109 178
70 105 148
68 105 158
71 108 168
71 108 178
70 105 168
72 107 158
69 105 148
71 108 178
69 105 158
70 107 168
70 106 158
69 106 158
68 103 158
71 107 158
68 104 148
72 108 178
73 109 178
72 109 178
68 104 148
73 110 186
72 108 158
73 109 168
70 105 168
70 106 148
68 104 148
72 108 178
69 105 158
64 100 158
65 100 148
67 101 148
70 105 158
70 105 136
73 110 178
71 108 168
72 109 178
67 101 148
70 106 158
69 105 158
69 105 158
67 104 148
70 107 168
71 108 168
71 106 148
71 108 178
72 108 168
69 105 148
73 109 178
71 107 158
72 108 158
71 108 168
69 105 158
70 106 168
68 105 158
70 107 168
69 106 168
70 106 158
72 109 178
70 106 158
70 107 168
70 106 158
70 106 148
72 109 178
73 109 168
74 110 178
72 108 168
72 109 178
75 111 178
71 108 178
70 106 148
65 100 148
69 105 148
68 105 158
66 101 148
68 103 136
65 100 148
68 104 136
69 104 136
63 96 136
68 102 148
69 106 168
67 102 123
69 106 168
71 107 158
67 102 136
68 103 136
67 102 148
72 106 160
66 98 136
67 101 123
68 102 136
68 101 108
69 103 138
68 103 123
82 100 65
118 124 0
99 102 0
110 116 0
102 97 0
144 157 0
136 141 0
118 120 0
121 134 0
107 116 0
124 126 0
99 102 0
107 119 0
112 124 0
117 119 0
130 133 0
95 103 0
129 134 0
104 109 0
86 83 0
102 91 0
16 19 0
22 28 0
135 131 43
64 61 0
92 87 43
99 92 0
60 61 0
105 103 0
107 100 0
85 80 0
79 75 0
118 110 59
115 103 0
91 92 0
56 56 0
116 113 43
107 97 0
110 107 0
104 100 0
89 85 0
122 114 43
78 77 0
115 106 0
114 107 0
97 92 0
126 122 0
82 75 0
105 101 0
115 112 43
112 108 0
101 100 0
85 80 0
75 64 0
96 93 0
115 111 0
95 88 0
120 116 0
91 91 43
64 64 0
102 101 0
131 125 0
98 93 0
97 89 0
125 117 0
127 121 0
96 83 0
81 76 0
116 107 0
49 48 0
105 101 0
81 78 0
127 122 0
122 117 43
92 89 0
107 106 0
104 104 0
111 106 0
122 116 0
73 68 0
129 124 59
106 99 0
110 107 0
147 141 59
84 80 0
117 116 0
119 113 0
112 111 0
119 115 0
125 116 43
140 134 43
116 111 43
106 100 43
118 108 0
126 112 0
135 129 43
120 115 43
139 133 43
100 93 0
110 103 43
122 116 0
125 122 0
77 76 0
96 93 0
125 129 0
148 152 0
149 151 0
168 178 0
170 181 0
143 148 0
145 141 0
156 160 0
145 156 0
145 153 0
159 169 0
152 158 0
150 153 0
146 156 0
141 143 0
166 181 0
165 181 0
181 196 0
160 168 0
161 174 0
144 153 0
170 192 0
185 207 123
184 204 0
182 203 0
175 196 89
180 200 123
174 195 89
171 193 89
171 192 0
182 204 89
172 196 89
182 206 123
173 194 0
181 204 89
163 184 89
174 194 0
184 208 148
182 205 89
184 205 89
169 192 0
182 204 89
182 205 89
184 207 123
179 200 148
173 194 0
179 202 0
179 198 89
182 205 89
186 208 123
188 208 89
181 201 123
190 208 148
195 215 168
192 208 168
193 207 202
210 226 217
215 230 231
210 225 202
214 229 217
219 234 244
214 230 231
199 215 202
213 228 217
216 231 231
164 180 210
143 159 168
184 199 210
206 224 250
215 232 255
216 233 255
206 222 244
217 233 255
215 232 255
208 225 250
208 224 250
200 216 244
219 235 255
220 235 255
211 226 250
200 216 237
69 107 186
70 108 186
70 108 186
98 128 195
71 108 178
70 107 178
117 143 202
117 143 202
97 124 186
118 143 195
68 105 158
69 106 168
70 108 186
71 108 186
68 103 178
71 108 178
118 141 195
67 104 148
99 127 186
67 102 168
70 106 168
72 108 168
65 98 158
68 104 178
68 105 168
59 92 153
67 104 182
67 103 173
68 104 148
70 107 178
86 117 168
65 100 136
65 101 168
71 105 168
59 90 148
86 112 129
61 94 136
65 98 158
87 118 148
84 115 148
67 103 173
72 109 186
64 97 158
69 103 158
71 108 178
65 100 148
72 109 178
72 108 178
70 107 186
68 104 148
70 107 178
69 105 148
71 109 186
69 106 168
71 108 186
63 97 168
69 105 158
63 96 142
65 99 148
71 108 168
67 104 158
67 101 148
74 110 186
66 101 153
73 109 168
68 105 168
70 107 168
68 103 178
70 107 168
71 107 158
69 104 178
69 103 158
69 105 148
67 104 158
69 106 158
71 107 168
67 103 178
72 109 178
69 107 178
68 104 148
71 106 136
69 106 168
68 102 158
70 107 168
69 106 168
70 106 158
68 104 158
70 107 168
64 100 158
65 99 136
70 107 168
70 106 148
70 106 158
68 103 168
67 102 158
72 109 178
69 105 148
68 104 148
69 105 158
72 108 178
69 105 148
70 107 168
69 106 158
72 109 186
73 109 178
69 106 168
69 106 168
71 108 178
70 107 178
69 107 178
70 106 158
73 108 158
69 105 158
71 108 178
71 108 178
74 110 178
74 111 186
67 102 158
73 109 168
68 103 148
66 100 148
65 100 148
69 106 158
71 108 168
69 106 168
70 105 148
72 108 168
69 105 148
72 108 168
69 105 158
68 104 148
70 105 148
66 101 148
66 100 89
69 105 158
71 107 158
71 107 158
72 108 158
73 109 168
71 108 168
69 105 158
69 105 158
70 106 168
72 109 178
68 104 136
70 106 148
73 109 178
67 103 136
67 103 136
73 110 178
71 107 168
74 110 168
71 108 178
69 105 158
69 105 148
72 107 158
71 107 158
68 103 136
70 107 178
72 108 158
67 103 136
69 105 148
67 102 148
70 107 168
70 107 168
67 104 158
69 104 136
73 109 178
68 104 136
64 98 123
72 109 178
68 105 158
69 105 148
65 100 136
70 106 158
70 107 168
68 104 148
70 107 178
73 109 178
72 108 158
70 106 148
71 107 158
72 108 168
68 104 148
71 107 168
69 105 148
68 102 148
70 106 158
69 105 158
74 110 178
69 106 158
70 105 148
68 103 148
63 95 123
70 106 158
69 104 123
66 100 136
69 103 158
71 107 158
66 101 123
70 106 158
72 108 168
72 108 168
70 106 148
67 103 136
66 100 123
70 105 148
67 101 148
73 109 178
65 99 123
72 108 158
71 107 158
65 100 123
68 102 148
63 97 108
84 106 89
128 137 0
119 114 0
86 90 0
97 99 0
142 154 0
121 123 0
152 155 0
138 142 0
97 99 0
150 155 0
94 105 0
115 126 0
111 110 0
95 99 0
75 82 0
89 89 0
112 111 0
97 95 0
97 89 0
76 74 0
100 96 0
119 113 0
81 78 0
58 56 0
82 80 0
79 72 0
83 76 0
102 95 43
92 88 0
92 89 0
112 104 0
91 88 0
93 85 0
86 81 0
122 113 43
82 80 0
104 96 0
93 89 0
111 106 0
115 111 0
81 80 0
117 114 0
86 83 0
78 77 0
88 82 0
107 99 0
81 75 0
107 103 0
129 119 0
64 67 0
104 96 0
74 70 0
90 91 0
97 95 0
61 62 0
129 124 43
133 125 0
97 86 0
124 123 0
94 96 0
93 92 0
117 106 0
96 92 0
102 95 0
138 130 43
131 126 0
128 117 43
137 136 0
115 111 0
107 105 0
110 105 0
107 101 0
123 117 0
119 116 0
136 129 43
119 117 0
90 91 0
99 97 0
125 120 43
103 95 43
145 135 0
110 105 0
122 111 0
118 114 0
117 118 0
83 73 0
102 96 0
125 118 43
118 117 0
113 111 0
126 121 43
101 95 0
99 95 0
84 77 0
71 68 0
107 105 0
76 76 0
102 100 0
108 101 43
114 109 0
119 114 0
130 136 0
150 149 0
138 141 0
172 186 0
161 167 0
165 169 0
143 142 0
174 187 0
149 156 0
133 144 0
164 169 0
152 161 0
176 188 0
154 163 0
166 176 0
163 179 0
138 147 0
168 177 0
156 165 0
127 135 0
180 193 0
169 180 0
151 165 0
181 204 89
169 191 0
170 194 0
178 197 89
165 184 0
183 205 89
173 195 89
184 206 89
177 201 0
183 205 89
173 194 0
181 202 0
174 195 0
177 201 0
184 205 89
177 197 89
182 204 89
180 202 0
181 203 0
184 207 123
190 210 123
180 202 0
171 192 0
177 198 123
183 205 89
158 180 0
187 208 123
174 194 0
191 212 148
171 196 123
184 205 89
187 208 123
183 204 0
183 205 89
185 207 123
184 206 89
189 209 123
186 206 89
206 221 217
217 232 244
220 234 244
200 215 202
209 223 217
192 207 202
204 219 217
176 191 217
186 202 178
191 209 224
170 189 195
211 226 250
196 211 231
206 223 250
216 233 255
208 224 244
207 223 244
209 225 250
208 225 250
218 234 255
218 234 255
220 235 255
189 206 237
96 126 186
72 109 186
71 109 186
98 127 186
70 107 178
71 108 178
70 107 178
73 110 186
71 108 186
99 128 195
73 110 186
73 110 186
98 127 186
72 109 178
98 127 186
98 126 178
152 173 217
71 109 186
69 105 158
64 96 148
71 109 186
69 104 168
58 90 142
70 107 168
62 95 158
66 101 158
70 107 168
72 108 168
90 120 148
69 105 158
70 105 178
85 116 158
71 107 168
58 90 148
65 98 158
69 107 178
66 101 168
82 110 136
63 96 148
65 100 148
64 98 136
66 102 163
66 102 123
70 108 186
70 106 182
64 99 148
67 101 148
72 108 168
69 106 158
72 109 178
66 99 153
69 105 173
69 104 178
66 101 153
69 106 168
65 100 158
69 106 178
66 103 158
69 104 136
64 97 153
68 104 148
71 108 178
67 101 148
70 107 168
66 101 148
70 105 158
71 108 186
72 109 186
69 106 168
69 106 178
69 104 173
68 104 158
69 103 158
68 105 158
70 106 158
71 108 178
68 104 148
67 104 158
73 110 186
69 106 158
72 109 178
69 103 158
70 106 158
68 105 158
70 107 168
65 101 123
70 106 158
70 106 158
71 107 158
69 105 148
72 108 178
72 109 186
71 108 186
70 107 168
71 108 178
69 106 158
70 107 168
68 105 168
68 104 148
71 107 158
69 105 158
68 103 158
71 106 148
72 108 168
66 101 158
68 105 158
70 107 168
70 107 178
67 104 158
73 109 168
67 103 168
70 107 168
70 107 178
72 108 178
67 104 158
67 104 148
72 109 178
68 102 158
73 109 168
71 107 168
72 109 186
71 108 178
69 105 148
66 101 123
66 102 148
70 107 168
69 105 148
67 103 148
70 107 178
67 104 158
70 107 168
70 105 178
69 106 158
67 102 123
73 109 178
71 107 168
74 110 168
71 108 168
69 104 158
70 106 158
72 108 168
68 104 136
73 110 186
73 109 178
67 100 136
69 104 136
72 108 168
67 101 89
71 108 178
68 104 148
72 109 186
70 105 148
68 103 123
68 103 158
72 107 158
70 105 148
66 102 136
69 106 168
69 104 123
72 109 186
72 109 186
70 107 168
71 107 168
70 106 158
69 105 136
70 106 158
72 108 168
73 109 178
72 109 178
72 108 168
70 105 158
72 108 158
61 94 148
71 107 168
70 106 158
74 110 178
72 109 178
69 105 158
63 98 136
69 105 148
71 107 158
71 107 158
67 103 136
71 107 158
64 97 136
71 106 148
68 103 123
72 108 178
64 96 123
67 101 108
66 100 148
68 104 136
70 106 158
67 100 138
67 102 123
67 102 108
72 108 168
69 104 136
71 108 168
67 103 148
67 102 123
69 105 148
63 95 136
68 102 158
63 96 136
72 108 168
61 94 108
69 106 158
63 95 123
67 101 136
67 101 136
67 102 123
69 104 148
68 101 125
114 125 65
126 131 0
145 158 0
131 124 0
122 131 0
103 111 0
74 74 0
80 87 0
96 100 0
126 131 0
118 123 0
95 93 0
114 108 0
91 92 0
93 98 0
32 45 0
134 139 0
100 104 0
112 113 0
103 100 0
107 100 0
110 112 0
129 123 0
88 86 0
89 75 0
100 96 0
77 70 0
103 95 0
22 28 0
105 104 0
75 70 0
99 97 0
113 106 43
113 102 0
98 94 0
92 90 0
75 68 0
95 89 0
110 108 0
132 122 43
94 87 0
78 79 0
123 119 0
48 41 0
94 92 0
111 107 0
100 94 0
104 102 0
99 94 0
63 59 0
69 65 0
130 130 0
112 106 0
96 97 0
98 93 0
109 102 0
121 115 0
126 119 0
108 104 43
98 93 0
101 96 0
96 95 0
120 118 0
123 121 0
151 148 0
114 108 0
87 81 0
113 108 0
84 83 0
104 98 0
127 118 43
118 116 0
71 68 0
118 112 43
109 104 0
115 108 43
122 116 43
153 149 43
123 118 43
125 115 43
127 122 0
103 99 0
88 82 0
106 106 0
87 81 43
117 113 0
108 106 0
103 100 0
103 95 0
115 111 0
98 92 0
136 124 59
95 94 0
57 59 0
115 107 43
78 73 0
59 59 0
96 93 0
60 54 0
100 93 0
112 111 0
158 167 0
138 142 0
147 152 0
154 157 0
152 157 0
155 160 0
117 118 0
132 132 0
139 143 0
156 169 0
166 179 0
176 192 0
168 173 0
142 156 0
155 167 0
151 159 0
155 159 0
161 171 0
153 162 0
159 161 0
165 181 0
151 160 0
143 157 0
152 164 0
167 185 0
171 195 123
185 206 89
165 185 0
184 206 89
168 192 89
174 199 0
179 202 0
171 194 89
172 193 0
166 186 89
177 196 0
171 192 0
178 197 0
176 196 89
183 204 0
185 206 89
168 191 0
174 194 0
179 201 0
188 209 123
173 193 0
172 193 89
169 190 0
171 195 89
178 199 89
174 195 89
188 207 89
179 202 0
173 195 89
152 173 0
173 193 0
179 199 123
179 202 0
167 186 89
164 184 0
173 196 89
177 201 0
175 194 0
149 170 0
183 205 89
190 206 148
189 206 148
157 178 158
152 177 168
133 159 168
136 156 186
124 146 158
130 154 195
162 180 195
151 170 210
132 152 195
133 149 178
184 200 224
215 232 255
207 223 244
218 234 255
209 225 250
219 234 255
209 225 250
218 234 255
201 217 244
97 127 195
72 109 178
96 126 186
71 109 186
118 144 202
70 108 186
69 107 178
98 127 186
66 102 178
69 107 178
71 108 178
98 127 178
97 127 195
71 108 178
119 144 195
98 127 195
96 123 178
94 119 173
88 117 148
67 102 168
71 109 186
67 102 168
68 105 158
70 105 178
68 103 168
62 96 158
65 100 148
69 104 168
64 97 158
68 104 148
68 102 158
65 99 148
69 106 158
69 105 178
67 101 158
87 114 148
72 109 178
66 101 158
84 112 148
75 111 186
73 109 168
67 103 173
65 101 168
66 103 148
70 107 168
66 100 158
72 108 178
65 101 153
67 102 158
66 102 173
68 105 158
69 104 178
71 107 168
69 106 178
65 100 142
67 102 158
68 102 148
71 108 178
68 103 168
66 100 136
66 102 168
71 107 168
69 105 148
70 106 158
70 108 186
71 108 178
71 108 168
68 102 158
67 103 168
65 101 158
71 107 168
60 92 148
67 103 148
70 107 178
73 109 178
69 104 148
71 108 178
70 107 178
66 102 158
70 106 158
68 105 158
69 105 158
71 108 168
69 107 186
66 101 136
70 107 168
70 107 178
69 105 148
65 98 168
67 103 136
65 97 136
70 107 168
72 108 168
70 107 178
69 104 168
69 106 168
68 103 168
71 108 178
73 109 168
69 105 148
66 101 158
69 104 168
67 103 158
70 107 178
69 105 158
72 107 168
71 107 168
69 105 158
71 107 168
72 108 168
72 108 178
72 108 168
69 106 168
71 107 158
72 109 178
68 102 158
72 108 158
70 106 158
67 101 148
69 106 158
71 107 168
68 105 158
68 104 148
71 108 178
70 105 148
71 107 158
71 107 168
66 101 123
73 110 186
69 106 158
72 108 168
70 106 158
70 107 168
72 108 168
68 105 158
67 104 158
70 107 178
68 102 158
70 107 168
71 107 168
68 103 158
68 104 136
68 104 148
71 108 168
67 103 148
70 107 168
70 106 158
68 103 158
71 107 158
70 105 158
70 107 168
73 109 178
70 105 148
68 105 158
71 108 178
70 106 158
70 107 168
67 101 148
72 108 158
70 105 148
72 108 168
68 103 123
71 107 158
71 107 158
69 105 158
69 104 148
70 106 158
69 106 158
74 109 168
67 101 136
72 108 178
71 107 158
70 106 158
69 106 158
69 105 148
69 104 158
63 97 136
70 106 158
68 105 158
68 104 148
72 108 178
63 96 136
67 103 158
72 107 158
67 103 136
67 103 136
73 108 158
67 103 148
70 106 148
63 98 123
73 108 158
64 97 136
69 106 158
69 105 148
70 106 158
69 105 148
70 106 148
67 103 136
68 101 108
64 99 136
68 103 158
73 108 158
70 106 158
68 103 136
66 102 123
66 102 123
72 109 178
67 100 136
69 104 136
68 104 136
68 103 136
64 95 111
75 100 125
142 158 0
126 133 0
103 99 0
118 119 0
116 117 0
128 136 0
105 108 0
70 78 0
135 147 0
120 125 0
140 150 0
150 152 0
111 119 0
79 84 0
127 137 0
124 125 0
112 117 0
93 98 0
85 96 0
140 149 0
73 71 0
107 106 0
113 116 0
76 68 0
68 65 0
26 18 0
103 96 0
0 0 0
83 80 0
91 84 0
96 93 0
0 2 0
60 60 0
94 88 0
95 87 0
84 84 0
50 44 0
117 110 43
62 55 0
87 78 0
96 94 0
115 106 0
85 79 0
93 83 0
122 115 43
93 82 0
77 73 0
113 104 0
131 129 0
91 88 0
101 96 0
90 85 0
45 43 0
131 130 0
104 100 43
128 123 0
95 87 0
69 63 0
129 124 0
102 95 0
118 113 0
105 100 0
112 105 43
117 116 0
88 85 0
88 81 0
52 43 0
93 95 0
120 119 0
121 119 0
120 116 0
112 105 43
105 95 0
120 112 0
110 103 0
117 115 43
93 87 0
81 78 0
106 97 0
112 106 0
137 130 0
109 101 0
116 104 0
125 122 0
94 92 0
80 80 0
117 108 0
115 113 0
123 117 43
141 134 43
109 105 0
125 118 0
82 73 0
120 113 43
106 101 0
87 79 0
94 93 0
135 133 0
142 139 0
137 147 0
155 165 0
144 146 0
140 149 0
148 150 0
153 149 0
150 162 0
143 154 0
149 157 0
157 168 0
168 184 0
173 190 0
159 165 0
144 148 0
164 180 0
142 145 0
167 176 0
162 177 0
156 164 0
177 190 0
151 164 0
152 162 0
170 182 0
171 182 0
164 178 0
155 164 0
177 200 0
180 201 0
181 203 0
152 173 0
185 206 89
180 205 123
183 203 123
187 207 89
174 195 0
171 193 0
182 204 89
179 198 89
181 204 89
185 207 123
165 186 89
175 196 89
166 186 89
183 204 0
183 205 89
187 207 89
176 196 89
188 207 89
183 205 89
185 206 89
169 190 89
179 202 0
183 204 0
181 203 0
163 186 89
180 203 89
166 186 89
183 205 89
168 188 89
171 192 0
176 196 89
184 207 123
170 189 89
186 208 123
181 203 0
174 194 0
180 202 0
183 205 89
165 189 136
110 138 178
141 165 136
107 135 158
99 127 148
129 153 148
113 139 195
104 129 148
129 153 136
142 166 202
123 147 168
146 164 195
150 169 210
217 233 255
217 233 255
217 233 255
217 233 255
198 215 244
218 234 255
220 235 255
153 173 217
70 108 186
117 143 202
71 108 178
71 109 186
71 108 178
96 126 186
73 110 186
67 103 178
98 127 186
70 108 186
98 128 195
97 126 186
97 126 178
69 105 158
97 126 178
117 140 186
73 110 186
71 108 178
70 107 168
66 102 168
67 102 168
65 100 158
67 101 158
73 109 178
71 108 178
67 103 163
69 107 178
66 102 163
64 99 136
63 96 136
70 107 168
88 119 148
67 101 158
71 107 168
62 95 148
92 120 168
68 104 178
67 102 158
85 108 123
72 108 178
69 105 158
69 105 178
71 108 168
65 101 158
62 95 148
64 99 136
71 107 168
73 110 186
66 101 158
72 107 158
72 109 186
66 101 153
65 98 158
69 106 168
70 107 178
68 104 148
68 105 168
70 107 168
65 99 148
65 100 158
64 97 148
63 98 136
59 90 148
70 106 158
68 103 178
65 100 148
71 107 168
68 104 182
69 106 168
66 101 148
70 107 178
68 106 178
63 96 142
67 103 168
71 107 158
69 105 148
66 101 158
67 105 168
71 107 168
72 108 158
67 102 158
68 104 173
68 102 158
68 103 136
67 104 158
67 102 158
69 107 186
72 109 186
68 105 158
66 101 158
66 102 178
71 107 168
67 103 136
73 110 186
71 106 148
71 107 158
69 105 158
67 101 148
67 104 148
64 98 153
68 104 158
70 106 168
67 104 158
71 108 178
69 105 158
67 103 136
67 103 136
71 108 168
72 109 178
71 108 186
69 106 158
69 106 168
71 107 158
72 108 178
71 107 168
65 101 123
72 107 158
69 106 158
72 108 168
73 109 178
69 106 168
66 102 123
69 105 148
73 109 178
71 107 168
71 107 158
70 106 158
72 108 168
68 104 136
69 105 148
70 104 168
70 107 168
70 107 168
70 107 168
71 107 168
70 107 178
73 109 168
71 107 158
69 106 168
74 110 178
74 110 178
70 107 168
68 105 158
71 108 168
67 102 123
71 107 168
69 105 158
68 104 136
68 103 123
69 105 148
72 107 158
72 108 168
69 104 136
71 107 158
69 106 158
68 103 136
71 107 158
72 109 178
70 107 168
71 108 178
70 107 178
69 105 158
71 107 168
67 103 136
68 104 148
67 102 136
67 103 136
70 106 148
66 101 158
73 109 178
67 103 136
74 110 168
73 109 168
71 107 168
69 104 136
68 105 158
70 105 148
70 106 158
72 107 148
67 100 148
68 104 148
69 106 158
71 107 158
69 104 158
70 105 136
68 103 123
69 104 136
69 104 168
69 104 123
67 103 136
71 107 168
70 104 136
70 106 148
71 106 148
67 101 148
73 110 178
73 109 168
65 100 108
70 105 160
74 111 186
68 104 136
68 104 148
70 106 148
73 108 158
71 106 160
70 105 148
74 110 178
71 105 148
68 103 148
66 100 136
66 99 136
103 113 65
139 147 0
118 130 0
97 108 0
125 126 0
133 139 0
128 128 0
131 133 0
128 140 0
114 117 0
94 105 0
98 93 0
129 133 0
115 125 0
140 145 0
151 150 0
75 75 0
102 108 0
104 114 0
141 144 0
116 117 0
104 105 0
116 111 0
120 118 0
127 126 0
115 116 0
144 142 0
133 138 0
109 105 0
86 89 0
78 81 0
101 94 0
135 128 0
82 73 0
78 73 0
82 76 0
92 88 0
104 96 0
16 21 0
118 113 0
79 79 0
90 86 0
115 108 0
107 103 0
63 59 0
127 119 43
88 84 0
105 97 0
95 92 0
80 78 0
113 104 0
100 92 0
119 114 0
126 114 0
107 101 0
109 98 0
76 68 0
77 72 0
122 113 43
108 107 0
118 113 0
90 84 0
128 124 0
85 80 43
76 70 0
117 109 0
128 123 43
89 87 0
110 107 0
76 76 0
130 120 0
104 101 0
125 119 0
97 92 0
101 97 0
129 124 0
87 78 0
114 107 0
90 92 0
107 106 0
103 99 43
119 117 0
81 81 0
64 60 0
102 95 0
79 72 0
104 100 0
102 99 0
128 122 43
113 106 0
103 100 0
96 84 0
134 124 43
119 109 43
105 89 0
125 126 0
123 115 0
125 118 0
148 153 0
119 125 0
110 108 0
149 150 0
116 111 0
146 154 0
162 166 0
160 172 0
139 144 0
135 135 0
170 179 0
143 143 0
144 153 0
139 149 0
156 159 0
166 172 0
176 188 0
126 130 0
132 133 0
171 186 0
162 168 0
156 162 0
169 183 0
175 185 0
161 173 0
154 162 0
177 194 0
138 153 0
173 196 89
175 199 123
176 200 0
182 204 89
180 205 123
190 212 168
181 204 89
177 197 89
173 195 89
181 203 0
173 193 0
190 211 148
182 203 0
172 193 0
178 199 123
148 167 0
183 206 123
182 203 0
172 194 89
180 204 89
186 206 89
183 206 123
175 197 123
183 205 89
184 205 89
186 208 123
176 196 89
185 207 123
174 195 89
182 206 123
172 194 89
182 204 89
178 201 0
184 204 0
169 189 123
173 193 123
177 201 0
175 197 123
177 198 123
181 203 0
180 202 0
177 198 108
144 165 136
103 132 148
116 139 89
117 144 148
87 115 136
84 111 136
126 152 186
123 145 148
136 160 168
135 156 148
107 132 158
67 103 178
88 113 148
108 130 168
156 174 195
174 190 217
207 224 250
216 233 255
209 225 250
219 234 255
209 224 244
164 184 224
71 108 186
116 143 202
66 102 178
73 110 186
65 102 178
65 102 178
99 129 195
118 144 202
98 127 186
64 100 168
70 107 178
100 128 186
71 108 178
72 109 186
98 126 178
99 128 186
69 104 178
94 120 173
72 109 178
69 106 168
72 109 186
66 101 158
64 99 148
68 103 168
68 105 182
67 102 158
68 106 186
69 104 178
71 108 186
63 96 136
66 101 148
62 97 168
71 108 178
65 96 136
66 102 168
69 103 158
68 102 158
68 104 148
63 97 123
65 98 148
63 96 123
58 89 136
69 106 168
70 105 148
74 111 186
67 103 168
68 104 168
72 108 178
67 103 158
71 108 186
73 109 178
71 108 168
64 97 158
71 108 186
71 107 168
68 103 168
71 107 168
69 104 136
74 111 186
69 106 158
67 101 148
70 106 168
62 95 129
69 105 158
62 95 136
70 104 158
71 106 148
67 103 168
61 95 123
71 108 178
66 101 148
72 109 178
70 107 168
68 103 178
70 106 158
69 106 158
71 107 158
73 110 186
71 107 158
74 110 178
71 108 178
70 107 178
65 99 158
68 106 168
72 109 178
68 103 136
70 107 178
63 97 148
69 105 158
72 109 178
73 110 186
69 105 148
71 108 168
73 109 168
72 108 168
70 106 168
72 108 168
71 107 168
66 100 148
69 106 168
69 105 178
70 107 168
69 105 148
71 107 168
68 105 158
67 102 158
63 98 136
70 106 168
68 103 136
70 106 158
68 103 136
71 107 158
67 104 158
68 104 136
70 106 158
71 107 168
70 106 168
69 105 148
68 104 148
71 109 186
72 109 178
70 107 178
70 107 168
68 104 173
71 107 168
74 111 186
66 101 136
64 97 108
71 107 168
69 103 158
69 105 158
70 106 158
69 106 178
71 108 168
67 103 136
71 107 158
71 108 178
68 105 158
68 105 168
70 106 158
69 104 158
69 105 148
64 98 123
67 103 136
71 107 158
70 106 158
71 108 178
65 101 168
71 107 158
70 107 168
67 103 136
64 99 136
73 109 178
69 106 158
69 105 158
69 105 136
72 108 168
70 105 136
69 105 158
68 102 148
66 101 148
68 102 158
70 107 168
70 106 158
68 103 158
68 104 136
73 109 168
69 105 148
72 108 158
64 98 108
66 102 136
72 108 168
69 105 148
70 106 158
71 108 178
69 104 168
65 99 123
68 105 158
71 107 168
70 105 148
71 107 158
67 102 108
69 104 136
71 107 158
69 105 148
71 107 158
65 98 123
71 106 148
72 108 168
69 106 168
69 104 136
68 104 136
66 100 123
68 104 136
65 100 148
71 107 168
65 99 136
70 105 148
64 100 158
72 108 168
64 98 123
70 106 148
70 105 136
71 107 158
66 100 136
67 100 150
65 95 93
71 105 138
65 99 123
68 104 148
145 159 0
113 126 0
143 149 0
167 178 0
95 96 0
128 139 0
73 85 0
128 135 0
124 131 0
113 114 0
156 160 0
98 110 0
86 81 0
55 58 0
133 143 0
129 126 0
91 97 0
95 90 0
73 77 0
69 77 0
106 112 0
86 92 0
116 123 0
95 87 0
98 93 0
73 68 0
108 113 0
127 128 0
100 105 0
80 83 0
56 59 0
132 131 0
66 58 0
76 70 0
97 88 0
92 87 0
64 62 0
64 63 0
88 82 0
97 94 0
104 93 0
111 102 0
109 93 43
56 57 0
82 82 0
82 79 0
95 90 0
107 103 0
97 90 0
93 91 0
92 88 0
129 122 0
92 92 0
99 95 0
97 94 0
86 85 0
88 83 0
100 98 0
97 92 0
107 106 0
99 92 0
73 72 0
81 75 0
114 112 0
82 79 0
114 109 0
125 119 0
81 78 0
80 78 0
144 137 59
101 92 0
107 98 0
82 72 0
97 94 0
105 100 0
130 124 0
104 99 0
78 77 0
108 101 43
118 113 0
61 58 0
76 74 0
68 65 0
130 124 0
126 115 0
122 111 43
117 117 0
96 91 0
109 107 0
119 110 0
97 94 0
93 92 0
75 69 0
132 121 0
131 128 0
149 137 0
136 124 0
145 153 0
143 150 0
156 166 0
144 145 0
163 169 0
160 166 0
133 135 0
161 165 0
137 144 0
150 160 0
147 149 0
180 193 0
161 169 0
150 158 0
145 153 0
145 153 0
182 200 0
146 156 0
145 151 0
140 145 0
149 164 0
158 175 0
181 193 0
173 181 0
174 184 0
170 185 0
147 160 0
173 190 0
179 196 0
185 206 89
182 203 0
184 206 89
166 186 89
174 195 89
189 209 123
173 196 123
171 195 89
177 201 0
171 194 89
183 204 0
185 208 148
178 201 0
174 195 0
185 205 0
166 186 89
187 207 89
180 203 89
185 207 123
183 205 89
185 206 89
176 196 89
176 200 148
169 191 0
176 200 0
178 201 0
178 199 123
176 196 0
174 197 89
185 206 89
184 205 89
175 196 89
175 196 89
186 206 0
172 193 0
168 192 0
159 182 0
178 199 89
176 200 0
181 203 0
179 202 0
126 152 136
70 106 168
151 175 202
86 117 158
115 143 202
106 134 178
61 94 158
120 146 148
112 132 108
134 155 158
147 170 178
108 134 168
85 115 158
100 123 108
109 135 178
139 160 158
81 108 148
144 164 195
163 181 210
197 215 244
218 234 255
208 225 250
210 226 250
136 159 210
71 109 186
94 122 186
98 128 195
97 127 195
70 108 186
67 103 178
97 124 178
70 108 186
72 109 186
134 157 202
71 108 186
98 127 186
69 107 186
70 108 186
117 140 186
70 107 168
69 106 178
100 128 186
68 105 168
64 97 158
69 107 178
90 121 168
65 98 158
71 108 186
69 106 168
64 99 148
64 98 136
64 98 158
63 96 148
61 92 148
68 103 168
71 108 186
67 102 158
71 108 178
67 101 148
63 96 148
68 103 168
64 98 136
68 104 158
71 107 168
71 107 158
61 93 153
65 100 148
71 107 158
61 97 163
68 102 158
71 107 158
69 104 178
72 109 178
64 97 148
68 102 148
64 98 158
72 108 158
66 102 163
70 107 178
72 109 178
71 108 168
61 94 136
70 105 148
68 104 136
72 109 178
67 103 178
68 102 158
67 102 168
65 101 153
72 108 158
68 104 178
72 108 158
69 106 178
72 108 168
71 108 168
64 99 148
70 107 168
70 106 158
72 109 186
70 107 168
70 107 178
70 105 148
68 103 168
67 102 168
70 107 178
72 108 168
71 107 158
70 107 178
68 104 148
71 107 158
72 109 186
67 102 158
69 106 168
70 107 178
67 104 178
66 102 148
72 107 158
74 110 178
69 105 158
72 109 178
65 99 168
67 103 136
69 106 158
68 103 168
68 105 168
70 106 168
70 106 158
68 104 148
70 107 168
65 100 148
71 107 168
69 105 148
72 109 178
71 108 178
67 102 158
70 107 168
69 106 168
70 106 148
74 110 178
67 101 148
67 101 148
69 105 158
72 109 178
69 105 158
69 104 136
70 107 168
73 110 186
69 105 148
68 103 136
67 102 123
69 104 136
71 108 178
69 105 158
70 106 158
68 105 158
69 105 148
70 107 168
71 106 158
72 108 168
70 105 148
68 105 158
71 107 168
69 104 136
68 105 158
73 110 186
69 106 158
70 106 148
72 108 168
69 105 158
70 106 158
71 108 178
71 106 148
71 107 158
72 108 168
71 107 168
69 105 148
66 101 148
71 108 186
69 106 168
71 107 158
66 102 123
69 106 168
73 110 178
69 105 148
71 106 148
70 107 168
71 106 168
68 104 136
72 108 168
72 108 178
70 106 158
71 106 178
68 104 136
66 101 148
69 106 158
69 105 148
66 99 158
70 106 148
71 106 148
68 102 158
73 109 168
70 107 178
72 108 168
72 109 178
70 106 158
70 106 158
72 108 158
70 106 158
68 104 136
69 105 148
69 105 148
68 103 123
70 106 168
70 105 148
68 104 148
69 105 148
72 108 158
65 99 148
71 108 168
69 105 158
62 93 123
66 102 123
67 103 136
68 104 136
71 106 148
71 106 148
68 102 123
71 107 158
71 107 168
69 101 148
70 105 136
69 103 148
63 95 93
115 117 0
127 137 0
115 122 0
119 123 0
146 148 0
125 141 0
78 77 0
102 100 0
60 56 0
107 107 0
109 122 0
115 120 0
117 115 0
157 160 0
99 110 0
134 133 0
66 62 0
92 86 0
121 118 0
137 136 0
120 109 0
104 112 0
138 145 0
109 107 0
106 116 0
113 114 0
88 95 0
101 97 0
69 61 0
91 84 0
118 127 0
101 99 0
101 88 0
117 107 0
111 109 0
80 86 0
90 85 0
86 78 0
69 66 0
72 68 0
99 90 0
57 60 0
80 69 0
78 74 0
91 88 0
95 92 0
62 64 0
97 90 0
110 107 0
101 95 0
66 61 0
90 80 0
95 89 0
88 88 0
124 118 0
88 85 0
18 23 0
119 106 0
110 101 43
117 107 0
84 67 0
80 78 0
71 67 0
90 80 0
108 98 0
98 90 0
112 107 0
110 103 0
85 78 0
73 68 0
118 113 0
109 108 0
145 145 0
140 129 0
131 121 0
58 56 0
112 108 0
104 100 0
130 124 0
74 61 0
116 112 0
74 69 0
110 104 0
97 90 0
89 83 0
109 107 0
120 114 0
79 71 0
91 86 0
98 102 0
127 129 0
86 74 0
158 168 0
175 187 0
131 124 0
124 131 0
171 179 0
159 162 0
103 112 0
139 141 0
136 140 0
172 185 0
160 168 0
171 175 0
153 153 0
148 155 0
156 159 0
154 165 0
120 124 0
145 153 0
157 169 0
156 167 0
168 182 0
139 152 0
169 181 0
180 191 0
153 160 0
176 189 0
161 174 0
137 149 0
159 175 0
168 177 0
159 173 0
130 133 0
157 170 0
162 169 0
182 204 89
164 183 0
182 200 0
183 205 89
184 205 89
172 193 0
178 196 0
180 202 0
176 200 0
188 207 89
169 192 0
176 197 0
177 197 89
176 197 123
171 194 0
175 200 0
158 174 0
179 201 0
180 202 0
179 202 0
182 202 0
178 201 0
180 202 0
173 198 123
152 173 0
172 194 89
171 194 0
186 207 89
181 204 89
179 203 89
185 207 123
171 192 0
164 185 0
182 204 89
182 205 89
175 197 89
181 204 89
178 203 89
179 203 89
162 184 0
181 203 0
152 174 136
87 118 136
142 162 195
66 102 168
86 118 148
108 136 168
107 131 168
71 107 158
94 122 178
132 158 168
87 117 168
85 118 158
123 147 168
127 147 178
94 123 186
64 97 158
102 130 158
85 116 168
110 135 168
59 90 148
186 201 224
216 233 255
217 234 255
219 234 255
135 157 210
114 139 195
97 127 195
70 107 178
98 128 195
70 107 186
99 129 195
70 108 186
71 108 178
99 128 195
68 102 158
115 136 178
97 126 186
98 128 195
67 102 168
99 128 186
120 145 202
151 170 210
94 120 158
67 102 158
67 103 178
69 103 168
69 106 178
70 107 178
65 101 168
70 107 168
67 102 168
71 109 186
56 85 148
65 101 168
66 101 168
67 103 168
71 105 168
80 109 123
63 96 158
70 105 178
72 109 178
90 122 168
67 101 148
67 101 148
82 111 136
70 106 158
71 108 186
71 108 178
72 108 168
69 105 158
71 108 178
55 85 129
67 102 158
70 106 158
71 107 168
70 107 178
71 107 168
69 106 168
69 106 158
70 107 168
69 103 158
72 109 178
68 104 148
71 107 168
67 101 148
70 107 168
71 107 168
71 108 178
66 100 148
65 98 136
67 103 148
64 99 163
69 103 168
72 109 186
70 107 168
71 108 178
71 107 158
67 103 178
69 106 158
69 105 148
73 109 178
64 98 163
70 106 158
62 94 136
70 106 158
66 102 168
72 109 178
74 111 186
71 108 168
73 109 168
72 109 178
68 105 158
68 103 158
67 102 158
71 107 168
72 109 186
70 106 168
73 110 178
70 105 148
63 97 123
70 106 158
71 107 168
68 105 158
74 111 186
69 105 148
69 106 168
67 101 148
72 109 186
69 105 158
68 104 148
69 105 148
73 109 158
67 101 148
66 101 158
68 105 158
70 106 158
69 105 148
70 106 158
72 108 168
71 108 178
69 105 158
69 104 168
72 108 168
70 106 158
68 103 136
74 110 168
68 104 148
67 103 163
69 104 123
69 105 148
69 106 158
72 108 178
69 105 158
69 105 148
67 104 148
70 105 148
67 102 123
71 106 136
71 108 168
68 103 123
71 107 178
71 107 168
67 104 158
69 104 158
70 106 158
70 105 148
68 105 168
71 107 158
72 108 158
73 109 168
71 107 168
72 108 168
71 107 168
67 102 123
70 106 148
66 99 123
69 104 136
68 105 158
68 103 158
70 106 148
68 104 148
70 106 158
67 103 168
67 102 123
72 107 168
69 105 148
69 105 168
69 105 168
69 105 148
75 110 168
69 105 136
73 109 168
72 106 158
65 100 148
71 107 158
72 108 158
69 105 158
69 104 136
71 107 168
74 110 178
67 101 148
71 107 168
70 106 158
71 107 148
72 109 178
73 109 168
67 103 148
68 102 136
70 105 136
68 104 136
70 105 148
69 104 123
70 107 168
72 108 158
67 103 136
69 104 136
71 107 158
63 97 123
69 104 158
62 95 108
67 101 123
67 100 148
72 107 158
69 105 148
66 100 123
71 105 168
65 99 136
63 97 108
68 103 148
63 95 136
68 104 136
66 99 136
99 116 108
119 129 0
141 154 0
87 98 0
113 126 0
85 94 0
87 96 0
123 134 0
70 79 0
122 131 0
118 118 0
126 142 0
114 123 0
110 115 0
94 105 0
110 108 0
112 113 0
99 96 0
84 88 0
136 136 0
101 105 0
104 112 0
79 73 0
115 124 0
139 134 0
115 123 0
109 119 0
121 120 0
82 86 0
105 112 0
122 125 0
96 99 0
105 112 0
120 121 0
99 93 0
90 81 0
117 120 0
99 102 0
32 28 0
46 43 0
54 45 0
93 92 0
80 76 0
69 60 0
101 89 0
81 78 0
107 101 0
93 89 0
93 83 0
89 88 0
106 96 0
95 87 0
107 103 0
115 103 0
56 56 0
76 76 0
79 73 0
101 94 0
129 121 0
16 19 0
91 81 0
92 84 0
107 102 0
81 79 0
119 115 43
92 88 0
88 81 0
108 101 0
122 114 0
98 93 0
96 83 0
119 108 0
86 78 0
103 100 0
109 97 0
122 109 59
113 102 0
61 58 0
92 87 0
88 85 0
101 92 0
95 90 0
97 94 0
107 99 0
111 100 0
117 110 43
140 138 0
116 108 0
130 130 0
132 127 0
143 155 0
153 156 0
160 169 0
176 189 0
143 141 0
119 118 0
126 127 0
130 128 0
170 175 0
116 117 0
144 146 0
133 140 0
131 135 0
108 113 0
142 145 0
141 142 0
154 168 0
156 167 0
142 142 0
140 144 0
158 169 0
160 165 0
151 154 0
165 171 0
140 155 0
165 173 0
142 147 0
123 130 0
176 190 0
159 171 0
160 174 0
167 183 0
161 178 0
150 152 0
165 177 0
157 173 0
169 182 0
178 203 89
178 199 89
171 192 0
175 199 123
172 194 0
182 205 89
185 205 0
181 204 89
181 203 0
162 184 0
181 204 89
174 195 0
184 205 89
181 203 0
174 195 89
175 197 123
185 206 89
172 193 0
177 197 0
181 203 0
187 206 0
187 208 123
175 197 0
171 194 0
182 204 89
182 203 0
171 193 0
163 184 0
174 196 123
185 206 89
183 204 0
185 205 0
168 190 89
164 185 89
173 195 89
185 205 0
175 196 89
183 204 0
184 204 0
178 201 0
182 204 89
161 184 136
94 122 158
129 152 136
97 123 136
122 149 178
119 145 148
100 130 158
81 107 123
120 142 136
105 133 178
86 117 158
135 158 178
102 132 158
85 115 158
98 128 195
102 126 136
94 124 168
111 135 168
92 121 178
63 97 168
115 137 186
161 178 210
187 203 231
218 234 255
209 225 250
97 127 195
116 143 202
70 107 178
97 127 195
63 97 168
69 107 186
115 139 186
73 110 186
99 128 186
72 109 186
119 145 202
69 107 178
99 128 195
119 145 202
73 109 178
63 98 173
71 108 186
99 128 195
71 107 168
75 111 186
59 91 158
70 106 168
64 97 158
69 105 178
72 109 186
70 106 168
65 99 136
67 102 158
62 97 163
71 107 168
63 97 168
67 103 168
68 105 158
87 120 168
62 94 148
71 108 178
88 119 136
67 101 148
66 101 148
68 104 148
73 110 186
66 103 148
70 107 168
69 107 178
65 100 178
67 102 136
67 102 158
69 105 148
70 107 178
69 105 158
69 104 168
67 100 136
67 102 148
73 110 186
67 102 168
62 94 136
69 106 168
68 103 168
70 107 168
68 105 158
71 107 158
72 108 168
69 103 158
70 106 168
66 100 136
57 89 136
70 107 178
69 105 148
69 106 168
66 98 148
68 103 168
72 108 168
70 106 168
70 106 148
71 108 178
69 104 168
67 102 168
68 105 168
74 110 178
72 108 158
70 107 178
71 107 168
73 109 168
70 106 158
68 103 168
69 106 158
66 101 158
69 105 158
70 106 148
71 108 168
66 101 158
66 102 168
69 104 136
65 101 153
71 106 168
72 109 186
70 107 168
70 106 168
73 110 186
71 107 168
65 99 136
70 105 148
71 108 168
70 106 158
70 105 148
68 104 148
72 108 168
67 101 148
69 105 148
68 105 158
70 107 178
68 105 168
69 105 158
69 105 148
72 108 168
70 106 158
71 108 178
71 106 148
71 107 158
71 107 168
70 104 158
71 108 186
67 103 136
69 106 158
72 108 178
72 107 158
74 110 186
66 103 148
70 106 158
67 104 168
72 109 186
70 107 178
73 110 186
72 109 178
68 103 148
69 105 148
72 109 178
64 99 136
73 109 178
71 107 158
70 106 158
69 105 148
71 107 168
69 105 158
69 105 148
69 105 148
68 103 123
66 101 123
67 104 158
70 105 136
72 109 186
72 109 178
69 105 178
72 108 168
65 100 108
68 103 136
72 109 186
70 106 168
69 103 136
69 105 148
72 108 168
66 100 136
70 105 158
67 103 136
70 106 158
70 106 158
71 107 158
71 107 168
69 105 148
67 102 123
67 103 148
73 110 178
66 101 108
67 102 123
62 97 108
74 110 186
72 108 168
72 108 178
67 104 158
62 95 123
70 106 158
69 105 168
70 105 136
68 103 148
67 101 136
69 105 148
71 108 168
70 105 168
74 110 178
69 104 136
65 100 136
65 100 89
70 106 158
69 105 148
68 103 158
62 96 136
71 107 158
68 102 108
73 109 168
71 107 168
69 104 136
66 100 136
66 99 150
64 98 138
67 101 125
69 104 150
64 97 125
125 137 65
106 115 0
135 146 0
104 116 0
105 109 0
94 100 0
73 73 0
116 127 0
135 145 0
114 124 0
151 150 0
130 137 0
101 105 0
154 159 0
114 117 0
135 139 0
119 123 0
121 126 0
66 76 0
116 124 0
79 76 0
121 128 0
112 117 0
93 97 0
125 139 0
81 77 0
100 110 0
119 124 0
128 133 0
94 91 0
77 83 0
94 102 0
113 113 0
89 85 0
30 43 0
122 126 0
120 118 0
83 90 0
102 103 0
120 123 0
103 106 0
111 109 0
68 64 0
131 131 0
57 58 0
110 106 0
106 100 0
93 84 0
98 86 43
90 79 0
113 107 0
108 103 0
95 91 0
118 104 0
64 57 0
113 107 0
104 99 0
114 106 0
91 81 0
120 104 0
96 88 0
86 82 0
96 78 0
128 120 0
109 103 0
99 93 0
95 88 0
72 66 0
124 114 0
108 101 0
113 109 0
109 96 0
77 73 0
96 94 0
116 116 0
88 84 0
101 94 0
80 78 0
82 78 0
142 136 0
75 67 0
50 49 0
128 122 0
101 96 0
139 137 0
130 139 0
127 127 0
96 102 0
133 131 0
119 116 0
142 137 0
145 147 0
145 151 0
153 162 0
141 139 0
162 169 0
163 170 0
151 151 0
136 139 0
159 172 0
154 154 0
150 159 0
147 152 0
163 168 0
126 136 0
166 159 0
127 129 0
132 130 0
159 166 0
149 155 0
136 128 0
157 170 0
140 146 0
153 156 0
125 122 0
146 153 0
166 180 0
146 151 0
133 138 0
171 182 0
149 148 0
162 174 0
166 178 0
159 177 0
142 152 0
172 192 0
154 157 0
174 198 123
182 203 0
188 209 123
178 203 89
185 207 123
180 202 0
170 192 0
166 185 0
189 208 89
181 204 89
188 209 123
164 185 0
183 205 89
180 200 123
176 200 0
181 203 0
183 205 89
184 205 89
185 207 123
167 186 89
166 187 89
177 201 0
190 210 123
187 208 123
171 193 0
177 197 89
165 184 0
177 201 0
181 204 89
179 202 0
181 203 0
179 202 0
184 207 123
164 185 89
163 181 0
162 182 0
161 182 0
172 194 89
172 193 0
183 204 0
152 174 89
137 162 136
85 116 158
89 119 168
87 116 158
93 122 186
130 155 202
71 107 158
95 124 168
128 155 210
113 140 178
112 137 178
110 136 158
108 133 148
129 154 136
157 181 186
73 110 186
117 140 108
108 132 168
102 125 148
71 108 178
100 128 148
90 117 178
91 118 178
147 163 195
218 234 255
199 216 244
151 172 217
69 107 186
95 125 178
133 157 210
94 123 186
70 107 178
70 107 178
70 107 178
66 102 168
71 107 158
99 129 195
100 129 195
97 124 178
99 128 195
69 104 178
118 143 186
99 127 186
120 144 195
64 99 148
72 108 178
74 110 178
68 103 168
66 102 168
71 107 168
64 97 153
69 107 186
61 94 136
69 105 173
67 103 178
72 109 186
70 108 186
67 104 158
65 100 148
87 116 148
80 110 148
67 102 168
87 116 148
87 113 148
71 107 168
62 96 99
70 107 178
62 94 136
69 106 168
71 108 168
68 103 158
67 102 158
69 104 178
67 102 153
73 109 178
66 101 158
72 109 186
69 107 178
67 103 148
70 106 168
69 104 168
69 106 168
62 95 148
70 104 168
66 101 158
70 106 148
66 101 158
69 105 148
67 104 148
67 102 158
68 104 136
65 100 158
68 104 136
68 102 158
70 106 158
72 109 186
68 104 148
67 101 158
70 107 168
68 105 168
72 109 178
71 106 148
70 107 168
68 105 168
71 107 182
65 99 148
71 106 148
73 110 186
67 103 158
69 105 158
71 107 168
65 100 158
73 110 186
69 104 136
70 107 178
67 103 136
68 105 168
67 102 158
72 108 168
69 106 168
68 104 148
71 107 168
68 104 148
64 97 108
70 107 168
69 106 168
71 107 168
70 105 148
69 105 158
70 107 168
72 108 178
74 110 168
70 107 168
70 106 158
70 106 168
71 108 168
68 104 148
66 100 136
69 104 136
71 107 158
70 106 158
68 102 108
72 108 158
70 106 158
72 108 168
68 105 158
68 104 148
72 109 178
71 107 168
70 106 148
72 108 168
67 104 148
69 104 158
70 106 168
70 106 158
63 96 148
66 101 148
71 107 158
67 102 108
70 108 178
68 104 136
69 106 158
68 104 178
70 106 148
69 105 148
71 106 178
70 106 158
71 106 158
69 105 148
71 107 158
71 107 168
71 107 158
73 109 178
70 106 148
69 106 158
65 100 148
65 100 148
72 108 168
73 109 178
69 104 168
69 106 158
65 100 136
70 107 178
71 108 178
67 102 158
72 107 158
69 103 123
71 107 168
69 105 158
70 106 158
71 106 148
67 101 148
67 103 136
72 109 178
68 103 136
68 104 148
70 105 168
65 99 123
72 108 158
68 104 148
70 107 168
70 106 148
68 104 136
71 107 168
70 107 168
70 105 136
69 103 123
67 103 136
68 103 168
68 103 158
68 103 148
69 103 158
69 104 123
64 97 148
65 99 123
72 108 168
67 101 148
66 100 158
64 97 136
68 105 158
69 106 158
63 97 123
70 106 158
70 106 148
67 102 123
69 104 136
60 91 136
61 94 123
70 105 148
70 106 158
65 100 89
87 110 123
101 115 0
127 143 0
108 108 0
150 165 0
96 101 0
149 158 0
134 147 0
95 100 0
130 135 0
123 125 0
148 159 0
82 90 0
113 124 0
106 108 0
97 98 0
125 132 0
129 136 0
25 29 0
99 102 0
96 105 0
103 104 0
117 121 0
140 151 0
125 125 0
85 90 0
58 60 0
109 108 0
67 69 0
124 131 0
116 122 0
98 105 0
123 134 0
101 102 0
135 137 0
109 115 0
70 80 0
108 99 0
94 103 0
111 112 0
145 145 0
77 66 0
92 100 0
87 82 0
90 86 0
86 93 0
125 117 0
65 61 0
106 111 0
85 85 0
85 78 0
66 61 0
107 103 0
92 78 0
59 62 0
71 76 0
109 101 0
67 62 0
58 49 0
99 91 0
91 87 0
95 84 0
91 80 0
46 43 0
91 83 0
91 87 0
81 79 0
75 70 0
91 83 0
6 10 0
110 103 0
95 82 0
37 28 0
99 95 0
88 80 0
113 114 0
115 103 0
89 91 0
119 123 0
108 104 0
79 75 0
119 123 0
130 128 0
139 137 0
128 134 0
110 103 0
147 148 0
129 130 0
123 124 0
140 144 0
155 155 0
142 147 0
140 138 0
111 115 0
158 161 0
115 115 0
166 170 0
108 106 0
150 160 0
135 135 0
148 149 0
151 163 0
134 135 0
113 106 0
156 159 0
149 149 0
147 157 0
132 138 0
143 145 0
156 169 0
143 145 0
146 155 0
165 173 0
175 193 0
162 164 0
159 174 0
163 171 0
138 152 0
163 173 0
154 166 0
144 152 0
145 156 0
144 155 0
146 157 0
168 176 0
150 156 0
153 162 0
154 158 0
172 194 0
160 181 0
182 206 123
179 202 0
178 201 0
165 184 0
180 203 89
174 195 89
180 203 89
152 171 0
178 196 0
180 203 89
177 196 0
182 206 123
179 203 89
183 205 89
172 193 0
181 201 148
184 204 0
179 201 0
179 201 0
180 202 0
182 203 0
169 193 89
170 189 0
176 196 89
175 196 89
180 202 0
182 203 0
168 189 123
179 200 89
179 202 0
180 203 89
183 204 0
165 187 89
166 186 0
178 201 0
182 206 123
187 208 123
181 204 89
182 203 0
155 179 89
120 144 148
104 130 136
113 137 178
115 142 123
134 158 158
109 138 186
63 97 123
91 118 168
114 138 108
161 182 195
116 142 186
128 148 178
108 131 158
122 144 158
121 145 168
141 165 148
133 155 136
92 117 148
115 142 202
89 115 148
91 118 178
103 124 136
85 113 158
73 92 108
187 203 224
199 216 244
70 108 186
96 127 195
95 125 195
97 127 195
69 104 178
71 108 186
97 127 195
99 128 195
98 127 186
69 106 168
71 109 186
72 109 186
136 159 210
67 102 158
135 158 202
70 107 178
71 108 178
99 128 195
69 107 186
70 105 178
66 101 148
66 101 148
69 104 178
73 109 178
66 100 148
71 108 178
65 100 158
68 103 158
64 99 148
65 100 158
67 102 158
60 92 148
65 100 142
67 102 168
93 123 168
65 100 158
88 121 168
64 96 148
66 102 178
82 113 136
89 121 158
59 91 136
64 99 136
64 99 163
68 104 148
58 90 129
65 100 148
66 102 163
73 109 178
73 109 178
66 103 158
67 102 158
68 104 148
70 106 158
71 107 168
69 106 158
65 99 136
66 101 148
70 107 168
67 102 148
70 108 186
64 98 136
72 108 168
66 100 136
68 103 168
71 107 168
65 102 148
69 106 168
67 102 158
64 98 148
66 101 153
70 107 168
69 104 178
69 106 158
70 107 178
68 104 178
70 107 178
69 105 178
69 105 158
66 101 158
65 99 136
72 108 168
71 105 168
65 101 158
71 107 168
62 97 158
64 100 158
66 102 148
71 108 168
72 108 168
65 98 158
68 104 148
69 104 148
69 105 148
69 104 168
72 109 186
68 105 158
73 110 186
73 109 178
72 108 168
72 107 158
69 105 148
69 107 178
67 104 148
70 106 158
70 107 168
70 105 148
68 103 168
70 106 148
68 103 136
73 110 186
70 107 168
62 95 89
70 106 148
68 104 148
69 105 158
71 106 158
70 106 158
73 109 178
68 103 123
70 107 168
69 106 178
70 107 168
71 107 168
71 107 158
71 107 168
69 105 158
70 106 158
69 105 148
72 109 178
69 104 136
69 105 148
72 109 186
69 105 158
66 101 148
74 111 186
71 106 148
69 105 158
74 110 178
68 105 168
70 106 158
67 103 123
67 103 123
69 106 168
70 104 158
68 103 136
66 102 136
67 103 136
73 109 178
69 105 158
65 100 136
70 105 148
72 108 168
66 102 136
70 104 148
72 109 178
71 108 168
66 100 148
64 97 123
67 104 148
70 106 168
71 106 148
70 104 123
71 107 158
66 101 108
68 103 158
71 107 158
70 106 158
72 107 158
71 106 136
68 104 136
61 95 123
69 106 158
69 105 136
71 107 168
66 100 136
69 105 148
76 111 178
69 106 168
69 104 136
73 108 158
72 108 168
61 94 108
70 106 158
64 99 136
67 103 136
69 103 136
73 110 186
67 103 136
70 106 158
70 106 158
68 104 136
67 101 158
69 105 148
69 105 136
61 94 108
72 107 168
71 106 148
66 98 136
72 107 158
73 109 158
67 102 148
64 98 136
68 103 148
83 110 136
114 116 0
92 103 0
130 138 0
116 130 0
105 109 0
125 130 0
120 127 0
102 112 0
135 141 0
121 128 0
129 138 0
112 118 0
114 118 0
108 117 0
113 125 0
143 146 0
130 141 0
111 110 0
109 118 0
97 106 0
104 105 0
136 150 0
118 123 0
130 138 0
132 141 0
95 102 0
116 120 0
117 123 0
96 89 0
127 133 0
118 122 0
94 87 0
98 100 0
112 117 0
116 118 0
80 87 0
83 89 0
71 67 0
53 46 0
93 92 0
84 74 0
48 49 0
92 102 0
103 104 0
116 113 0
110 111 0
126 135 0
131 138 0
82 71 0
98 92 0
132 129 0
111 105 0
128 126 0
106 112 0
76 79 0
118 110 0
101 101 0
123 113 0
123 124 0
84 74 0
104 107 0
99 100 0
99 94 0
90 83 0
111 107 0
118 112 0
105 112 0
81 86 0
64 54 0
133 142 0
128 120 0
117 113 0
95 94 0
124 120 0
132 137 0
122 122 0
129 138 0
104 109 0
132 135 0
149 160 0
142 142 0
129 118 0
121 112 0
130 138 0
105 100 0
147 151 0
141 141 0
161 167 0
116 116 0
129 141 0
161 170 0
112 111 0
139 142 0
161 164 0
136 136 0
145 149 0
143 138 0
96 99 0
129 139 0
154 159 0
167 174 0
139 143 0
140 146 0
152 158 0
159 169 0
166 184 0
152 157 0
132 136 0
167 176 0
157 168 0
157 168 0
140 146 0
143 157 0
137 144 0
175 189 0
156 160 0
142 147 0
165 172 0
156 168 0
174 188 0
147 161 0
130 138 0
152 156 0
182 200 0
156 154 0
160 172 0
153 161 0
165 184 0
186 206 0
168 190 123
176 200 0
168 191 0
181 203 0
176 198 89
187 207 89
163 183 0
180 202 0
156 175 89
183 205 89
186 205 0
176 198 89
190 211 148
179 202 0
175 194 0
185 206 89
180 203 89
173 195 89
164 186 89
172 195 123
157 176 89
188 211 168
169 190 0
184 205 89
182 203 0
180 202 0
183 205 89
173 195 89
177 198 89
180 202 0
187 210 148
171 193 0
181 201 89
170 192 0
181 204 89
180 204 89
179 203 89
173 195 89
180 203 89
171 193 0
135 158 148
87 118 136
137 161 195
66 100 148
94 121 168
124 151 186
78 105 123
87 116 148
111 136 168
116 138 148
117 141 158
91 115 148
128 153 186
105 131 158
85 114 136
106 131 168
126 149 178
103 130 148
112 139 136
85 115 158
102 122 148
111 132 178
141 161 186
105 130 168
89 110 158
95 120 178
162 179 210
70 108 186
98 128 195
97 127 195
72 109 186
97 127 195
73 110 186
71 108 186
74 111 186
70 107 178
68 104 178
97 127 195
99 128 195
118 143 195
100 129 186
95 121 158
69 104 178
97 123 178
99 128 186
120 144 178
70 105 178
69 107 186
70 105 178
66 101 158
67 102 168
68 105 168
70 107 178
69 106 168
69 106 178
69 104 168
72 109 178
62 95 148
68 104 173
64 97 158
72 108 178
67 102 168
67 102 158
68 105 168
67 104 158
68 102 158
67 102 158
67 101 142
65 100 148
70 106 158
68 103 163
71 108 186
73 109 178
70 107 178
70 106 158
69 106 168
70 107 168
69 106 168
68 104 136
65 98 148
66 101 158
69 103 153
67 101 148
65 100 142
68 105 168
71 106 168
73 108 158
70 106 158
68 102 158
59 90 136
70 104 168
73 109 178
70 106 158
71 108 178
69 104 163
72 108 178
68 103 123
70 106 168
68 103 168
69 104 178
66 103 148
70 106 182
66 101 153
71 107 158
59 91 89
60 91 148
70 106 158
71 108 178
69 105 158
68 104 158
71 108 178
69 106 168
67 100 158
72 107 158
67 101 148
66 102 168
72 109 186
72 107 158
70 106 158
74 110 186
66 102 136
69 104 178
67 103 148
69 103 158
69 105 148
71 107 168
69 106 168
71 108 168
71 107 168
74 110 186
67 103 136
64 97 148
69 107 178
66 101 123
69 105 158
67 102 168
70 107 168
69 105 148
73 109 178
72 108 168
67 102 123
70 106 158
70 107 168
73 109 168
70 106 158
72 108 158
72 109 178
69 105 148
69 104 168
68 104 158
71 108 178
73 109 168
72 108 168
72 108 168
70 106 158
72 108 168
71 107 168
70 106 158
66 102 136
71 108 178
71 107 158
70 106 158
70 106 158
64 98 123
69 106 158
63 97 148
63 96 123
67 101 136
73 109 168
68 104 148
69 104 136
75 111 178
68 104 148
75 111 178
68 104 148
72 109 178
64 96 108
64 98 136
71 107 158
70 108 186
70 105 136
68 103 168
70 107 168
59 92 136
70 107 168
70 106 158
72 108 158
71 107 168
71 106 148
70 106 148
67 102 158
71 107 168
71 107 158
74 110 178
71 106 148
71 106 148
70 106 148
67 104 148
70 107 168
70 107 168
73 110 178
70 106 170
68 104 148
71 105 158
71 107 158
67 102 123
65 99 136
68 104 148
66 100 123
73 109 178
70 106 148
67 102 148
70 106 158
68 101 158
70 106 148
71 107 178
70 105 136
69 105 136
70 106 148
65 101 158
68 105 158
66 100 123
68 103 148
67 102 148
71 106 148
64 97 108
61 92 108
69 105 136
68 104 136
61 93 123
74 86 89
106 121 0
105 117 0
136 148 0
119 135 0
118 125 0
120 127 0
84 82 0
97 109 0
115 123 0
135 147 0
106 109 0
114 115 0
92 99 0
134 142 0
124 132 0
107 115 0
129 138 0
152 159 0
118 119 0
110 105 0
116 122 0
113 124 0
95 105 0
126 129 0
126 131 0
129 133 0
95 98 0
117 124 0
103 99 0
113 110 0
83 83 0
81 68 0
127 131 0
115 123 0
86 87 0
128 136 0
99 88 0
106 96 0
138 144 0
118 118 0
105 116 0
93 97 0
70 75 0
131 130 0
75 69 0
108 108 0
136 143 0
118 113 0
90 88 0
138 134 0
71 64 0
89 86 0
143 142 0
135 134 0
99 101 0
110 116 0
82 84 0
67 56 0
128 133 0
88 79 0
91 89 0
57 49 0
127 133 0
107 97 0
146 139 0
122 124 0
136 134 0
0 0 0
119 123 0
93 88 0
128 131 0
131 131 0
106 106 0
120 117 0
125 125 0
126 124 0
120 120 0
113 114 0
122 125 0
146 144 0
99 101 0
121 122 0
137 141 0
114 116 0
141 141 0
153 160 0
109 103 0
146 151 0
109 105 0
149 149 0
120 124 0
139 141 0
103 101 0
127 122 0
114 116 0
150 158 0
133 135 0
151 155 0
131 138 0
158 169 0
163 172 0
169 173 0
168 174 0
146 153 0
163 174 0
134 129 0
148 151 0
147 152 0
147 154 0
159 166 0
141 149 0
156 156 0
155 166 0
161 173 0
145 153 0
172 190 0
177 188 0
156 172 0
171 189 0
153 161 0
174 189 0
136 140 0
168 180 0
167 180 0
138 144 0
168 173 0
138 144 0
177 202 89
177 202 89
169 191 0
172 194 89
181 205 123
171 192 0
178 199 89
165 185 89
178 201 0
172 193 0
182 204 89
164 185 89
183 205 89
171 194 0
170 192 0
175 196 89
181 203 0
172 193 0
188 208 89
182 203 0
163 183 0
173 195 89
167 187 0
169 190 123
177 198 123
172 194 89
173 196 123
184 206 89
182 203 0
169 191 0
180 204 89
169 193 0
183 206 123
182 203 0
174 194 0
177 201 0
186 206 89
185 207 123
164 184 0
169 190 123
176 198 123
188 208 89
103 133 158
69 105 148
72 108 168
89 116 158
90 117 163
71 107 158
124 150 178
104 129 136
100 129 148
122 141 158
133 157 158
103 126 123
87 120 158
107 130 178
118 139 148
103 127 148
119 142 158
84 109 148
84 115 148
139 159 178
106 133 168
87 120 168
124 145 158
94 119 178
87 114 148
108 135 178
94 122 186
97 124 186
97 128 195
71 108 186
98 128 195
71 108 186
97 127 195
98 128 195
67 103 178
69 106 168
97 125 186
118 144 202
71 108 178
71 109 186
69 106 178
94 119 178
67 102 158
65 100 158
116 137 178
119 143 195
70 107 168
69 106 168
66 101 158
68 106 186
70 105 148
73 110 186
64 99 148
66 102 168
65 101 153
69 106 168
67 102 168
58 89 136
65 99 136
68 102 148
62 93 153
53 82 115
66 101 158
56 85 136
88 117 158
64 101 163
69 105 158
68 102 158
66 102 168
67 102 158
71 109 186
56 85 139
70 106 158
68 105 158
68 104 148
66 102 148
68 105 158
68 102 158
70 106 158
72 109 178
67 102 153
66 101 148
67 104 158
65 99 136
69 104 178
69 107 178
69 104 168
63 96 136
70 106 168
61 94 136
69 105 158
68 104 148
72 107 168
70 107 178
67 100 150
71 108 168
70 107 168
71 107 158
65 100 173
71 108 178
70 106 158
69 105 158
71 107 168
67 101 148
69 105 148
65 101 158
68 103 168
69 106 158
73 109 178
70 106 158
66 101 158
68 104 148
70 106 158
65 99 136
64 97 136
72 108 168
66 101 108
72 108 178
72 108 168
70 106 158
65 100 148
72 109 186
69 106 168
67 102 158
69 105 158
70 107 178
68 105 158
70 107 178
73 110 178
68 105 158
69 103 158
69 105 148
70 104 158
70 105 148
68 103 136
72 108 168
69 104 168
70 107 168
66 101 148
69 104 148
68 103 136
68 103 168
70 107 168
68 104 136
72 108 168
71 108 178
70 106 158
70 107 168
67 102 136
68 104 148
69 103 123
72 108 178
71 107 168
70 106 158
68 104 148
69 106 158
73 108 158
72 108 178
66 101 158
69 105 148
63 96 108
70 106 168
71 107 168
72 108 158
70 107 168
68 103 148
68 104 136
68 103 136
71 108 168
72 109 178
72 108 168
70 106 158
70 106 168
72 108 168
72 109 178
71 107 158
68 104 148
67 102 123
71 107 158
68 104 136
66 101 136
65 100 123
70 106 158
72 108 168
70 106 158
70 107 168
68 104 136
70 106 158
66 98 148
71 107 168
70 106 148
68 105 168
69 104 123
68 104 148
69 105 158
66 102 123
67 102 148
70 106 158
70 106 148
71 107 168
72 109 178
70 105 148
69 104 168
66 102 123
73 107 168
73 108 158
71 106 148
66 100 123
69 104 136
71 106 136
70 106 158
65 101 158
73 109 168
67 101 158
68 104 148
67 101 158
70 106 148
68 104 158
70 104 158
65 99 89
69 104 136
66 101 108
66 100 125
63 96 123
68 102 136
58 88 123
69 105 158
65 98 123
66 100 123
86 111 108
129 137 0
118 127 0
137 143 0
71 75 0
56 54 0
104 115 0
144 150 0
121 135 0
135 140 0
139 149 0
136 141 0
115 112 0
132 143 0
167 182 0
110 125 0
84 90 0
112 117 0
123 132 0
101 108 0
102 107 0
103 111 0
121 129 0
101 104 0
115 124 0
106 106 0
130 138 0
150 153 0
127 133 0
119 122 0
111 113 0
93 92 0
122 122 0
127 126 0
121 121 0
142 151 0
127 124 0
115 112 0
124 129 0
75 77 0
62 58 0
140 141 0
152 152 0
100 99 0
117 122 0
132 136 0
110 110 0
92 92 0
132 137 0
90 87 0
105 99 0
131 134 0
84 76 0
135 137 0
100 98 0
127 128 0
132 131 0
37 36 0
110 111 0
107 102 0
131 133 0
107 110 0
106 98 0
80 78 0
126 117 0
139 146 0
93 93 0
87 92 0
113 115 0
143 140 0
88 90 0
119 121 0
114 109 0
122 117 0
118 119 0
117 118 0
143 141 0
139 143 0
111 107 0
115 112 0
133 130 0
135 133 0
149 153 0
113 112 0
130 132 0
144 147 0
90 81 0
164 171 0
134 130 0
164 168 0
143 148 0
138 137 0
160 166 0
132 136 0
111 115 0
139 143 0
153 158 0
149 159 0
135 139 0
131 135 0
159 168 0
161 165 0
143 143 0
147 151 0
158 171 0
155 169 0
144 149 0
168 178 0
155 159 0
147 148 0
151 154 0
160 170 0
158 169 0
146 156 0
156 160 0
159 167 0
153 156 0
161 172 0
153 160 0
175 188 0
125 129 0
145 154 0
159 171 0
163 173 0
152 155 0
150 166 0
176 190 0
169 180 0
146 157 0
179 203 89
175 196 89
180 203 89
174 194 0
183 206 123
179 203 89
172 194 0
178 201 0
180 200 89
164 185 0
184 206 89
184 205 89
174 195 89
181 204 89
180 200 89
178 198 0
178 199 123
176 200 0
176 195 0
171 194 89
169 193 0
184 206 89
176 201 89
173 197 123
178 201 0
180 200 123
173 194 0
183 205 89
181 201 89
184 205 89
174 197 89
171 193 0
179 202 0
181 205 123
181 203 0
180 204 89
170 192 0
181 204 89
188 209 123
166 184 0
182 204 89
177 197 89
149 172 123
68 103 168
87 119 148
79 104 108
103 130 148
115 141 178
112 139 168
85 113 158
135 157 148
107 130 158
83 111 136
101 128 136
126 148 178
120 143 158
85 114 148
87 114 148
108 134 168
105 129 148
107 133 158
112 139 178
87 113 158
136 159 178
134 156 158
127 150 186
93 118 168
106 127 158
127 150 186
95 120 178
93 120 178
59 91 158
116 142 202
70 105 178
69 104 178
99 128 195
71 108 186
70 108 186
94 122 186
66 101 158
119 145 202
97 127 186
100 129 195
96 124 182
98 127 186
67 103 178
96 122 168
72 109 186
100 128 195
64 97 158
71 108 178
69 107 186
66 99 168
72 108 178
69 104 178
68 103 178
68 104 178
69 104 168
70 107 178
71 107 168
63 96 148
70 107 168
66 101 148
68 104 158
62 95 136
56 85 136
66 100 148
68 104 178
69 107 178
62 96 148
63 93 148
71 107 168
70 107 168
73 109 178
71 107 168
63 98 136
66 102 136
70 106 168
69 106 168
66 100 148
69 103 148
69 104 123
70 106 158
69 106 168
59 91 108
64 98 123
71 107 158
73 109 178
67 103 136
69 107 178
66 102 136
72 108 168
65 98 148
69 103 158
69 106 168
72 109 186
68 105 158
69 106 158
66 101 168
68 103 168
70 106 168
69 106 178
66 100 136
68 105 168
70 106 168
67 102 168
71 107 158
68 103 168
69 106 178
71 107 168
67 102 148
70 106 158
67 101 148
68 104 148
69 105 158
72 109 178
72 108 158
71 107 168
66 101 148
67 101 158
70 107 178
70 107 168
71 107 158
69 106 168
68 102 148
65 99 123
72 108 178
67 102 123
67 101 148
72 108 178
69 105 148
74 110 178
71 107 158
70 105 148
72 107 158
71 108 178
69 105 158
71 108 168
69 106 168
68 104 148
70 106 158
62 93 136
70 107 168
69 105 158
68 104 136
70 107 168
71 107 158
69 105 158
68 103 158
66 103 148
69 106 158
71 108 168
69 105 148
71 107 168
67 102 158
72 109 178
74 110 178
72 109 178
72 109 186
72 107 158
69 104 158
70 104 158
70 107 168
71 108 178
66 102 136
66 101 136
72 108 168
70 106 158
62 96 89
71 106 168
68 104 148
69 105 148
70 106 158
69 103 158
67 102 158
71 107 158
69 106 168
73 109 168
70 107 168
69 105 136
74 110 186
71 107 158
69 104 123
69 105 148
70 107 168
68 104 148
63 99 136
71 105 158
69 105 148
66 102 123
70 106 158
69 103 123
70 106 158
70 106 158
68 103 136
65 99 136
66 100 89
68 103 158
67 103 123
70 106 158
65 100 136
65 100 123
71 107 158
67 104 148
70 105 148
72 106 168
72 108 168
72 108 168
67 101 136
67 104 148
65 99 148
71 106 148
69 104 136
70 106 148
65 99 136
70 107 168
69 105 148
66 101 148
61 93 108
73 109 168
61 93 123
70 105 148
66 102 123
68 104 148
71 106 148
69 105 136
67 101 125
65 99 158
65 98 148
68 104 136
62 96 136
109 126 71
123 138 0
105 119 0
130 137 0
97 113 0
83 83 0
125 142 0
90 105 0
80 90 0
142 156 0
111 125 0
121 122 0
92 100 0
117 123 0
104 115 0
99 96 0
114 107 0
120 115 0
126 135 0
101 98 0
96 101 0
148 145 0
63 60 0
88 87 0
100 97 0
118 111 0
130 138 0
141 144 0
144 155 0
119 123 0
127 128 0
117 111 0
124 121 0
111 118 0
114 119 0
118 125 0
120 131 0
66 63 0
84 77 0
138 147 0
104 113 0
73 76 0
100 100 0
127 134 0
127 130 0
133 134 0
112 115 0
119 123 0
101 110 0
115 125 0
119 116 0
83 85 0
76 82 0
120 123 0
129 142 0
117 112 0
97 101 0
109 107 0
96 86 0
126 124 0
100 98 0
109 111 0
84 84 0
127 132 0
110 110 0
116 112 0
124 128 0
131 136 0
124 118 0
104 109 0
131 124 0
138 134 0
174 180 0
130 127 0
147 149 0
125 120 0
104 104 0
147 154 0
132 128 0
161 169 0
134 137 0
135 142 0
129 130 0
121 123 0
119 124 0
151 157 0
151 154 0
156 158 0
145 144 0
138 141 0
106 104 0
158 166 0
150 154 0
132 136 0
123 125 0
143 146 0
151 154 0
149 148 0
129 131 0
159 163 0
150 157 0
155 159 0
152 157 0
161 169 0
155 160 0
143 141 0
164 171 0
160 164 0
149 159 0
159 167 0
160 171 0
147 145 0
171 184 0
157 165 0
159 170 0
144 147 0
153 163 0
158 170 0
131 143 0
152 162 0
153 160 0
168 182 0
149 155 0
155 161 0
171 184 0
165 176 0
154 168 0
161 173 0
165 177 0
173 194 0
170 188 0
172 194 89
177 197 89
173 194 0
166 187 123
178 201 0
166 186 89
185 206 89
182 205 89
184 204 0
172 196 123
173 194 0
181 203 0
180 202 0
174 196 89
178 200 89
172 194 0
168 191 148
140 161 0
181 204 89
179 201 0
168 191 0
168 191 0
177 200 0
174 195 89
179 198 89
171 192 0
175 196 0
176 199 123
172 193 0
174 197 89
177 201 0
180 202 0
177 197 89
180 203 89
168 191 0
174 194 0
168 192 0
182 204 89
183 208 148
182 203 0
167 188 108
92 120 158
86 116 148
67 101 148
90 118 148
94 124 178
95 123 186
66 101 158
116 138 123
90 113 148
93 119 168
88 113 158
59 91 89
92 120 168
64 98 123
106 132 158
83 112 158
110 131 158
121 147 158
132 157 210
107 130 148
54 81 136
114 139 195
92 121 168
123 146 178
87 113 136
86 113 148
113 139 195
94 122 178
125 146 168
55 85 148
70 107 178
70 107 186
73 110 186
70 108 186
71 108 186
66 102 168
68 105 168
72 109 178
99 128 186
97 126 178
70 105 178
98 127 186
97 123 178
73 110 186
95 122 178
73 109 168
70 107 178
117 138 186
70 107 178
71 108 186
70 107 178
63 95 136
69 106 178
67 101 148
63 96 148
64 96 148
69 103 158
65 98 158
67 101 148
61 94 136
70 107 168
68 103 168
89 116 136
54 83 123
65 101 168
69 104 168
69 103 158
62 95 136
67 102 168
65 101 168
70 106 168
68 104 148
68 105 158
68 104 148
70 105 148
64 99 129
73 110 186
67 101 148
64 99 158
72 108 178
68 104 148
71 107 168
71 107 168
66 101 158
70 107 178
68 103 168
65 100 148
71 107 168
72 108 168
66 100 136
70 107 168
72 109 178
71 107 158
73 110 178
66 103 148
63 97 158
73 109 168
70 105 136
68 105 168
67 102 158
70 105 178
73 110 186
66 102 173
71 108 178
65 99 136
69 104 136
70 106 158
68 103 148
70 106 158
71 107 168
64 97 148
70 106 148
69 106 158
69 106 158
66 102 158
66 102 123
65 100 148
71 107 158
69 105 148
72 108 178
66 103 148
70 107 168
68 103 158
67 104 158
70 106 158
68 104 168
69 105 148
71 106 148
67 102 168
67 101 148
68 104 178
73 109 178
70 105 136
65 98 148
68 104 136
65 99 136
70 106 158
68 104 158
68 102 158
72 109 178
67 100 136
71 108 178
72 108 168
71 106 158
72 108 178
72 108 178
66 102 158
69 105 148
73 109 178
71 107 158
70 106 148
68 103 158
69 104 158
65 100 148
68 104 148
75 111 178
70 106 148
72 108 168
70 106 158
69 106 158
69 105 158
67 101 168
64 100 148
67 103 148
73 109 178
70 107 168
66 101 108
72 109 178
70 106 158
69 104 136
70 105 136
72 107 158
69 104 123
68 102 148
70 107 168
69 106 168
72 108 168
71 107 168
68 104 148
69 105 148
71 106 158
69 105 168
69 106 168
72 107 148
67 101 123
71 107 158
68 101 148
73 109 168
68 103 136
72 109 178
66 101 136
68 104 148
71 107 158
68 103 148
71 106 148
70 106 158
65 100 108
68 104 148
73 108 158
65 100 148
69 104 136
69 106 158
71 107 158
69 105 148
71 107 158
75 112 186
68 104 148
72 107 158
68 102 136
69 104 136
71 106 158
69 104 158
72 107 158
68 103 136
69 105 136
67 101 148
69 105 148
70 105 136
69 103 148
70 104 148
69 106 158
62 94 123
69 101 158
67 103 123
70 104 158
70 103 138
58 89 89
65 97 108
133 142 0
141 153 0
104 106 0
116 127 0
98 101 0
121 123 0
130 138 0
121 131 0
140 151 0
100 99 0
119 131 0
94 106 0
106 114 0
108 111 0
102 97 0
121 127 0
132 132 0
140 150 0
105 111 0
107 114 0
127 128 0
119 124 0
132 139 0
102 101 0
106 107 0
142 154 0
106 109 0
133 143 0
104 105 0
117 124 0
107 113 0
137 152 0
100 100 0
114 113 0
81 86 0
140 140 0
146 156 0
71 76 0
89 91 0
123 131 0
79 84 0
118 118 0
119 124 0
112 115 0
80 74 0
87 88 0
128 130 0
120 118 0
108 107 0
115 115 0
134 130 0
121 117 0
118 112 0
117 115 0
125 126 0
137 139 0
141 139 0
102 93 0
137 137 0
149 150 0
137 137 0
117 122 0
118 128 0
116 115 0
109 114 0
81 76 0
70 65 0
96 93 0
155 155 0
110 106 0
146 151 0
111 112 0
134 130 0
147 155 0
138 142 0
125 126 0
147 145 0
153 155 0
144 148 0
137 138 0
121 122 0
148 144 0
136 136 0
141 152 0
140 148 0
115 118 0
148 155 0
145 154 0
117 111 0
148 152 0
112 119 0
144 139 0
158 165 0
139 148 0
161 167 0
150 155 0
148 155 0
137 146 0
131 132 0
145 154 0
147 146 0
161 167 0
153 161 0
140 150 0
163 175 0
139 147 0
156 159 0
152 151 0
157 167 0
140 145 0
160 179 0
140 139 0
155 163 0
130 143 0
163 175 0
147 152 0
156 163 0
168 177 0
149 151 0
182 194 0
145 162 0
143 155 0
149 162 0
160 171 0
165 169 0
144 155 0
155 165 0
159 174 0
156 166 0
171 194 89
167 187 0
186 206 89
176 197 0
166 189 89
152 175 89
185 206 89
167 188 89
180 202 0
174 196 89
165 189 0
163 184 89
185 207 123
175 197 123
174 195 89
172 195 0
162 185 89
176 196 89
168 190 123
177 200 148
179 202 0
185 205 0
166 188 0
183 206 123
176 196 0
185 207 123
186 209 148
166 188 89
170 192 148
182 203 0
180 202 0
164 187 123
170 191 123
167 186 89
183 207 148
178 201 0
177 197 0
181 205 123
171 194 89
179 202 0
184 207 123
174 195 89
178 199 89
71 107 168
90 119 158
59 90 136
112 137 168
59 92 123
61 93 158
112 137 178
123 145 136
66 100 148
95 125 168
108 134 178
139 164 202
86 112 158
86 109 136
88 113 158
111 135 178
118 143 158
153 175 195
154 175 195
80 106 136
84 109 136
122 149 178
123 149 178
113 137 136
110 135 178
122 145 178
108 134 178
121 146 168
85 116 168
86 109 163
84 104 148
72 109 186
96 126 195
70 108 186
97 126 186
99 129 195
97 126 186
118 144 195
149 170 210
67 102 168
94 121 168
119 144 195
70 106 168
99 128 186
67 101 148
97 124 186
69 107 178
65 100 158
73 110 186
66 101 158
72 109 186
72 109 178
65 98 153
67 102 168
66 103 158
72 109 186
73 110 186
67 103 178
60 91 148
70 107 178
64 99 136
65 98 168
71 108 168
68 103 158
66 101 158
80 103 123
69 105 148
68 103 168
66 101 142
84 110 123
66 102 168
66 98 148
67 101 148
70 106 158
66 100 136
67 103 168
62 95 148
68 105 168
71 108 168
71 108 178
65 100 148
69 103 158
67 102 123
70 107 168
69 105 158
63 98 136
71 106 168
65 99 136
68 105 168
69 105 148
71 108 168
66 101 148
71 107 168
71 108 186
66 100 148
64 98 136
71 107 168
66 101 158
69 104 136
71 107 158
71 108 178
67 102 158
73 109 168
71 108 178
70 106 158
71 105 178
71 108 178
71 107 168
67 101 158
75 111 178
70 107 178
72 109 186
69 104 136
72 108 168
67 103 148
64 98 123
73 110 186
69 105 158
70 106 158
69 105 158
70 107 168
70 106 158
72 109 186
70 106 168
70 106 168
69 104 168
68 102 136
70 105 148
63 99 142
71 107 158
72 108 168
71 109 186
70 106 158
73 109 168
70 106 168
71 107 158
67 103 123
69 106 168
69 106 168
72 108 178
68 104 148
66 101 148
68 104 158
67 102 148
73 109 178
70 105 168
73 109 178
71 108 178
69 105 148
69 105 148
69 106 158
71 107 168
65 100 136
66 100 148
71 107 168
67 102 148
72 108 168
72 108 168
71 106 148
71 107 168
72 106 168
69 106 178
71 107 158
68 104 136
74 110 168
68 103 148
70 106 158
68 105 158
66 102 168
65 101 123
68 103 136
62 96 136
71 107 168
68 104 148
68 104 148
65 100 148
72 107 158
68 104 148
68 103 136
71 107 158
72 109 178
67 102 148
68 103 158
68 104 148
65 99 123
66 100 123
69 104 136
69 105 148
64 97 136
70 106 158
68 103 148
67 102 136
69 104 123
68 102 148
67 102 123
66 100 136
68 104 148
68 104 148
66 103 148
69 105 148
71 107 168
66 102 136
68 101 123
70 105 148
70 106 178
68 103 158
71 108 168
70 106 168
69 104 136
71 107 158
69 104 136
69 104 168
69 105 158
67 102 108
68 103 123
69 104 148
66 100 148
68 104 136
70 105 148
71 106 148
66 99 108
67 102 148
67 101 89
68 104 136
64 97 136
53 81 65
64 95 136
81 106 89
106 113 0
91 90 0
156 168 0
138 149 0
110 124 0
70 81 0
106 111 0
122 124 0
130 140 0
101 107 0
133 146 0
94 105 0
111 121 0
87 94 0
136 141 0
138 150 0
103 99 0
111 120 0
139 144 0
129 131 0
131 143 0
88 92 0
104 104 0
121 119 0
120 124 0
88 91 0
106 113 0
79 72 0
132 132 0
110 120 0
119 126 0
135 144 0
127 136 0
112 119 0
121 129 0
117 112 0
88 78 0
131 129 0
122 131 0
143 148 0
150 154 0
129 127 0
62 58 0
133 129 0
119 121 0
111 121 0
123 122 0
103 104 0
112 120 0
118 122 0
115 119 0
134 132 0
125 131 0
91 91 0
126 122 0
128 138 0
111 110 0
88 90 0
114 116 0
141 143 0
136 143 0
132 138 0
129 129 0
119 118 0
142 136 0
148 156 0
118 117 0
146 149 0
132 135 0
125 125 0
118 121 0
151 159 0
102 93 0
148 151 0
110 114 0
144 136 0
140 148 0
123 127 0
109 110 0
133 132 0
119 115 0
150 159 0
136 144 0
125 117 0
122 123 0
124 127 0
159 171 0
161 164 0
158 163 0
129 131 0
160 162 0
152 158 0
155 156 0
120 129 0
145 147 0
162 171 0
103 108 0
127 127 0
158 165 0
127 139 0
151 162 0
131 139 0
151 151 0
147 152 0
159 166 0
125 131 0
163 172 0
166 176 0
151 155 0
134 135 0
139 147 0
141 139 0
159 171 0
131 131 0
161 180 0
164 172 0
157 163 0
160 164 0
145 148 0
153 169 0
164 174 0
144 155 0
157 168 0
166 182 0
160 163 0
171 183 0
138 144 0
159 170 0
172 180 0
180 201 148
184 206 89
186 209 148
156 175 89
175 197 123
168 191 0
176 199 123
173 194 0
182 203 0
163 183 0
170 192 0
180 204 89
172 193 0
187 208 123
175 199 123
180 204 89
179 204 123
180 204 89
164 187 89
172 196 89
177 197 0
177 200 0
165 187 89
172 193 0
174 194 0
182 204 89
162 181 89
183 206 123
179 200 123
182 206 123
171 191 89
180 198 0
173 195 89
173 194 89
185 208 148
171 194 0
185 207 123
168 193 0
181 204 89
165 185 0
178 202 89
180 202 0
179 198 89
170 192 123
107 134 148
123 148 158
124 148 178
63 96 136
91 119 108
66 102 168
135 157 178
67 101 158
131 156 210
96 126 186
89 116 168
105 131 168
114 143 148
83 107 123
68 103 168
72 109 186
108 134 158
79 105 123
90 113 148
103 127 158
88 116 158
96 120 136
114 137 178
106 132 173
114 136 136
83 115 158
85 109 136
129 148 186
122 142 158
88 115 158
107 131 168
68 104 178
97 127 195
66 102 168
95 122 178
98 128 195
66 102 168
118 144 202
70 108 186
98 127 186
69 105 158
98 126 168
71 108 178
68 103 158
119 144 202
72 108 168
100 129 195
66 102 168
63 97 168
67 103 178
71 108 178
71 108 178
69 106 178
69 106 168
72 109 186
67 102 168
70 107 168
71 107 168
62 95 136
66 102 163
63 96 148
66 102 158
71 108 168
68 103 168
101 129 123
66 100 148
69 104 168
60 90 123
64 98 123
59 91 148
68 105 158
63 96 142
65 98 158
63 96 153
66 100 148
69 104 136
69 105 158
73 109 178
70 106 158
63 97 153
69 105 148
71 108 178
69 105 158
66 100 136
66 100 136
71 108 168
67 103 136
70 106 168
62 93 148
58 90 89
67 104 148
70 106 158
68 104 148
68 104 158
69 104 168
68 104 148
69 105 148
69 104 136
74 110 178
69 105 178
69 106 158
67 103 136
68 105 158
71 108 168
70 107 178
66 100 136
65 100 158
68 104 136
67 104 148
66 101 153
68 103 158
66 102 158
70 106 148
70 106 158
72 108 178
68 104 148
62 96 148
71 107 158
69 106 168
72 108 168
70 106 158
68 104 148
72 108 168
65 99 148
68 104 148
69 104 136
69 104 136
71 107 158
63 97 148
69 106 168
70 107 168
74 110 178
68 104 148
66 102 136
69 105 148
71 106 178
67 103 123
65 99 136
69 105 158
68 103 168
67 101 148
72 108 158
68 104 148
69 106 168
73 109 178
71 107 158
69 105 148
72 108 158
69 105 158
71 107 168
69 105 158
70 107 178
69 105 148
67 100 108
67 101 123
67 102 148
64 99 136
66 100 136
70 107 168
73 109 178
65 100 158
69 106 168
67 102 108
71 108 168
72 108 158
69 106 158
69 104 136
69 105 148
67 103 136
71 106 136
71 107 158
70 106 158
70 107 168
72 108 168
69 104 136
68 103 136
62 97 123
67 102 148
72 108 168
66 101 108
68 103 123
66 101 136
70 106 158
71 107 158
68 102 148
71 106 158
71 107 168
67 102 123
69 105 158
71 107 158
69 103 123
62 96 136
67 102 123
71 108 178
69 105 148
70 106 158
67 103 136
68 104 136
71 107 158
67 100 148
70 107 168
70 106 158
70 106 148
70 105 136
66 100 89
66 101 123
64 98 123
68 103 136
72 108 158
69 105 158
71 105 138
69 106 158
72 108 168
69 104 136
68 102 148
70 105 148
69 104 168
68 100 123
66 98 136
61 94 108
67 102 148
71 107 158
69 104 136
63 96 89
67 101 108
64 98 123
102 124 108
97 105 0
101 111 0
108 119 0
126 142 0
134 144 0
145 160 0
143 148 0
131 144 0
132 141 0
129 142 0
146 149 0
112 120 0
111 118 0
149 160 0
150 158 0
99 101 0
135 150 0
102 106 0
134 146 0
133 130 0
118 123 0
121 125 0
113 116 0
91 97 0
139 141 0
107 118 0
129 138 0
119 131 0
144 153 0
115 119 0
104 115 0
85 89 0
117 125 0
152 155 0
137 147 0
115 118 0
148 145 0
118 129 0
90 82 0
104 107 0
107 93 0
114 118 0
142 152 0
105 108 0
144 154 0
126 127 0
150 157 0
130 131 0
112 111 0
108 111 0
120 126 0
110 114 0
130 136 0
73 70 0
111 110 0
152 157 0
89 96 0
134 138 0
130 135 0
137 147 0
90 92 0
125 127 0
106 96 0
121 131 0
117 127 0
114 110 0
133 143 0
128 137 0
117 119 0
135 136 0
104 119 0
76 68 0
119 119 0
87 89 0
105 107 0
144 145 0
127 126 0
134 137 0
129 123 0
152 163 0
134 132 0
119 121 0
141 139 0
142 149 0
123 124 0
160 166 0
131 130 0
138 147 0
125 124 0
123 137 0
157 164 0
130 137 0
126 125 0
136 139 0
146 154 0
133 129 0
116 108 0
156 166 0
138 134 0
141 148 0
105 110 0
116 112 0
162 173 0
155 158 0
162 168 0
151 162 0
160 173 0
154 160 0
154 160 0
172 183 0
145 150 0
134 140 0
130 136 0
169 185 0
156 165 0
167 177 0
171 187 0
162 171 0
177 190 0
164 172 0
153 159 0
154 165 0
148 151 0
167 184 0
168 178 0
170 180 0
167 181 0
181 197 0
151 162 0
180 202 0
176 196 0
163 184 0
170 189 0
182 204 89
168 185 123
172 193 0
154 174 0
171 192 0
183 205 89
182 203 123
176 198 89
170 190 0
171 193 0
179 200 89
171 194 0
164 185 89
171 194 89
167 190 0
179 202 0
152 174 0
176 202 89
170 192 0
172 193 0
174 194 0
162 184 0
168 188 89
165 185 0
179 201 123
172 194 0
183 204 0
184 208 148
178 200 0
177 199 123
157 175 0
179 202 0
174 195 89
160 179 89
180 204 89
173 195 0
171 194 0
169 193 89
181 204 89
157 177 89
66 100 136
67 103 148
70 106 158
124 147 158
124 146 158
92 121 158
111 137 178
63 97 158
103 126 136
105 133 168
95 123 178
69 104 178
123 148 186
128 150 195
91 117 158
140 163 195
111 135 168
90 117 148
131 155 148
61 92 148
120 142 148
111 132 178
116 138 148
141 161 186
100 124 136
131 157 158
84 113 158
80 92 89
105 130 168
106 130 158
60 92 158
54 84 136
60 91 148
96 127 195
95 125 186
99 128 195
117 143 195
72 108 178
70 107 186
95 122 178
98 127 186
70 107 178
70 107 178
61 95 158
68 105 168
68 106 178
97 123 168
95 120 178
72 109 178
65 101 168
68 104 178
63 98 148
66 102 168
65 101 168
64 98 168
67 102 158
67 103 168
68 104 178
59 90 123
65 100 148
63 94 123
55 85 129
70 108 186
69 106 158
67 102 168
69 106 178
88 115 123
90 119 168
70 107 178
66 101 158
73 109 168
70 106 168
75 111 186
68 103 136
66 101 158
65 101 123
66 100 148
66 100 148
68 103 158
73 109 178
61 94 136
71 107 168
66 100 136
65 101 153
65 99 136
66 102 168
73 110 186
66 101 158
66 100 108
73 110 186
64 98 163
62 95 136
60 92 123
69 105 158
68 105 158
70 108 178
73 110 186
67 103 136
69 105 148
69 105 158
71 107 148
69 105 148
68 103 178
69 105 158
70 107 168
63 97 123
70 106 158
69 105 148
72 109 186
67 102 158
72 108 168
68 106 178
69 106 158
69 105 158
67 104 158
73 109 178
69 105 158
67 100 136
71 107 168
64 100 148
66 102 136
68 105 158
69 105 136
67 102 158
72 108 168
72 109 178
68 102 148
63 96 136
69 105 148
72 108 178
73 109 178
69 106 168
70 106 148
72 107 158
70 104 168
68 104 136
69 104 136
73 109 168
68 103 168
69 105 148
68 104 148
69 104 168
72 108 168
68 104 148
69 105 158
68 103 136
66 101 123
72 108 168
68 102 148
71 108 168
72 109 178
67 103 136
68 102 136
72 109 178
69 105 148
69 105 148
71 107 168
68 103 168
71 107 168
66 100 168
73 109 168
69 105 148
70 106 148
69 105 148
66 102 123
75 111 178
68 103 136
71 108 178
63 96 148
62 96 123
68 104 148
71 107 158
72 108 168
68 103 123
68 104 136
69 105 148
69 103 148
69 105 148
72 108 168
70 105 148
70 107 168
69 105 178
70 106 148
69 105 136
75 111 178
70 107 178
70 106 158
71 108 178
68 104 148
71 107 168
72 108 168
69 103 148
69 103 158
70 105 148
69 104 168
65 100 108
72 107 158
69 106 168
70 106 148
72 109 178
71 107 168
68 104 148
66 100 168
68 102 108
69 105 148
70 107 168
72 109 178
67 103 136
66 101 123
65 97 123
70 104 148
70 106 158
71 107 158
71 107 158
65 98 123
71 106 148
65 99 158
72 108 168
73 108 158
67 103 123
71 106 148
66 100 136
62 94 108
67 100 136
70 104 158
60 92 89
103 113 0
143 159 0
126 138 0
146 154 0
151 166 0
89 100 0
145 160 0
116 123 0
141 152 0
124 131 0
98 104 0
115 121 0
143 150 0
98 112 0
151 160 0
124 128 0
131 139 0
97 98 0
111 115 0
129 136 0
110 122 0
113 123 0
125 123 0
89 90 0
108 115 0
94 100 0
121 128 0
130 138 0
131 142 0
123 123 0
116 121 0
139 146 0
141 150 0
134 129 0
102 104 0
108 111 0
90 93 0
108 114 0
149 155 0
84 95 0
128 132 0
116 121 0
118 124 0
95 104 0
121 122 0
107 109 0
113 103 0
127 137 0
120 116 0
120 119 0
104 100 0
117 126 0
111 116 0
71 65 0
118 119 0
90 89 0
83 83 0
145 155 0
133 136 0
130 137 0
111 119 0
85 84 0
127 133 0
114 114 0
121 124 0
129 128 0
114 119 0
117 125 0
130 138 0
113 118 0
134 140 0
127 132 0
91 96 0
146 149 0
134 144 0
115 116 0
131 137 0
109 96 0
111 110 0
117 119 0
92 101 0
164 174 0
166 164 0
113 116 0
114 118 0
131 135 0
155 161 0
152 163 0
141 140 0
137 142 0
113 118 0
121 125 0
121 112 0
139 142 0
126 134 0
139 148 0
146 151 0
153 165 0
131 132 0
159 164 0
148 157 0
149 148 0
170 184 0
133 142 0
145 158 0
147 147 0
140 146 0
153 167 0
163 162 0
143 154 0
134 142 0
163 166 0
165 184 0
166 170 0
158 167 0
154 166 0
158 164 0
159 166 0
155 170 0
166 174 0
142 156 0
135 144 0
152 160 0
163 172 0
161 165 0
131 142 0
157 159 0
160 178 0
159 173 0
156 165 0
174 195 0
170 188 0
179 203 89
174 194 0
181 204 89
176 196 89
155 178 89
173 193 0
164 185 0
167 188 123
179 203 89
173 195 89
181 202 0
161 180 0
174 198 123
178 203 89
168 191 0
181 203 0
166 188 89
174 194 0
160 180 123
183 205 89
178 201 0
175 195 0
176 198 123
173 196 0
166 186 0
173 195 89
174 195 89
176 196 0
171 191 148
173 193 0
170 193 89
178 197 89
162 182 123
162 182 0
175 196 89
181 204 89
175 196 89
187 207 89
179 202 0
186 207 89
173 193 0
167 190 0
108 132 148
86 116 148
122 147 168
78 100 89
81 102 136
82 107 136
88 116 153
109 130 158
116 140 123
100 130 136
104 129 158
107 134 178
92 118 178
138 160 178
62 95 148
117 143 168
93 119 178
61 92 148
102 129 136
112 135 178
93 122 186
63 96 148
91 118 178
109 131 158
120 143 158
59 91 158
100 128 158
104 128 148
124 143 158
111 132 178
120 136 153
56 86 148
87 109 158
44 69 108
97 127 195
68 103 178
71 108 178
66 102 178
72 109 186
98 127 178
65 100 158
69 107 178
70 105 178
73 110 186
65 98 158
97 123 168
69 106 178
120 144 186
98 126 178
68 106 168
71 108 186
66 102 168
66 100 136
69 107 178
66 102 168
65 99 148
73 110 186
69 104 168
66 99 168
69 105 158
65 98 158
66 102 163
64 99 136
68 103 123
69 106 168
73 109 178
66 100 148
71 107 168
70 105 178
69 106 158
65 101 148
65 100 153
68 103 168
69 106 168
71 107 168
57 87 108
67 102 168
72 108 168
70 106 158
70 106 168
63 97 123
68 105 158
67 103 178
70 107 178
64 97 148
66 101 153
67 102 158
70 104 168
66 99 123
67 103 148
64 99 136
70 107 168
70 107 168
67 103 136
66 101 148
71 108 178
70 108 178
71 109 186
69 106 168
71 108 178
69 105 158
71 107 158
70 104 168
70 107 178
69 106 168
71 107 158
67 103 173
71 107 158
72 107 158
69 106 168
65 98 142
69 103 136
67 103 168
70 106 148
68 105 158
70 107 168
64 97 158
70 107 168
73 109 178
71 107 168
70 106 158
69 105 168
70 107 168
73 110 178
64 99 148
73 108 158
67 101 148
66 100 148
71 107 168
61 94 123
71 108 186
73 109 168
71 108 168
71 108 178
67 102 158
67 102 123
68 104 148
69 105 148
69 105 148
72 109 178
69 106 158
68 104 148
67 103 136
70 107 168
64 99 123
70 105 178
67 101 148
73 109 168
71 106 158
67 102 148
68 103 136
71 106 148
70 107 178
72 107 148
68 102 148
68 103 136
64 100 158
69 104 136
66 99 168
66 102 136
66 101 148
68 105 158
63 96 123
69 105 148
64 98 136
71 107 158
68 105 158
68 104 148
70 106 158
72 108 168
69 105 158
71 107 158
67 102 158
71 107 168
70 107 168
68 103 148
69 105 148
68 102 136
68 105 158
67 103 136
69 104 158
66 101 136
68 103 136
71 107 158
61 94 123
69 105 148
67 103 158
67 103 136
68 104 136
70 105 136
70 106 158
63 97 108
66 100 89
72 109 178
72 108 168
67 103 136
65 99 123
62 97 123
70 105 136
69 106 158
70 106 168
69 106 158
72 107 148
64 95 89
71 107 158
71 107 168
65 101 123
69 105 158
65 98 138
68 103 136
64 98 108
66 101 108
64 97 136
65 100 136
64 97 136
69 104 123
63 95 123
71 107 158
61 94 123
70 106 148
66 100 123
69 104 150
61 90 111
67 100 136
67 102 148
125 132 71
111 114 0
137 147 0
156 172 0
105 108 0
65 75 0
117 128 0
127 141 0
93 105 0
132 141 0
148 159 0
122 132 0
108 110 0
129 142 0
132 147 0
116 119 0
125 138 0
127 135 0
124 129 0
103 105 0
118 122 0
93 100 0
138 144 0
126 133 0
159 173 0
122 117 0
155 157 0
133 141 0
143 157 0
91 95 0
151 154 0
138 150 0
54 59 0
106 113 0
129 130 0
128 133 0
123 131 0
126 123 0
110 116 0
125 127 0
112 121 0
114 116 0
119 123 0
102 108 0
120 128 0
117 118 0
77 85 0
143 141 0
139 150 0
139 147 0
84 82 0
123 118 0
150 152 0
132 145 0
142 154 0
122 120 0
108 105 0
109 110 0
102 100 0
140 152 0
104 106 0
125 126 0
103 107 0
164 179 0
134 141 0
128 134 0
133 143 0
137 140 0
111 113 0
102 102 0
156 159 0
110 117 0
99 99 0
122 127 0
144 143 0
89 82 0
64 63 0
149 159 0
144 153 0
140 152 0
130 140 0
157 159 0
122 135 0
151 156 0
122 131 0
115 115 0
136 144 0
142 151 0
119 131 0
170 176 0
169 183 0
150 150 0
142 151 0
147 153 0
157 157 0
121 127 0
141 146 0
116 118 0
154 161 0
103 103 0
133 134 0
138 141 0
143 152 0
149 158 0
145 156 0
144 156 0
159 162 0
160 163 0
153 150 0
156 166 0
160 169 0
141 151 0
149 156 0
124 123 0
152 158 0
147 159 0
138 153 0
148 151 0
160 166 0
156 170 0
151 154 0
168 177 0
159 171 0
146 153 0
148 154 0
169 185 0
158 162 0
170 185 0
167 180 0
166 176 0
163 184 0
134 149 0
185 206 89
169 193 0
179 203 89
175 197 123
183 204 0
184 207 123
170 192 0
182 204 89
180 202 0
169 193 89
144 166 0
178 201 0
179 202 0
176 199 148
170 194 123
177 198 123
170 192 0
184 205 89
163 185 0
169 191 0
172 193 0
161 185 89
182 203 0
181 204 89
155 175 89
168 192 0
174 194 168
162 183 89
173 196 89
179 202 0
178 197 89
170 192 0
180 198 89
186 206 89
177 198 123
166 186 0
183 205 89
183 206 123
178 200 123
173 193 0
171 194 0
168 188 123
172 193 0
163 186 65
108 132 158
67 100 136
90 117 158
113 139 178
126 151 195
83 113 158
58 88 108
83 112 158
86 118 148
90 116 158
120 142 148
126 148 186
63 96 148
103 130 173
124 145 158
123 145 178
108 134 168
101 129 158
110 136 178
114 134 136
83 111 148
87 113 148
61 92 158
92 121 186
86 109 148
107 130 148
81 104 136
116 136 123
147 168 210
116 138 186
56 85 136
56 86 148
96 120 136
93 119 178
94 121 178
74 110 178
68 106 186
97 126 178
71 108 186
67 102 168
69 104 178
118 143 195
72 109 186
96 125 168
70 107 178
117 140 186
69 103 168
101 129 195
70 107 178
64 100 158
73 110 186
66 101 158
68 103 158
72 108 168
69 106 178
69 107 178
70 104 158
75 111 186
71 107 168
66 100 168
59 90 136
66 102 178
63 97 158
69 104 168
68 103 158
66 98 148
86 113 142
63 98 136
69 106 168
71 107 158
64 98 158
63 98 136
73 109 178
71 106 178
69 102 148
67 101 148
65 101 163
65 101 158
72 108 168
69 104 173
73 109 178
67 101 158
57 87 148
68 103 163
74 110 178
71 108 168
69 105 148
70 105 158
68 104 148
67 102 153
70 105 178
64 98 123
67 102 163
73 109 168
69 103 158
68 104 136
70 106 158
62 96 142
70 107 178
68 102 148
71 108 186
73 108 158
65 98 123
71 108 178
59 93 136
71 108 178
67 101 148
67 104 148
72 108 158
64 99 148
64 97 148
64 98 136
70 106 158
61 93 108
64 99 136
70 107 178
67 102 123
69 106 168
69 105 148
73 108 168
72 109 178
66 103 148
68 104 168
64 97 148
70 106 158
73 109 178
69 106 168
69 106 168
70 107 168
67 102 123
63 97 142
70 106 158
67 101 148
70 107 168
71 108 168
68 103 148
71 107 158
71 107 168
70 107 168
71 107 158
74 110 178
67 102 148
68 104 136
69 106 158
73 110 186
66 102 123
68 104 158
72 108 168
67 102 148
68 104 148
72 108 168
68 104 148
67 104 148
68 103 158
70 106 158
66 104 158
63 97 123
70 107 168
66 101 123
68 103 136
68 104 148
69 105 148
69 103 158
67 103 136
69 104 158
68 104 148
68 104 148
68 103 136
72 108 168
66 101 148
69 105 148
69 103 123
71 108 168
73 108 178
69 105 148
71 108 168
70 106 158
70 106 158
68 104 148
69 104 136
67 102 158
68 103 123
64 97 148
72 108 168
69 105 158
67 103 136
67 102 123
72 107 158
67 102 123
70 106 148
70 106 148
68 103 158
71 106 148
68 102 136
71 108 168
69 105 148
70 106 158
69 105 158
70 106 148
73 109 168
68 104 148
63 97 123
70 106 148
71 107 168
64 98 123
67 103 123
71 107 158
63 95 108
68 104 148
69 104 148
69 105 148
70 106 158
61 93 108
68 103 136
69 104 136
68 103 123
71 107 158
68 103 123
66 100 136
62 94 108
70 105 168
68 102 158
63 95 108
68 102 148
106 122 65
98 98 0
129 135 0
132 144 0
151 163 0
133 144 0
118 111 0
133 147 0
122 136 0
135 145 0
115 127 0
147 165 0
134 139 0
101 104 0
120 128 0
73 73 0
150 162 0
146 160 0
160 177 0
129 143 0
119 125 0
145 153 0
103 103 0
141 145 0
133 143 0
116 129 0
80 78 0
138 152 0
125 130 0
104 115 0
104 114 0
114 114 0
89 96 0
109 111 0
103 105 0
108 112 0
137 140 0
98 106 0
144 156 0
147 160 0
135 145 0
131 135 0
128 136 0
153 158 0
118 131 0
105 104 0
119 124 0
114 121 0
125 125 0
121 131 0
100 101 0
140 155 0
122 112 0
135 137 0
122 124 0
94 96 0
112 122 0
115 122 0
136 133 0
105 105 0
123 123 0
143 152 0
100 104 0
98 101 0
123 132 0
116 126 0
107 109 0
145 157 0
117 123 0
139 147 0
133 141 0
121 125 0
101 105 0
110 111 0
129 137 0
130 138 0
111 116 0
122 121 0
160 158 0
148 148 0
150 150 0
127 134 0
152 160 0
107 111 0
119 120 0
138 134 0
149 155 0
149 146 0
171 179 0
136 140 0
137 128 0
148 158 0
146 154 0
148 160 0
154 161 0
161 169 0
142 147 0
148 147 0
139 146 0
166 178 0
144 139 0
128 135 0
176 188 0
139 147 0
150 157 0
146 158 0
157 170 0
157 163 0
135 142 0
154 164 0
139 145 0
164 177 0
146 152 0
174 191 0
149 151 0
173 182 0
181 197 0
155 174 0
156 162 0
160 161 0
129 118 0
176 187 0
169 183 0
148 162 0
131 139 0
158 167 0
166 174 0
158 165 0
163 174 0
152 157 0
157 169 0
173 193 0
182 203 0
181 199 0
175 197 89
174 195 89
168 191 0
162 185 89
169 186 0
176 199 123
180 202 0
182 204 89
166 184 0
181 204 89
168 191 89
173 195 89
181 204 89
162 184 0
169 193 89
176 197 89
154 176 123
175 195 0
170 193 89
175 197 123
173 195 0
158 179 123
179 203 89
172 196 89
158 176 0
181 203 0
156 175 0
167 192 0
164 186 0
186 208 123
166 186 89
159 181 0
168 189 89
165 188 89
184 208 148
175 197 123
179 202 0
178 196 0
163 187 123
165 185 0
171 194 0
180 202 0
94 117 89
129 156 210
87 114 148
111 138 186
62 92 136
89 116 158
57 88 136
80 106 136
83 111 136
59 92 153
105 129 158
102 124 136
104 129 168
112 136 178
87 109 136
64 98 168
73 109 178
110 132 168
62 93 158
110 131 178
86 105 148
92 122 158
94 123 186
110 135 178
59 87 136
120 142 136
101 121 136
128 151 178
108 134 158
87 106 148
111 133 178
113 133 178
77 102 136
109 135 178
61 93 158
111 131 168
72 109 186
97 127 186
66 102 168
70 108 186
117 143 195
72 109 178
66 102 168
67 101 158
71 108 178
96 124 182
97 125 178
117 138 186
118 139 186
100 129 195
72 109 186
70 106 158
69 106 168
66 101 158
68 102 158
59 90 136
65 101 168
69 105 158
72 108 178
67 102 168
72 108 168
68 102 148
59 88 148
65 101 163
68 103 168
66 103 173
63 96 148
64 98 168
84 115 158
77 101 108
82 112 148
63 96 148
59 90 129
62 94 136
63 98 136
67 102 158
72 107 168
61 92 158
69 104 168
71 107 158
66 100 136
67 103 136
70 107 168
62 96 148
65 100 108
70 106 158
73 109 178
69 105 158
66 101 153
67 102 153
66 100 148
63 96 108
70 107 168
66 101 158
66 103 148
67 104 148
68 104 148
69 103 148
72 109 178
67 101 148
73 109 178
72 109 186
71 108 178
73 110 178
66 100 136
72 108 168
68 104 136
70 107 168
63 96 136
70 106 158
67 103 136
68 104 148
68 102 148
70 107 178
64 98 136
72 108 168
68 103 168
72 108 168
70 106 158
69 105 148
67 100 136
69 105 173
69 106 158
71 107 168
72 109 178
72 109 186
67 103 148
69 106 168
69 105 148
69 106 158
71 108 168
66 102 136
67 102 158
71 106 148
67 103 123
66 101 123
69 105 158
69 105 158
72 109 178
71 107 158
71 108 168
65 100 148
68 103 123
72 109 178
73 109 178
69 105 158
71 107 158
70 106 158
70 107 178
70 106 158
69 105 158
71 107 158
67 103 136
72 108 168
69 105 178
71 107 158
70 105 168
70 106 158
66 101 108
72 108 168
68 104 136
68 102 148
71 108 178
71 107 148
71 107 158
69 105 148
71 107 148
72 109 178
72 108 158
67 102 158
65 100 89
72 107 158
67 102 136
69 107 178
69 104 136
75 111 186
72 108 168
69 105 148
71 107 158
70 107 168
73 109 178
71 108 168
72 108 158
71 108 168
69 104 158
70 106 158
67 102 148
70 106 158
69 105 148
69 104 136
70 106 148
71 108 168
69 104 136
68 104 136
71 108 168
72 108 168
70 105 158
67 103 136
72 108 168
68 103 123
68 103 123
66 100 136
73 109 168
69 105 148
70 104 158
63 96 123
69 105 148
70 105 148
65 99 136
71 106 158
73 109 178
69 104 136
67 102 123
69 104 136
65 98 123
67 101 148
70 106 158
70 106 148
65 98 150
64 98 108
67 101 123
67 103 136
69 105 136
117 131 89
129 144 0
132 146 0
107 123 0
96 103 0
109 126 0
130 145 0
127 131 0
122 138 0
134 144 0
103 110 0
152 165 0
77 97 0
106 118 0
147 154 0
98 104 0
95 100 0
111 123 0
117 127 0
120 129 0
131 139 0
120 130 0
112 111 0
131 139 0
86 95 0
139 143 0
106 112 0
133 145 0
128 139 0
106 112 0
119 123 0
128 134 0
134 146 0
100 111 0
103 111 0
121 125 0
127 135 0
108 121 0
107 119 0
140 142 0
131 129 0
134 138 0
94 104 0
146 153 0
124 130 0
126 127 0
138 143 0
118 115 0
109 113 0
127 124 0
105 108 0
104 111 0
120 115 0
131 126 0
128 134 0
103 114 0
132 142 0
80 74 0
111 120 0
143 153 0
135 146 0
103 106 0
137 141 0
125 128 0
101 102 0
146 149 0
127 121 0
100 101 0
120 127 0
117 113 0
123 122 0
104 104 0
139 145 0
121 123 0
122 127 0
142 142 0
129 138 0
140 146 0
138 151 0
129 134 0
93 88 0
138 147 0
142 147 0
129 132 0
134 137 0
130 134 0
161 162 0
152 160 0
149 158 0
121 130 0
147 150 0
135 143 0
124 126 0
148 154 0
166 174 0
123 120 0
148 152 0
103 104 0
110 118 0
145 152 0
143 155 0
123 126 0
170 183 0
145 155 0
162 177 0
107 107 0
169 178 0
165 174 0
162 174 0
129 139 0
148 151 0
163 174 0
152 163 0
163 174 0
153 164 0
144 152 0
176 193 0
169 174 0
157 169 0
131 140 0
175 190 0
167 183 0
156 162 0
155 167 0
166 181 0
143 145 0
149 160 0
171 182 0
168 177 0
163 174 0
154 161 0
158 173 0
173 193 0
185 206 89
178 201 0
165 188 89
173 197 123
161 185 0
178 197 89
165 186 0
182 205 89
172 193 0
165 187 123
172 194 0
178 202 89
163 182 123
169 193 0
176 203 123
170 191 148
171 193 0
171 189 0
156 178 123
160 184 123
181 204 89
182 205 89
169 189 123
180 202 0
174 197 89
161 183 0
171 190 89
184 207 123
182 204 89
178 202 89
180 202 0
177 201 0
183 205 89
161 180 0
184 207 123
177 197 0
165 185 89
181 204 89
176 198 89
176 199 148
179 202 0
173 195 0
164 186 89
183 204 0
158 182 148
55 83 108
87 112 148
90 116 158
88 111 136
83 112 148
109 135 178
89 117 148
65 97 148
112 140 195
94 122 168
95 126 195
74 96 108
95 125 178
124 148 178
125 144 168
113 136 186
125 149 186
100 126 148
126 150 186
89 116 168
104 123 108
88 110 158
142 164 148
94 120 168
108 132 123
103 129 148
92 115 123
114 138 136
144 163 186
90 117 148
109 130 163
84 114 158
125 149 178
94 122 186
94 122 178
92 118 178
71 108 186
98 127 195
68 106 186
70 107 168
98 127 186
96 123 178
70 107 168
69 103 168
69 107 178
98 127 186
67 102 168
95 121 168
97 123 168
63 98 148
69 106 168
69 105 158
59 90 136
69 104 168
67 102 158
70 106 158
70 107 178
72 109 186
69 103 168
66 101 158
59 90 136
63 98 136
72 108 168
68 103 158
65 97 136
68 104 148
63 94 123
60 93 136
69 104 168
55 84 123
62 96 153
63 96 158
70 107 168
64 98 163
71 107 158
63 97 123
71 107 168
66 103 173
69 104 168
66 100 136
69 105 148
65 102 148
68 103 136
69 102 148
63 96 89
66 101 148
70 105 148
67 103 178
69 105 178
65 101 108
68 103 168
70 104 168
64 97 153
63 97 123
66 103 148
68 105 158
73 109 178
65 99 123
69 105 158
69 106 158
68 104 148
66 102 171
72 109 178
71 108 186
71 108 178
70 107 168
65 101 123
65 100 148
73 110 186
65 101 108
72 108 168
70 107 168
66 99 158
67 102 123
71 107 168
65 100 148
69 105 148
69 105 148
67 102 158
68 104 148
73 110 178
72 108 168
70 106 158
73 110 178
70 106 158
68 104 148
64 98 108
72 108 168
69 105 158
70 106 158
69 105 182
72 108 168
65 101 136
67 103 136
66 102 136
69 105 158
65 100 158
70 106 158
64 98 108
68 104 136
72 107 158
72 108 158
69 105 148
69 106 168
73 109 178
72 108 168
69 105 158
67 103 136
63 98 123
71 107 158
67 101 136
68 105 158
65 98 136
70 106 158
67 103 158
69 106 168
69 105 158
72 108 168
72 108 168
70 105 148
64 97 148
69 104 136
71 107 158
67 101 89
68 103 123
71 108 178
67 102 168
68 103 123
69 104 123
69 104 148
68 103 158
67 101 123
65 99 136
70 107 168
67 102 123
71 108 186
64 100 148
69 103 136
67 102 123
67 102 108
67 101 108
72 107 158
67 103 136
67 103 136
68 102 148
67 103 136
63 95 158
68 103 136
71 106 158
62 95 123
73 109 168
67 102 148
68 104 136
65 102 136
68 104 148
69 105 148
67 102 108
67 103 136
67 103 123
67 102 108
66 100 123
69 104 158
69 105 148
69 104 136
70 106 148
70 106 158
70 106 158
65 99 123
66 102 136
69 105 168
70 106 158
68 103 136
66 101 108
69 104 150
68 103 123
68 103 123
71 106 158
67 103 123
69 105 148
69 103 136
68 102 158
60 92 111
100 111 0
124 136 0
136 144 0
116 124 0
134 147 0
132 141 0
134 142 0
90 104 0
89 100 0
134 147 0
114 120 0
106 115 0
116 126 0
97 112 0
70 71 0
96 109 0
107 106 0
128 139 0
140 143 0
143 153 0
131 138 0
96 94 0
111 119 0
99 109 0
111 125 0
121 130 0
108 113 0
118 129 0
145 154 0
142 151 0
124 125 0
133 139 0
84 87 0
107 111 0
111 111 0
132 140 0
142 151 0
141 146 0
100 108 0
129 133 0
94 105 0
137 143 0
109 117 0
122 130 0
130 131 0
133 141 0
110 102 0
146 152 0
119 127 0
140 141 0
98 99 0
134 147 0
98 99 0
147 153 0
129 137 0
121 122 0
141 146 0
161 163 0
131 134 0
119 124 0
97 100 0
131 138 0
152 157 0
110 113 0
126 124 0
137 143 0
136 126 0
142 144 0
142 146 0
106 109 0
102 100 0
144 146 0
152 157 0
145 138 0
140 146 0
131 143 0
142 152 0
122 117 0
121 121 0
150 152 0
154 165 0
139 148 0
159 165 0
139 145 0
139 141 0
151 149 0
139 149 0
141 148 0
161 165 0
164 174 0
131 136 0
145 150 0
121 130 0
142 152 0
139 145 0
151 160 0
155 163 0
147 146 0
150 152 0
130 135 0
157 161 0
179 192 0
155 163 0
165 178 0
141 147 0
151 163 0
169 180 0
135 127 0
157 161 0
150 153 0
160 167 0
137 144 0
165 175 0
111 117 0
140 151 0
144 155 0
158 171 0
163 169 0
157 168 0
148 161 0
176 192 0
165 178 0
178 188 0
168 180 0
163 174 0
176 194 0
166 181 0
169 186 0
159 176 0
136 150 0
177 189 0
161 169 0
170 192 0
175 191 0
179 203 89
180 202 0
189 209 123
179 203 89
172 193 0
172 195 89
180 203 89
175 195 0
169 189 0
170 193 89
170 195 89
161 183 0
170 193 0
172 193 0
178 200 123
172 194 0
181 204 89
179 203 89
174 195 89
179 203 89
176 199 123
179 200 123
178 199 123
165 187 0
171 195 89
163 184 0
166 184 0
178 198 89
164 187 0
155 176 0
178 198 89
181 205 123
168 192 0
159 182 0
186 209 148
173 195 0
178 197 89
178 201 0
178 200 123
168 189 89
172 194 0
174 195 0
159 178 0
145 163 89
61 93 123
56 84 123
91 120 158
94 116 158
122 147 168
111 136 168
104 129 158
110 133 168
90 118 148
64 95 158
92 122 173
126 149 195
57 89 136
55 84 136
123 145 148
109 130 158
52 79 123
51 77 108
128 148 178
134 156 173
65 99 168
140 160 186
106 122 148
84 109 136
92 116 158
135 154 163
108 137 178
123 146 158
111 135 108
123 140 158
79 106 136
106 130 158
111 138 168
63 97 168
59 91 158
52 79 136
55 85 148
98 127 186
67 102 168
72 109 186
68 105 168
69 107 186
101 130 195
71 107 168
70 107 168
96 123 178
70 107 178
66 100 148
97 124 186
65 100 158
100 128 186
97 123 186
70 107 178
70 107 168
66 101 168
70 107 178
69 104 178
71 108 178
68 105 158
67 102 158
61 92 148
63 95 136
70 104 168
72 109 186
66 101 158
69 103 158
68 103 158
60 94 123
63 97 168
56 85 129
66 101 168
68 102 148
68 103 153
67 103 136
70 105 148
68 103 178
70 107 168
68 104 148
72 109 178
66 100 148
69 104 158
68 102 148
66 100 136
68 102 136
66 103 148
71 108 168
73 108 158
71 107 158
69 104 136
71 108 178
66 102 136
67 103 168
69 106 168
71 107 168
63 96 136
67 104 148
64 97 148
67 102 168
68 104 136
64 98 136
61 95 136
71 107 158
72 108 168
70 105 148
68 104 168
69 106 158
64 97 108
74 110 168
69 103 148
73 109 168
69 105 148
68 103 168
66 102 136
70 106 148
71 106 148
72 108 168
67 101 148
68 102 148
70 105 148
69 104 136
70 107 168
68 105 158
70 105 173
69 105 158
71 107 168
67 101 148
74 110 186
64 99 148
71 108 168
69 105 158
69 105 148
70 105 136
71 106 148
64 97 158
70 105 148
72 109 178
65 100 136
66 101 123
69 105 158
72 108 168
69 105 168
70 106 158
63 97 108
71 108 178
71 107 158
68 103 158
72 108 168
71 108 186
68 104 136
68 102 136
68 104 148
68 103 158
70 107 168
72 107 148
69 105 148
65 102 136
71 107 168
69 105 158
64 98 123
69 104 136
69 106 158
72 108 168
71 107 168
74 110 178
71 106 148
69 105 148
70 106 158
71 107 168
71 107 168
71 106 148
69 105 148
70 105 148
68 104 148
71 107 148
67 103 136
66 99 148
68 104 136
69 104 136
72 108 168
68 104 148
69 105 148
69 104 148
73 110 186
70 104 158
71 107 158
72 109 178
69 105 168
71 107 158
65 99 123
67 103 123
73 109 178
67 103 123
70 106 158
69 105 148
72 108 158
67 103 136
70 105 158
66 101 148
74 110 178
68 103 148
72 108 178
68 104 148
71 107 158
71 106 148
70 106 148
69 103 123
71 106 158
67 103 136
64 98 108
66 100 136
71 106 148
73 110 178
63 96 89
66 100 136
68 103 136
69 105 148
67 103 123
73 108 158
66 100 108
62 94 123
66 100 123
99 114 89
129 144 0
101 115 0
129 144 0
121 135 0
139 148 0
125 137 0
132 148 0
124 121 0
107 115 0
123 138 0
132 134 0
130 145 0
88 94 0
130 138 0
105 115 0
119 119 0
141 150 0
100 109 0
107 109 0
119 128 0
101 103 0
135 147 0
120 118 0
128 136 0
104 111 0
132 139 0
134 139 0
129 134 0
126 135 0
109 127 0
108 117 0
160 167 0
136 140 0
122 137 0
111 122 0
109 122 0
121 130 0
81 89 0
101 111 0
127 126 0
86 81 0
152 162 0
92 95 0
105 112 0
141 144 0
114 119 0
94 98 0
130 142 0
125 139 0
91 99 0
118 122 0
116 113 0
117 127 0
76 78 0
134 139 0
125 122 0
108 122 0
126 135 0
111 112 0
139 146 0
97 102 0
143 149 0
116 121 0
118 117 0
132 146 0
116 117 0
129 133 0
109 123 0
152 153 0
159 169 0
138 145 0
121 129 0
95 99 0
142 149 0
132 148 0
131 126 0
107 109 0
123 131 0
123 118 0
140 147 0
127 120 0
152 161 0
166 175 0
138 149 0
137 141 0
139 136 0
156 165 0
120 127 0
152 164 0
132 132 0
153 160 0
152 160 0
124 120 0
154 165 0
120 116 0
140 152 0
161 167 0
147 149 0
160 174 0
121 131 0
158 166 0
133 131 0
146 164 0
145 157 0
149 160 0
151 155 0
160 173 0
125 129 0
160 170 0
143 152 0
158 172 0
157 168 0
158 173 0
138 144 0
156 170 0
158 168 0
146 154 0
140 155 0
137 138 0
166 176 0
159 170 0
171 185 0
146 158 0
163 179 0
164 179 0
180 198 0
158 172 0
153 162 0
161 172 0
163 176 0
178 191 0
157 168 0
181 206 148
161 183 89
185 207 123
178 201 0
169 193 0
165 189 123
163 185 89
173 197 123
157 175 89
179 199 0
169 193 0
160 184 89
185 207 123
141 161 0
160 181 0
175 196 89
155 176 123
174 195 89
176 198 89
169 189 0
154 175 0
182 204 89
175 196 0
182 203 0
163 184 0
177 201 0
166 185 0
164 186 89
171 192 0
175 195 123
149 167 89
169 192 0
185 206 89
178 201 168
163 184 0
167 187 0
184 207 123
172 193 0
156 178 89
176 196 0
182 205 89
185 207 123
185 205 0
182 203 0
184 205 89
163 186 89
144 166 158
88 115 123
86 109 65
90 116 148
82 105 123
87 112 148
153 176 202
109 129 148
63 97 108
89 118 148
90 118 178
81 110 148
62 94 136
84 105 123
91 122 168
125 145 178
107 130 178
60 92 148
91 118 178
114 142 186
118 139 123
66 99 168
92 118 168
118 139 148
55 85 148
117 138 178
102 124 129
110 134 168
123 145 168
63 96 158
88 121 168
113 139 136
88 109 148
107 134 158
45 69 108
100 126 148
114 137 186
94 121 168
70 107 178
73 110 186
72 109 186
96 123 186
72 108 178
70 107 168
63 96 148
119 144 195
117 139 186
96 123 178
118 141 186
73 109 178
68 105 168
71 108 186
97 123 168
69 105 173
64 97 158
73 110 186
67 102 168
67 103 168
72 109 178
71 108 178
56 85 136
68 104 168
70 105 178
66 102 158
70 106 158
60 91 136
66 102 168
61 94 148
64 99 148
62 95 148
64 98 158
66 101 158
63 97 158
65 100 148
72 108 168
68 104 148
72 108 168
66 99 123
68 104 148
64 97 158
65 99 115
63 97 158
72 108 158
63 95 136
63 97 153
68 104 178
68 103 168
69 103 158
65 99 136
61 95 136
69 104 163
66 101 158
67 102 148
64 97 108
65 100 108
70 106 158
64 96 148
68 104 136
65 101 136
69 105 158
74 110 178
62 95 148
67 103 136
69 105 158
72 108 158
68 105 158
69 106 158
67 103 148
67 103 173
70 104 158
71 108 168
70 105 148
67 103 136
67 101 148
67 103 148
67 102 148
66 100 168
66 100 136
70 107 168
69 104 158
71 107 168
69 104 173
69 106 158
71 107 168
70 106 158
74 110 168
63 96 136
71 107 158
68 104 148
71 107 158
70 106 158
67 103 163
67 102 168
71 108 178
68 104 148
70 106 158
69 105 158
73 109 178
60 90 148
70 105 148
68 103 158
68 104 136
67 101 123
69 104 136
68 104 136
71 107 158
66 101 148
69 104 136
73 109 168
69 105 148
69 105 158
71 107 168
69 104 168
66 102 158
72 108 168
67 102 123
70 106 148
70 105 148
69 105 168
64 98 108
70 105 148
68 104 136
71 106 148
67 103 136
72 107 158
71 107 148
66 102 136
68 103 136
61 95 148
68 104 148
72 108 168
67 101 123
68 103 158
71 107 158
67 103 123
70 105 148
73 109 168
70 106 148
66 101 123
66 102 136
69 105 148
66 100 123
67 102 123
68 104 158
70 105 136
67 102 148
66 102 123
71 106 148
67 102 148
66 101 158
69 105 158
71 107 158
65 100 136
66 101 148
70 105 148
66 101 89
68 105 158
68 104 136
64 98 123
73 109 168
71 106 148
68 103 123
69 105 148
72 107 158
68 103 158
69 104 136
69 104 136
70 106 158
69 105 148
71 106 148
64 96 136
70 105 136
71 106 148
68 103 136
67 101 136
69 105 148
70 105 158
64 97 89
62 95 123
66 100 136
58 89 93
111 118 0
70 80 0
70 82 0
136 153 0
104 117 0
125 130 0
134 152 0
145 159 0
127 139 0
110 123 0
106 114 0
128 139 0
95 103 0
94 103 0
105 110 0
130 137 0
158 176 0
132 144 0
140 152 0
132 137 0
107 108 0
142 150 0
110 121 0
109 124 0
123 122 0
101 104 0
151 161 0
144 153 0
102 108 0
116 119 0
128 139 0
130 144 0
132 144 0
67 66 0
164 176 0
122 134 0
119 127 0
107 114 0
128 133 0
106 106 0
99 113 0
111 109 0
106 116 0
138 150 0
151 155 0
89 84 0
123 130 0
126 132 0
120 135 0
161 168 0
141 151 0
112 112 0
124 137 0
129 139 0
110 119 0
110 108 0
121 136 0
146 154 0
146 148 0
103 107 0
126 129 0
110 104 0
129 138 0
148 148 0
157 170 0
117 117 0
138 147 0
122 133 0
116 123 0
128 131 0
140 149 0
86 89 0
114 124 0
134 142 0
87 87 0
115 130 0
157 157 0
149 162 0
144 148 0
132 140 0
156 164 0
79 84 0
119 124 0
126 124 0
118 115 0
143 148 0
116 122 0
131 131 0
144 154 0
149 162 0
148 155 0
131 137 0
151 166 0
119 126 0
116 118 0
161 168 0
143 148 0
113 113 0
152 163 0
135 139 0
156 162 0
166 178 0
160 169 0
171 184 0
150 161 0
154 166 0
157 162 0
145 155 0
134 144 0
145 158 0
152 155 0
139 143 0
129 130 0
154 161 0
168 184 0
165 172 0
164 179 0
153 169 0
147 154 0
164 173 0
138 143 0
152 171 0
175 190 0
154 165 0
159 173 0
165 174 0
145 157 0
148 161 0
140 150 0
162 166 0
149 148 0
168 182 0
160 174 0
168 188 123
169 193 0
161 182 0
174 195 89
161 184 89
167 189 123
181 204 89
173 195 0
171 195 89
179 203 89
182 203 0
183 204 0
173 193 123
162 187 89
150 172 0
169 193 89
171 192 0
176 200 0
166 186 89
182 205 89
174 198 123
157 173 89
173 195 89
179 204 123
170 193 0
158 176 0
182 203 123
166 190 123
170 193 89
175 199 123
182 207 148
180 203 89
172 193 0
176 198 123
155 176 123
187 208 123
163 184 89
169 187 89
184 208 148
163 184 0
178 199 123
172 194 89
154 176 0
176 197 89
185 207 123
154 177 89
163 179 0
124 148 158
139 163 195
84 108 123
84 106 129
66 101 148
124 145 158
95 125 178
87 116 158
85 116 148
120 144 168
58 89 136
102 122 136
90 122 168
99 127 136
121 144 168
56 86 148
85 104 136
139 162 186
89 115 158
127 151 186
93 122 178
84 105 123
128 150 178
99 128 186
57 85 123
123 145 178
89 113 158
88 120 168
98 117 136
111 136 178
131 151 123
107 131 168
116 137 178
78 105 136
107 133 168
83 112 158
51 78 136
91 115 168
116 140 195
118 144 202
69 107 186
69 107 186
98 127 186
100 130 195
98 127 186
70 107 168
69 106 168
74 111 186
119 141 178
67 102 158
67 102 158
89 115 152
71 108 186
71 108 178
69 105 158
73 110 186
71 108 186
69 105 178
70 107 168
68 103 168
72 109 186
68 104 168
62 95 148
71 107 158
68 104 148
66 100 136
56 85 129
87 119 136
96 121 108
69 104 178
70 106 158
64 98 136
64 97 158
91 120 136
72 109 186
65 100 142
57 88 115
64 97 148
61 94 136
71 108 178
66 101 123
67 101 136
69 105 158
69 105 148
65 100 136
68 103 158
52 82 99
72 108 168
68 104 158
63 96 142
65 99 158
70 106 158
67 101 148
69 105 148
69 105 158
65 103 158
66 102 136
62 97 123
72 107 148
65 99 123
72 108 168
68 103 168
71 108 178
68 102 136
67 104 158
68 102 158
63 97 148
68 103 168
69 105 148
72 108 168
70 105 148
71 108 178
69 105 158
67 101 148
64 98 136
64 99 123
71 107 168
68 104 148
70 107 168
74 111 186
67 103 136
68 103 158
70 105 136
66 102 136
71 107 158
70 105 158
68 105 168
70 107 168
69 106 168
69 105 178
71 108 178
70 107 168
66 102 168
70 106 158
69 106 168
68 104 148
71 108 168
69 104 136
71 106 148
73 109 178
75 111 178
68 104 148
71 107 168
69 105 148
65 98 123
69 104 136
68 103 136
73 110 178
68 104 148
63 96 108
66 101 148
71 108 168
71 107 168
71 107 168
66 100 136
69 106 168
71 107 168
64 98 123
68 104 148
67 101 136
70 106 158
73 109 178
71 107 158
69 104 148
68 103 158
72 109 178
70 106 148
71 105 148
71 106 148
71 106 148
69 105 148
66 102 123
66 102 123
70 106 158
66 102 136
71 107 158
69 106 168
65 100 148
72 108 168
71 107 158
69 105 148
68 104 148
71 106 148
69 103 158
69 104 136
69 104 136
69 105 136
71 107 158
67 102 148
69 104 136
70 106 168
66 99 123
72 108 168
66 100 136
70 105 148
69 105 158
70 105 136
71 106 158
63 97 108
71 107 158
68 101 136
68 103 136
64 97 93
71 105 148
69 106 158
69 104 168
72 107 158
72 106 136
69 105 148
73 109 178
69 103 148
68 103 123
66 100 136
62 92 111
70 106 158
69 104 136
64 97 136
71 107 158
63 95 136
115 128 108
141 155 0
119 128 0
110 120 0
120 131 0
69 80 0
170 183 0
125 134 0
69 83 0
127 140 0
107 111 0
137 151 0
146 157 0
127 140 0
136 152 0
128 138 0
117 126 0
72 90 0
105 111 0
123 143 0
123 142 0
97 106 0
150 158 0
103 108 0
128 131 0
132 140 0
125 135 0
133 143 0
128 134 0
108 117 0
145 158 0
149 162 0
105 114 0
128 141 0
125 129 0
136 146 0
139 148 0
108 114 0
116 124 0
106 120 0
129 136 0
81 93 0
136 147 0
138 145 0
80 87 0
140 154 0
142 153 0
143 150 0
136 146 0
107 110 0
153 164 0
107 107 0
108 115 0
147 156 0
105 108 0
144 145 0
89 93 0
93 102 0
123 127 0
118 124 0
124 120 0
145 153 0
132 134 0
133 135 0
120 121 0
133 141 0
125 128 0
149 155 0
126 124 0
140 146 0
118 113 0
133 140 0
117 130 0
135 140 0
127 138 0
125 132 0
138 139 0
148 153 0
150 150 0
134 138 0
139 143 0
126 131 0
128 134 0
155 162 0
134 137 0
133 140 0
156 170 0
121 126 0
154 165 0
160 168 0
170 179 0
110 112 0
123 125 0
166 172 0
132 140 0
163 176 0
154 165 0
126 127 0
150 160 0
163 181 0
150 165 0
135 149 0
152 162 0
139 148 0
146 154 0
167 177 0
150 148 0
166 176 0
166 178 0
157 167 0
150 158 0
162 170 0
149 159 0
155 158 0
137 144 0
145 160 0
145 148 0
176 190 0
161 166 0
140 141 0
157 167 0
172 187 0
157 171 0
175 188 0
161 171 0
157 166 0
128 140 0
177 197 0
148 162 0
156 168 0
167 183 0
177 197 0
149 155 0
166 181 0
173 193 0
174 198 123
184 206 123
164 183 0
170 192 0
161 182 89
161 182 0
169 192 89
187 207 89
169 192 0
164 185 89
180 202 0
171 194 89
167 187 123
161 180 89
167 187 0
173 194 0
157 182 148
183 205 89
155 175 0
181 205 123
171 193 0
145 164 89
176 196 0
172 196 89
171 192 0
181 204 89
161 178 0
173 195 0
163 185 89
175 196 0
177 201 168
166 186 89
173 194 0
180 204 89
170 193 123
172 193 0
164 185 89
150 170 0
174 194 0
163 184 0
164 185 89
169 192 148
174 194 0
145 166 89
166 187 89
164 187 89
141 161 0
143 164 186
90 119 158
93 121 168
68 103 158
80 100 108
104 125 158
110 134 178
119 145 168
55 83 123
62 95 136
65 98 158
85 115 148
88 112 148
102 128 136
92 121 178
80 107 129
87 112 136
88 118 168
105 120 148
87 112 158
106 128 158
92 119 178
78 98 108
51 78 123
100 127 148
88 112 148
118 133 123
111 133 168
128 153 186
131 154 202
113 136 123
106 132 173
125 144 168
92 119 178
66 99 153
56 86 148
47 72 123
92 118 178
93 118 168
118 144 202
71 108 178
70 107 178
118 144 202
97 124 186
70 107 178
99 128 186
68 103 168
120 144 186
96 123 178
121 145 195
117 136 168
88 116 172
67 102 158
66 104 158
66 100 168
69 104 178
70 105 178
73 110 186
70 106 158
66 102 168
67 102 158
66 101 148
68 103 168
81 111 148
68 104 173
70 108 186
72 108 178
73 110 186
63 97 158
66 101 158
67 102 136
68 104 178
68 104 158
67 104 158
73 109 178
66 102 171
60 93 136
66 103 148
60 93 158
67 102 158
70 106 168
64 97 136
68 103 158
72 106 168
66 101 158
72 109 186
69 106 158
70 104 168
70 106 168
70 105 136
71 107 158
67 101 148
71 107 158
68 103 136
70 105 148
67 103 148
70 106 158
64 96 136
64 99 136
60 93 108
67 103 136
70 105 148
69 103 158
67 102 153
68 103 158
56 87 123
66 101 142
65 100 148
70 106 158
75 111 178
67 102 123
73 109 168
69 106 178
69 105 148
72 109 178
70 106 168
71 108 178
69 105 158
70 106 168
72 107 158
71 107 158
69 105 158
67 103 136
72 109 178
72 109 178
64 99 148
73 109 178
67 101 136
68 105 158
70 106 158
69 106 158
72 107 158
70 106 158
66 102 123
67 104 148
71 107 158
68 104 136
68 102 158
65 99 136
68 104 148
69 105 158
70 105 148
64 99 136
71 106 148
70 107 168
68 104 148
67 103 136
72 108 168
69 104 148
67 102 148
69 104 136
71 106 148
70 106 168
68 104 148
68 103 136
64 98 148
71 107 158
69 106 158
68 104 136
74 109 168
69 105 148
69 105 148
71 106 148
71 107 158
71 107 148
71 106 148
70 106 158
70 106 148
70 105 148
70 106 148
69 105 158
66 101 148
69 104 136
68 105 158
68 103 158
72 109 178
71 107 158
69 105 158
66 100 123
68 103 168
72 108 168
74 109 158
68 102 148
68 104 136
68 104 136
71 106 148
73 109 168
70 106 158
70 106 158
69 105 148
70 106 158
65 100 89
66 101 108
69 105 148
63 99 108
71 107 168
69 102 148
65 99 123
68 104 148
73 110 178
72 108 168
69 104 123
68 102 136
69 105 148
68 103 136
64 99 123
66 99 108
66 100 148
68 103 136
66 101 136
63 96 123
61 92 108
70 103 136
65 99 108
70 106 158
64 98 108
65 97 108
67 102 108
130 135 0
100 109 0
111 118 0
152 162 0
118 129 0
142 157 0
123 128 0
120 131 0
122 138 0
134 147 0
107 114 0
141 150 0
100 112 0
147 160 0
72 88 0
110 120 0
80 80 0
107 111 0
117 130 0
78 84 0
134 138 0
110 113 0
115 127 0
150 157 0
134 148 0
153 164 0
139 147 0
135 146 0
122 129 0
111 126 0
134 144 0
132 140 0
128 133 0
133 137 0
141 155 0
132 133 0
118 128 0
138 142 0
119 136 0
120 136 0
75 84 0
117 126 0
137 146 0
137 151 0
103 111 0
135 145 0
129 144 0
113 118 0
141 143 0
124 137 0
106 114 0
143 148 0
138 145 0
132 142 0
106 118 0
124 131 0
114 118 0
108 109 0
137 141 0
143 157 0
110 109 0
132 133 0
116 117 0
145 154 0
111 115 0
135 140 0
126 123 0
156 162 0
137 139 0
119 112 0
113 109 0
149 154 0
111 117 0
141 153 0
121 123 0
144 155 0
142 152 0
159 166 0
171 182 0
131 130 0
120 129 0
122 124 0
105 103 0
118 121 0
155 168 0
130 139 0
152 155 0
151 153 0
117 122 0
145 151 0
124 139 0
109 110 0
128 135 0
132 141 0
157 168 0
152 154 0
149 156 0
172 185 0
114 117 0
159 173 0
130 144 0
142 157 0
157 172 0
156 167 0
165 167 0
141 152 0
123 137 0
157 168 0
153 165 0
163 178 0
156 163 0
154 165 0
160 171 0
116 133 0
147 157 0
151 163 0
174 192 0
150 163 0
160 173 0
167 176 0
136 153 0
147 153 0
178 196 0
142 146 0
171 175 0
170 187 0
158 171 0
169 181 0
163 178 0
141 151 0
168 170 0
154 165 0
155 165 0
157 171 0
184 206 89
158 176 89
168 191 0
187 209 148
165 187 89
176 198 89
133 151 0
165 187 0
161 179 0
173 196 89
168 191 0
156 178 89
178 202 89
179 203 89
165 185 89
182 203 0
176 199 123
168 192 89
159 180 89
171 194 0
173 198 148
162 183 0
167 192 0
180 202 0
183 206 123
183 205 89
177 202 89
171 194 0
173 192 89
173 196 89
174 194 0
168 187 89
164 185 0
168 191 148
182 205 123
181 204 89
166 187 89
170 183 0
172 194 89
177 201 0
174 195 123
178 197 89
161 185 0
160 180 123
180 201 123
159 179 89
182 203 0
175 198 123
101 121 136
90 117 168
120 143 158
106 130 168
111 135 186
103 125 136
83 110 123
93 122 178
61 92 148
87 112 123
88 115 148
83 104 123
111 138 168
57 89 148
87 109 148
64 97 148
87 117 148
93 119 168
59 92 123
130 151 136
64 97 158
93 112 108
78 105 123
78 94 108
64 98 168
88 108 148
107 131 168
144 164 195
116 141 195
120 146 202
74 96 123
129 149 136
60 91 148
55 86 153
57 87 148
95 112 89
66 99 168
58 87 148
82 98 123
63 97 158
69 104 178
71 108 186
70 107 168
96 124 186
72 109 186
118 143 186
68 104 178
99 127 186
66 101 158
72 109 186
97 123 168
70 107 178
83 109 141
60 93 123
70 107 178
69 105 158
65 100 158
64 97 158
59 89 123
65 98 158
64 97 148
66 99 168
65 98 163
69 104 178
68 102 158
67 101 148
66 101 158
62 94 158
67 102 158
64 99 148
72 109 186
63 96 108
67 102 168
68 103 158
68 103 136
64 99 129
65 99 136
64 97 136
66 101 123
61 94 129
66 100 148
66 98 136
67 103 136
66 100 129
67 103 136
66 101 108
66 99 123
65 100 136
68 104 148
60 94 129
65 100 158
72 108 168
76 112 186
71 107 148
63 97 115
70 106 148
64 99 148
70 106 158
59 90 136
71 107 168
62 96 123
59 90 136
69 104 148
67 102 158
65 99 136
68 104 148
70 107 178
71 108 178
68 105 158
62 95 136
73 109 178
71 107 168
70 106 158
71 107 158
63 95 123
67 101 136
62 94 123
66 101 158
64 96 136
66 100 136
71 106 158
71 108 178
67 102 123
68 103 168
69 105 148
70 106 168
64 97 108
72 108 168
69 104 168
74 110 178
68 104 148
67 101 148
69 104 158
69 104 148
71 107 158
71 107 168
67 101 148
67 102 158
70 107 168
74 110 178
70 106 158
70 106 158
72 108 168
65 100 136
72 108 168
71 107 158
71 107 168
71 107 168
65 100 148
73 110 186
72 108 158
70 106 158
69 105 148
67 103 136
67 101 148
69 105 136
69 105 158
67 101 148
71 106 148
68 104 136
72 107 158
73 109 168
67 103 136
70 106 148
72 108 168
69 104 136
70 107 168
67 103 123
66 100 136
69 104 136
69 105 148
72 108 168
70 105 148
70 106 158
68 104 136
68 104 148
72 108 168
62 97 108
67 103 123
71 107 168
67 102 148
69 105 148
74 110 186
68 104 148
69 105 148
68 104 148
68 103 136
68 103 123
66 101 123
74 110 178
68 102 148
69 103 158
69 105 158
72 108 168
66 99 108
71 106 136
66 100 136
71 107 158
68 103 123
67 102 123
72 108 158
69 104 136
69 105 148
69 105 148
70 106 148
72 108 168
70 105 123
68 103 123
66 101 136
66 101 108
71 106 148
68 102 136
67 99 125
67 103 123
72 106 148
64 98 123
69 104 136
92 114 89
96 112 0
74 86 0
108 127 0
116 122 0
138 156 0
98 109 0
129 139 0
139 152 0
102 108 0
87 77 0
123 136 0
90 98 0
143 157 0
144 156 0
108 111 0
114 121 0
101 115 0
135 142 0
75 78 0
121 134 0
136 146 0
128 142 0
113 132 0
129 142 0
150 160 0
134 143 0
145 157 0
119 122 0
118 114 0
113 115 0
127 134 0
128 139 0
129 128 0
139 146 0
119 129 0
152 168 0
139 151 0
107 114 0
139 154 0
111 116 0
100 103 0
121 133 0
88 98 0
117 127 0
134 146 0
94 94 0
137 145 0
109 120 0
128 125 0
77 78 0
86 102 0
122 119 0
134 136 0
124 122 0
140 151 0
121 129 0
127 135 0
142 150 0
152 154 0
105 104 0
104 111 0
148 160 0
152 163 0
152 157 0
146 148 0
176 183 0
136 150 0
113 119 0
99 98 0
133 145 0
136 147 0
153 163 0
164 180 0
156 168 0
111 115 0
162 172 0
140 145 0
155 167 0
144 153 0
151 163 0
153 165 0
141 146 0
133 139 0
158 168 0
137 151 0
149 153 0
147 159 0
153 164 0
142 141 0
156 169 0
165 173 0
144 147 0
134 137 0
148 147 0
152 167 0
134 142 0
149 163 0
160 166 0
113 110 0
169 181 0
157 170 0
123 134 0
170 184 0
153 168 0
139 142 0
154 163 0
152 159 0
149 158 0
144 150 0
158 169 0
163 175 0
145 152 0
135 146 0
150 168 0
148 152 0
162 174 0
121 129 0
160 175 0
155 166 0
169 185 0
157 168 0
159 167 0
170 178 0
163 173 0
134 139 0
170 182 0
135 144 0
160 164 0
159 169 0
146 160 0
170 184 0
144 159 0
156 172 0
143 155 0
157 178 0
182 203 0
164 184 0
153 172 0
151 167 89
162 187 89
174 198 148
180 202 0
185 206 89
173 196 123
168 189 123
184 204 0
171 192 0
172 193 0
172 193 0
172 194 0
174 196 89
172 190 89
166 186 0
147 165 0
182 207 148
184 204 0
174 196 89
176 197 0
163 185 89
181 204 89
179 199 0
165 185 0
151 173 0
177 197 0
160 183 0
171 195 89
179 203 89
157 175 0
177 202 89
164 184 0
171 195 89
183 208 148
152 173 0
163 184 0
175 197 0
186 206 0
172 194 89
162 184 0
177 198 123
168 191 0
156 174 0
178 200 0
144 167 136
91 117 148
55 84 65
56 87 123
90 117 158
103 125 148
82 112 148
58 88 123
60 91 136
50 77 123
101 122 108
120 142 158
84 112 148
103 127 136
89 117 158
65 100 168
92 118 168
90 114 168
92 119 178
100 120 123
93 121 168
59 91 148
91 118 158
104 127 163
123 143 163
85 104 136
103 125 148
64 98 158
105 120 136
85 110 148
84 104 136
116 140 195
109 125 158
125 147 178
89 119 168
92 118 168
92 117 168
58 87 136
101 118 136
111 129 168
72 109 186
69 106 178
70 107 178
99 128 195
69 106 168
70 106 168
71 108 168
99 127 186
72 108 178
70 107 178
68 106 178
66 100 148
68 106 178
71 108 178
67 101 136
72 108 178
69 105 148
73 109 178
69 106 168
66 100 168
68 103 158
69 103 158
67 102 158
70 106 168
57 88 123
67 102 158
66 98 158
69 103 158
69 105 148
67 104 148
69 104 178
71 108 178
63 99 148
83 112 158
67 103 136
64 97 148
74 111 186
66 100 148
61 93 108
67 104 158
64 99 148
63 97 153
68 102 158
70 105 158
67 102 123
63 95 148
68 102 148
70 106 158
69 105 148
70 106 158
67 101 136
67 103 136
71 107 168
73 110 186
67 103 136
72 108 168
68 102 148
70 106 158
72 109 178
62 95 136
65 101 158
70 107 168
65 101 123
68 102 158
69 104 136
65 100 142
73 109 168
70 107 168
70 105 148
69 106 158
69 105 148
72 109 178
66 102 158
70 104 158
69 105 158
68 104 148
68 104 136
71 107 158
73 109 168
68 104 136
69 105 148
70 107 168
70 105 136
69 103 158
65 99 148
64 98 136
67 101 136
70 105 148
69 105 148
65 97 148
73 107 168
69 105 148
69 106 168
70 105 136
69 105 148
69 104 136
70 105 148
67 103 136
71 108 168
71 108 168
67 102 123
68 103 123
70 105 148
66 101 148
68 102 148
69 105 148
68 103 158
67 103 136
72 107 158
69 105 148
67 102 108
68 105 158
67 103 148
71 108 178
71 107 168
69 104 136
73 109 168
72 109 178
71 107 158
70 106 158
71 108 168
68 103 136
66 103 148
68 102 136
68 103 148
70 106 168
71 108 168
65 99 136
63 97 123
71 108 168
70 105 148
68 103 123
68 104 148
70 104 123
65 100 148
67 103 136
63 97 108
65 99 123
67 102 123
72 107 158
70 103 148
68 104 148
71 107 168
68 103 123
66 100 123
70 106 148
66 102 123
66 101 148
71 106 148
69 105 148
64 98 123
70 106 158
72 109 178
66 100 136
70 106 158
66 100 89
63 96 148
69 106 158
69 104 123
68 101 123
69 104 123
68 103 123
68 103 136
68 102 125
70 106 148
66 101 136
69 104 123
66 101 148
70 104 123
70 105 136
62 94 123
69 104 123
64 98 123
65 98 89
68 101 150
67 102 136
105 133 136
71 74 0
144 159 0
127 137 0
153 158 0
125 134 0
102 107 0
112 123 0
142 156 0
136 152 0
141 155 0
74 91 0
138 149 0
142 153 0
134 144 0
117 129 0
139 149 0
145 153 0
149 158 0
97 106 0
133 146 0
136 150 0
109 119 0
107 120 0
125 139 0
139 148 0
121 132 0
113 128 0
138 146 0
143 158 0
117 124 0
110 114 0
111 120 0
137 149 0
142 146 0
125 139 0
107 111 0
120 121 0
130 143 0
146 151 0
126 139 0
134 142 0
123 134 0
152 167 0
147 154 0
150 158 0
120 119 0
120 121 0
113 120 0
90 103 0
146 153 0
145 149 0
116 122 0
104 110 0
124 139 0
98 101 0
99 104 0
114 108 0
107 105 0
139 142 0
136 149 0
130 133 0
131 143 0
80 89 0
130 143 0
149 151 0
130 137 0
158 166 0
145 152 0
123 136 0
124 134 0
121 128 0
149 162 0
124 127 0
111 113 0
136 144 0
147 158 0
149 155 0
134 137 0
148 157 0
158 171 0
156 168 0
160 171 0
142 150 0
106 106 0
160 172 0
139 144 0
154 166 0
124 132 0
109 110 0
131 144 0
140 147 0
132 138 0
162 176 0
150 163 0
163 174 0
160 171 0
131 138 0
151 157 0
171 186 0
161 172 0
153 155 0
173 189 0
166 181 0
139 153 0
168 184 0
181 193 0
144 150 0
148 159 0
163 176 0
160 168 0
153 170 0
176 187 0
135 142 0
157 163 0
154 161 0
153 169 0
168 184 0
121 126 0
152 165 0
165 175 0
160 177 0
166 175 0
172 190 0
164 169 0
136 140 0
167 182 0
170 185 0
155 160 0
158 166 0
169 181 0
170 185 0
177 187 0
157 166 0
157 170 0
178 194 0
173 193 0
173 195 89
185 206 89
180 205 123
167 188 89
180 198 89
172 196 89
169 193 0
171 196 123
185 208 148
176 195 0
171 193 89
172 194 89
157 179 0
169 191 0
174 194 0
156 176 89
177 199 123
178 198 123
184 204 0
168 188 0
172 193 0
162 180 0
178 196 0
173 197 123
180 202 0
176 198 123
184 205 89
166 187 0
146 165 0
175 196 0
170 192 123
179 200 123
160 181 0
179 198 89
166 186 0
176 199 123
177 198 89
177 198 89
147 165 0
136 153 0
180 202 0
174 196 0
182 203 0
166 185 0
173 197 123
163 187 89
170 189 89
167 192 0
96 120 123
89 115 148
110 136 168
87 113 168
87 112 158
87 111 148
138 162 186
68 102 158
118 139 148
123 146 178
127 152 195
116 139 168
107 129 158
88 113 158
131 154 136
77 102 136
56 85 136
107 126 136
107 127 158
125 144 89
59 88 148
90 111 99
35 55 99
72 90 89
45 71 129
85 104 148
49 76 123
126 144 158
124 146 178
85 108 148
101 119 142
105 127 148
141 161 191
150 169 178
80 108 148
51 78 136
87 111 142
59 90 136
63 97 168
92 115 168
98 128 195
96 124 186
70 107 168
100 129 195
100 129 195
63 97 158
117 140 186
69 105 178
67 103 178
66 101 158
99 127 178
70 107 168
77 105 152
69 105 178
66 101 148
65 99 136
63 95 136
69 105 158
71 108 178
68 105 168
71 107 158
69 106 168
70 106 158
62 95 148
69 104 168
66 98 158
64 98 123
58 89 136
67 100 168
73 110 186
64 97 158
55 85 89
91 119 158
64 98 129
71 107 158
72 109 178
69 106 178
69 104 168
66 100 129
70 106 168
70 105 136
69 105 136
65 99 136
69 105 158
68 102 148
63 98 158
68 105 158
67 101 148
67 104 168
71 107 182
65 99 148
71 107 158
69 104 136
70 106 148
68 103 136
69 106 158
70 106 168
62 95 89
67 102 158
68 104 136
68 101 136
69 105 158
63 97 153
72 107 158
72 109 178
71 107 168
64 99 136
72 109 178
71 107 158
68 104 148
71 107 158
70 105 148
71 107 168
69 104 123
70 105 136
67 103 148
69 105 148
63 97 123
69 104 178
69 105 148
69 105 148
71 107 168
70 105 148
70 107 178
68 104 148
71 107 168
70 106 158
68 105 158
73 109 168
64 97 108
71 107 168
64 97 158
67 102 123
67 103 136
64 99 148
71 108 168
70 106 148
72 108 158
65 99 136
73 110 178
67 102 148
69 105 136
65 100 108
68 102 136
71 107 158
64 98 136
67 103 136
70 105 148
72 107 158
67 101 148
68 101 168
68 103 123
73 109 178
65 100 148
71 107 158
71 107 168
67 103 136
71 106 148
70 105 148
70 106 158
72 108 168
68 103 136
68 105 158
68 103 123
67 103 136
71 107 158
68 103 158
68 104 148
68 103 123
70 105 136
66 101 148
71 107 158
71 106 148
68 104 136
67 102 108
69 106 158
67 103 136
69 106 158
66 103 148
69 103 148
66 101 148
69 104 158
66 101 108
68 103 123
64 99 136
70 105 148
67 101 136
70 106 158
67 102 123
70 105 148
74 110 168
69 103 123
70 106 158
65 100 108
71 106 148
68 102 158
68 103 123
67 100 136
70 106 158
70 106 148
72 108 168
66 100 108
67 101 136
63 97 108
70 106 148
64 97 108
67 103 136
61 93 89
62 97 123
66 101 148
66 100 148
71 107 158
67 100 123
65 99 123
64 96 108
97 117 89
157 175 0
138 143 0
108 119 0
123 140 0
113 127 0
113 120 0
103 108 0
111 125 0
129 139 0
75 92 0
119 127 0
83 96 0
116 126 0
116 130 0
129 146 0
120 125 0
131 144 0
153 165 0
108 121 0
99 113 0
126 131 0
98 104 0
101 111 0
100 111 0
125 139 0
135 148 0
134 146 0
154 166 0
126 141 0
76 86 0
111 125 0
138 143 0
141 153 0
151 168 0
83 95 0
124 129 0
129 139 0
128 137 0
152 163 0
130 137 0
117 125 0
82 90 0
157 165 0
102 110 0
126 132 0
145 152 0
152 172 0
133 146 0
131 143 0
120 132 0
133 137 0
99 112 0
147 163 0
139 140 0
129 130 0
108 114 0
129 138 0
137 147 0
154 165 0
145 148 0
145 157 0
105 114 0
123 120 0
109 116 0
153 165 0
161 168 0
140 143 0
122 131 0
152 157 0
160 174 0
157 166 0
130 138 0
146 156 0
145 149 0
144 147 0
136 148 0
151 155 0
142 148 0
135 140 0
149 163 0
108 124 0
138 149 0
127 133 0
138 143 0
167 167 0
134 143 0
146 160 0
132 138 0
140 142 0
154 165 0
103 103 0
142 146 0
157 169 0
133 139 0
159 171 0
158 166 0
138 139 0
143 147 0
144 154 0
155 168 0
145 153 0
156 163 0
167 184 0
156 173 0
143 153 0
127 131 0
154 167 0
149 155 0
166 182 0
130 143 0
151 166 0
154 169 0
166 181 0
166 181 0
162 175 0
143 147 0
148 159 0
166 182 0
145 160 0
178 198 0
166 176 0
167 181 0
156 168 0
144 159 0
166 179 0
169 181 0
168 177 0
153 160 0
140 152 0
162 176 0
153 160 0
146 154 0
151 169 0
157 167 0
149 164 0
180 204 89
179 203 89
161 182 0
175 200 148
163 183 0
152 176 89
166 185 0
172 195 0
185 206 89
181 204 89
161 183 89
155 175 89
143 164 0
168 191 0
169 191 0
173 195 89
175 194 0
180 203 89
171 192 0
177 197 89
181 203 0
180 202 0
155 179 89
182 204 89
164 188 123
177 200 123
162 185 0
178 202 89
180 205 123
183 204 0
176 200 0
163 185 0
147 168 0
181 203 0
175 197 89
180 202 0
164 185 89
136 153 0
157 177 89
179 201 0
151 167 0
175 195 123
162 185 0
179 202 0
168 192 89
163 189 123
178 201 0
174 194 0
157 179 89
148 169 0
126 153 195
106 131 136
91 118 168
54 82 108
81 106 108
90 116 148
114 139 168
85 110 136
66 99 158
105 129 148
55 84 136
72 108 168
60 92 158
83 112 158
116 140 148
100 117 123
54 82 108
60 90 136
113 135 178
108 127 158
122 142 158
98 118 123
93 118 158
59 91 158
62 93 148
80 107 148
78 94 108
79 106 136
109 130 168
93 122 186
114 140 178
133 158 168
99 128 148
126 144 168
59 91 148
65 98 168
67 100 168
79 106 136
104 126 158
44 69 108
69 104 178
72 109 178
67 102 158
97 125 186
98 127 186
98 126 178
99 128 195
70 107 168
67 102 168
69 106 168
71 108 178
66 100 148
103 127 160
70 107 168
65 97 148
71 108 168
66 101 168
74 110 178
65 98 158
68 105 168
66 102 168
69 106 158
62 94 136
69 106 158
66 101 148
65 98 158
57 88 148
66 100 148
84 115 148
81 112 123
54 83 136
69 103 158
59 91 108
66 101 148
65 100 153
71 107 168
71 107 168
65 100 129
70 105 136
71 106 148
69 105 148
66 101 148
68 103 158
68 102 136
69 106 158
70 105 173
67 103 136
67 103 136
72 108 168
67 101 158
75 110 178
70 105 163
71 108 168
71 107 158
66 103 148
68 104 178
70 105 178
68 102 148
70 105 148
68 101 136
73 109 168
66 100 148
69 103 148
67 103 136
71 106 148
64 98 123
70 106 148
72 109 186
67 103 136
72 108 168
71 107 168
68 102 158
72 109 178
69 104 136
71 107 168
70 107 168
71 107 168
71 107 158
69 106 168
70 106 158
71 108 178
67 103 136
67 102 148
69 105 158
68 104 148
68 104 148
72 108 168
69 104 168
71 107 158
71 107 158
70 105 168
72 108 168
66 100 148
68 104 148
69 105 148
67 104 148
67 104 148
67 102 108
67 102 123
69 105 148
68 102 148
72 108 158
68 104 136
69 105 158
68 103 158
67 103 123
68 103 123
68 104 148
68 103 123
66 101 148
73 110 178
71 107 158
71 107 158
71 107 158
72 108 158
69 106 168
69 103 168
68 102 148
68 103 158
70 105 148
68 102 148
68 102 148
68 102 148
62 94 108
64 98 123
68 104 136
70 106 158
66 101 108
67 102 148
68 104 148
68 103 136
67 103 148
65 99 123
65 101 108
68 102 136
71 107 158
66 102 123
69 105 148
70 106 158
71 107 168
70 106 148
69 105 148
69 104 136
65 98 108
70 106 158
66 100 108
72 107 148
67 103 136
71 107 158
70 105 168
61 95 89
71 106 136
69 105 148
70 105 136
72 108 158
70 106 148
67 103 123
64 99 123
71 106 148
67 103 123
59 91 123
62 95 123
68 103 136
68 103 148
65 101 108
68 104 136
61 94 123
65 97 108
66 101 148
63 94 136
67 101 136
56 85 108
65 100 89
78 93 0
119 128 0
88 94 0
138 155 0
105 115 0
119 136 0
116 129 0
158 171 0
141 155 0
118 128 0
130 136 0
94 106 0
103 111 0
102 105 0
101 110 0
121 128 0
125 130 0
105 109 0
141 156 0
98 99 0
116 129 0
112 127 0
110 125 0
113 123 0
92 106 0
148 158 0
104 121 0
121 136 0
111 128 0
128 143 0
115 126 0
75 91 0
159 178 0
115 120 0
132 134 0
96 108 0
127 134 0
128 138 0
109 112 0
107 114 0
130 145 0
143 150 0
146 164 0
83 89 0
98 107 0
167 173 0
101 116 0
128 133 0
159 175 0
135 138 0
161 178 0
155 168 0
135 148 0
149 162 0
80 86 0
146 156 0
157 170 0
152 162 0
113 120 0
140 152 0
127 133 0
138 150 0
165 173 0
122 139 0
139 146 0
119 131 0
107 116 0
128 137 0
128 131 0
122 122 0
117 122 0
121 122 0
142 153 0
137 144 0
122 128 0
112 111 0
154 162 0
156 168 0
137 146 0
154 153 0
103 103 0
121 132 0
121 134 0
149 164 0
136 132 0
131 142 0
134 139 0
133 133 0
165 169 0
153 167 0
160 168 0
154 171 0
130 140 0
155 162 0
157 172 0
148 157 0
164 169 0
166 179 0
167 182 0
128 136 0
159 161 0
146 150 0
156 164 0
151 164 0
143 154 0
155 174 0
147 160 0
167 178 0
144 149 0
160 175 0
155 169 0
156 162 0
173 183 0
149 163 0
172 179 0
127 133 0
163 175 0
151 152 0
145 158 0
146 157 0
174 193 0
159 170 0
156 166 0
143 152 0
179 195 0
159 164 0
158 175 0
148 160 0
163 175 0
180 196 0
133 141 0
172 190 0
164 182 0
155 166 0
168 185 0
158 173 0
172 191 0
184 204 0
169 193 89
167 190 123
159 181 0
188 207 89
171 193 0
163 184 0
182 204 89
154 174 89
183 205 89
173 197 123
171 190 89
183 204 0
172 196 123
183 205 89
187 208 123
175 196 89
174 194 0
183 204 0
181 203 0
163 183 0
170 193 89
169 191 0
164 186 89
184 208 148
178 196 0
153 174 0
184 208 148
175 201 168
168 188 89
184 207 123
173 193 0
175 196 0
179 199 89
187 206 0
182 206 123
180 203 89
172 194 0
174 197 89
162 182 148
175 196 89
182 203 0
140 164 0
173 193 0
181 201 89
168 187 0
147 164 0
176 199 123
146 167 89
187 208 123
115 139 108
80 101 123
81 105 108
83 107 123
58 89 108
85 113 108
103 125 148
105 127 108
87 111 148
103 121 148
105 125 148
127 151 186
104 127 136
84 107 136
58 86 136
89 113 158
51 76 123
93 122 158
52 78 123
72 108 178
113 135 186
99 128 148
91 115 168
64 97 158
47 71 108
100 121 148
50 79 142
110 138 178
82 104 123
93 117 158
117 139 178
102 119 136
94 120 178
123 146 158
91 115 123
47 71 108
97 124 168
80 104 136
92 117 158
78 103 136
145 162 195
71 108 178
71 108 178
64 98 168
72 108 178
98 126 168
70 106 158
71 108 186
73 109 178
99 128 195
99 127 178
87 110 128
69 105 178
80 114 172
67 101 148
71 107 168
69 105 158
67 102 168
66 101 158
70 107 168
67 101 148
74 110 178
59 91 108
69 103 168
67 102 158
65 98 158
68 102 148
61 95 136
58 89 136
72 107 148
60 91 148
69 105 158
83 111 142
66 98 136
66 100 148
70 105 136
62 96 142
71 106 148
63 97 153
69 104 136
67 102 123
70 106 158
72 107 158
65 100 148
61 94 142
67 103 158
64 99 136
64 98 108
66 102 123
64 98 115
72 107 148
65 98 158
67 103 136
67 104 148
69 107 178
61 93 123
71 108 178
71 107 158
71 106 148
62 96 99
71 107 158
64 96 148
73 109 168
67 102 158
66 103 148
69 104 168
67 102 168
68 105 168
70 106 148
69 104 168
66 101 168
72 109 178
70 106 148
70 106 158
68 105 158
67 103 136
71 107 168
68 104 158
66 99 136
69 104 136
68 105 158
74 110 178
69 103 158
70 105 136
71 106 136
69 105 148
69 103 123
67 102 123
70 105 168
67 103 148
67 99 148
67 101 123
70 106 158
64 97 136
71 107 158
70 106 158
70 105 136
72 108 178
74 109 178
68 103 123
69 105 148
72 107 148
69 106 168
75 111 186
71 107 168
68 103 136
72 108 168
69 102 136
70 106 158
69 103 148
67 103 136
71 107 158
68 104 136
72 109 178
69 106 168
70 105 148
73 108 158
67 103 148
69 104 136
69 105 158
71 107 168
74 109 178
71 105 168
73 109 178
69 104 136
69 105 148
72 108 168
71 106 168
67 102 123
65 99 123
69 105 148
72 107 158
67 103 136
71 106 148
71 105 158
69 104 148
71 106 136
73 109 168
70 106 158
71 106 148
66 100 136
70 106 148
71 106 148
67 102 148
63 97 148
65 98 123
65 100 108
71 106 148
63 98 123
67 102 148
66 102 136
69 104 136
70 106 148
71 107 158
63 96 89
64 98 148
68 103 148
70 105 136
68 103 148
69 106 158
69 106 158
71 106 148
65 98 108
71 106 148
68 101 123
64 98 108
64 98 136
68 104 136
70 106 158
63 97 125
72 106 158
64 98 123
62 95 108
113 130 65
121 131 0
138 154 0
140 147 0
132 145 0
134 146 0
153 161 0
143 154 0
148 152 0
116 132 0
157 174 0
127 141 0
118 125 0
119 132 0
134 152 0
116 123 0
91 103 0
100 106 0
159 166 0
120 132 0
105 118 0
75 89 0
136 149 0
147 163 0
149 165 0
140 146 0
155 158 0
116 125 0
146 152 0
129 136 0
142 153 0
123 131 0
114 122 0
149 156 0
113 124 0
118 123 0
133 145 0
94 104 0
171 191 0
135 152 0
127 141 0
139 153 0
122 130 0
122 123 0
149 155 0
152 164 0
98 114 0
155 167 0
143 143 0
134 151 0
120 133 0
129 142 0
134 150 0
121 126 0
115 124 0
115 125 0
81 82 0
120 129 0
117 123 0
107 118 0
129 143 0
155 165 0
145 158 0
122 128 0
82 90 0
128 138 0
106 117 0
141 155 0
148 161 0
150 160 0
146 156 0
119 124 0
131 141 0
151 161 0
108 108 0
129 136 0
129 140 0
162 167 0
126 140 0
147 160 0
142 156 0
133 149 0
131 136 0
134 142 0
117 119 0
113 126 0
150 161 0
151 168 0
149 159 0
164 176 0
125 127 0
162 171 0
148 161 0
144 153 0
166 177 0
132 130 0
120 129 0
146 152 0
178 190 0
142 147 0
166 179 0
101 101 0
160 174 0
165 175 0
162 172 0
141 151 0
142 154 0
136 146 0
156 170 0
157 163 0
137 145 0
148 155 0
141 147 0
168 174 0
169 184 0
145 154 0
160 172 0
149 164 0
156 168 0
143 153 0
180 202 0
163 176 0
151 164 0
163 179 0
163 176 0
120 121 0
158 175 0
163 169 0
164 178 0
157 164 0
114 121 0
165 180 0
173 187 0
180 198 0
163 179 0
160 171 0
141 160 0
180 205 123
182 204 89
161 182 0
154 177 89
181 201 89
165 186 0
183 204 0
174 195 0
169 193 0
171 192 0
167 189 0
183 205 89
166 186 89
172 195 89
154 176 0
165 186 0
155 176 123
152 173 89
178 201 123
146 167 89
164 186 89
164 186 123
174 196 0
183 206 123
161 183 0
187 207 89
165 187 89
162 182 0
177 201 0
152 176 89
171 194 0
180 202 0
180 204 89
173 195 89
170 192 0
176 197 0
155 174 0
172 194 0
170 192 0
178 199 89
152 174 0
183 204 0
168 190 123
164 185 89
174 197 89
170 194 89
164 185 0
184 207 123
169 190 89
145 168 89
158 179 89
107 131 136
59 91 148
109 132 158
122 143 123
128 150 168
109 132 158
104 126 136
80 102 108
81 109 123
110 134 168
88 115 148
94 117 158
77 102 65
59 90 148
85 111 148
79 106 136
121 135 158
103 126 148
119 136 148
93 121 168
103 128 148
120 140 148
102 122 123
89 114 168
94 120 178
89 118 158
56 86 148
112 135 178
129 152 148
92 115 108
90 110 158
90 111 163
132 153 186
85 113 148
111 136 168
86 106 142
126 147 178
62 95 148
83 112 158
86 105 148
89 110 148
70 107 168
98 127 195
71 107 168
71 106 158
68 106 178
99 128 195
71 107 158
72 108 178
69 106 158
64 96 136
70 106 158
69 103 158
70 106 158
66 101 168
71 107 168
71 108 168
61 92 136
69 105 158
71 107 168
64 97 148
65 100 148
64 100 158
68 103 158
63 98 136
54 82 108
65 100 158
69 105 148
66 100 136
68 104 148
83 111 136
63 94 123
69 104 178
60 91 136
68 102 158
64 96 123
60 91 142
68 104 148
69 104 136
66 100 136
67 102 158
69 103 158
65 100 136
63 97 108
68 103 168
62 96 153
65 99 136
65 101 123
70 107 178
66 101 148
68 104 136
63 94 123
69 105 158
69 103 148
75 111 186
65 99 123
70 105 148
65 101 136
72 108 158
71 106 168
68 104 148
67 103 136
66 102 123
69 105 158
66 103 148
68 104 148
65 100 148
70 106 158
64 99 136
67 101 148
70 106 148
70 106 158
68 103 158
70 106 158
72 107 158
70 106 158
68 104 148
67 102 153
71 107 158
69 105 148
65 99 108
69 105 148
66 101 158
70 105 158
67 102 158
66 101 148
67 101 148
71 106 148
65 98 148
74 109 168
69 105 148
67 103 136
62 95 136
67 102 158
65 100 108
71 107 158
67 102 123
67 103 136
67 100 123
68 104 148
67 100 168
61 94 123
71 107 158
68 103 123
71 107 168
72 108 158
72 108 168
68 104 148
70 107 168
70 106 158
68 104 148
70 106 148
73 109 178
67 102 158
70 106 168
73 109 178
67 102 123
65 98 148
68 103 136
70 105 158
66 101 148
69 105 148
68 103 136
68 104 136
69 104 168
66 101 108
67 103 136
71 107 158
75 110 168
67 102 148
67 101 136
68 103 158
71 107 158
68 103 148
70 105 158
74 109 158
69 105 148
67 101 123
70 105 168
71 106 148
70 106 148
70 105 136
70 106 158
69 105 148
67 102 108
66 100 123
70 106 148
68 104 136
66 100 148
69 103 148
72 107 148
69 103 138
71 107 158
60 93 108
70 106 148
70 104 136
66 102 123
69 104 136
62 95 136
69 104 136
64 97 136
65 100 111
66 99 148
72 107 148
67 99 125
73 109 168
71 105 136
68 102 148
66 99 108
65 100 136
66 100 89
56 82 111
156 170 0
104 117 0
129 142 0
128 142 0
123 136 0
75 91 0
131 135 0
130 142 0
155 163 0
139 155 0
155 173 0
98 114 0
131 147 0
133 144 0
114 128 0
155 163 0
133 145 0
152 158 0
109 123 0
72 78 0
75 86 0
115 130 0
130 144 0
104 109 0
126 131 0
105 118 0
106 118 0
130 142 0
89 105 0
129 138 0
134 141 0
96 111 0
147 161 0
130 145 0
80 89 0
126 139 0
123 132 0
118 128 0
149 163 0
132 143 0
98 103 0
134 144 0
127 127 0
133 138 0
106 113 0
144 154 0
107 114 0
131 147 0
113 120 0
116 115 0
130 133 0
141 157 0
112 124 0
159 170 0
155 163 0
129 139 0
120 131 0
121 127 0
134 137 0
101 107 0
127 133 0
122 132 0
95 99 0
136 141 0
127 143 0
119 130 0
152 161 0
91 95 0
141 147 0
146 154 0
143 145 0
125 135 0
103 113 0
153 158 0
92 88 0
136 142 0
166 178 0
150 155 0
153 164 0
130 134 0
117 123 0
154 162 0
143 147 0
117 130 0
127 137 0
146 154 0
119 125 0
107 107 0
122 138 0
150 163 0
134 151 0
148 151 0
108 119 0
154 165 0
135 151 0
145 153 0
156 170 0
146 155 0
152 161 0
116 116 0
143 149 0
143 154 0
155 170 0
158 165 0
160 170 0
153 168 0
162 167 0
141 157 0
155 168 0
157 167 0
169 184 0
155 159 0
149 165 0
150 159 0
159 171 0
179 198 0
152 159 0
166 183 0
141 151 0
159 174 0
165 171 0
161 175 0
139 154 0
141 155 0
170 187 0
165 177 0
150 162 0
151 167 0
151 154 0
140 149 0
159 178 0
137 137 0
156 170 0
164 178 0
165 184 0
173 187 0
166 187 0
160 183 0
154 176 89
179 202 0
181 208 168
153 177 89
174 196 0
179 204 123
172 193 0
144 163 89
180 205 123
182 203 0
154 174 0
165 188 89
164 186 0
155 173 89
167 189 123
166 187 89
160 184 123
162 187 123
158 182 0
173 195 89
157 180 0
157 180 123
172 195 89
181 205 123
184 208 148
154 174 0
167 187 0
150 166 0
161 185 89
162 183 89
176 195 0
166 186 0
159 182 0
166 187 89
181 203 0
173 194 0
179 202 0
173 197 123
148 170 89
169 192 0
167 191 123
169 190 0
166 187 0
180 202 0
186 206 89
163 181 89
171 194 0
165 187 123
178 200 123
148 169 0
131 155 123
98 124 136
104 126 136
91 120 158
105 128 158
90 117 158
106 128 158
90 119 158
57 87 108
86 108 148
87 111 136
86 108 148
64 96 136
110 136 168
87 111 136
53 80 136
95 117 168
76 97 123
94 123 186
81 108 148
46 71 123
102 122 148
128 147 178
114 134 136
74 97 123
87 117 158
76 89 89
80 101 108
95 120 168
90 120 148
115 139 148
107 131 158
118 141 158
74 96 123
82 110 136
115 137 123
61 93 158
94 120 178
53 80 136
64 97 168
91 114 168
67 102 168
118 143 186
68 103 168
68 104 148
96 123 178
99 128 195
71 108 178
70 106 168
98 125 148
123 146 195
72 108 168
70 107 168
90 113 152
82 115 162
72 109 178
59 90 136
68 105 168
64 96 136
68 104 148
67 103 136
61 93 123
63 97 158
64 97 158
61 93 148
67 102 158
66 100 136
87 114 148
70 106 158
66 100 136
70 106 158
65 99 136
61 91 136
57 86 123
89 121 168
61 95 148
64 97 123
71 106 148
70 104 168
66 101 148
65 99 136
65 98 148
72 108 168
70 106 148
67 104 148
68 103 158
69 106 168
68 102 136
65 99 136
69 104 168
69 105 148
66 100 136
63 97 108
70 106 158
70 106 148
67 100 136
60 90 123
67 101 148
62 95 148
70 106 168
58 91 115
72 109 178
70 106 148
65 98 108
71 107 158
68 104 148
69 104 136
71 107 168
69 105 148
69 105 148
68 103 136
64 97 108
66 101 142
70 105 148
70 106 158
68 104 158
67 104 148
70 106 148
67 101 136
69 106 158
67 103 136
69 105 158
71 105 136
69 106 158
70 106 168
70 105 148
70 105 148
66 101 123
69 106 158
68 103 136
63 97 108
68 103 123
70 106 158
70 107 168
72 108 168
69 104 136
68 103 158
71 106 148
70 105 158
68 101 168
69 105 158
69 106 168
65 99 108
70 105 148
62 93 89
66 100 148
70 105 158
70 107 168
64 97 148
69 106 158
69 105 148
70 106 158
71 107 158
66 101 108
69 103 158
67 103 136
69 105 148
68 103 158
70 106 158
70 105 148
71 106 148
67 102 158
69 104 123
69 104 123
65 99 123
73 108 148
66 101 89
68 103 136
71 107 168
69 105 136
69 105 148
71 106 148
70 104 158
68 103 123
68 102 148
65 99 89
69 103 136
66 100 123
65 98 148
66 102 158
67 102 158
65 100 136
74 110 168
70 104 148
66 100 136
66 101 108
68 102 148
65 99 123
68 104 136
62 96 89
70 105 136
69 105 148
72 107 158
71 107 158
70 105 136
72 106 136
71 106 158
66 100 89
74 109 158
67 102 168
69 104 136
67 101 123
58 87 123
65 98 123
69 105 148
61 92 111
65 99 136
66 99 148
67 101 136
59 91 91
71 106 148
114 130 0
135 147 0
111 127 0
134 146 0
158 176 0
108 122 0
134 150 0
135 150 0
97 109 0
127 132 0
159 178 0
112 117 0
117 124 0
122 130 0
135 149 0
152 166 0
118 130 0
109 120 0
145 155 0
137 152 0
105 120 0
118 132 0
99 96 0
101 114 0
148 158 0
144 155 0
116 124 0
160 175 0
116 124 0
149 165 0
157 164 0
144 159 0
151 160 0
151 166 0
122 134 0
138 152 0
148 160 0
147 158 0
104 115 0
139 147 0
125 138 0
137 144 0
98 110 0
122 135 0
135 149 0
173 190 0
142 145 0
132 137 0
122 133 0
125 140 0
100 100 0
109 114 0
128 139 0
124 140 0
132 146 0
135 150 0
148 158 0
133 139 0
137 145 0
142 147 0
124 128 0
151 159 0
129 141 0
127 140 0
120 132 0
136 149 0
123 132 0
102 108 0
147 156 0
133 138 0
138 147 0
142 149 0
141 153 0
143 154 0
145 157 0
149 164 0
139 152 0
139 143 0
122 126 0
136 149 0
136 144 0
146 156 0
146 157 0
144 147 0
144 153 0
137 141 0
157 160 0
132 141 0
113 116 0
136 149 0
130 144 0
159 166 0
126 135 0
147 152 0
141 147 0
165 175 0
141 147 0
155 169 0
160 173 0
130 135 0
106 108 0
153 162 0
142 149 0
149 157 0
160 175 0
168 177 0
153 162 0
179 197 0
157 172 0
164 173 0
148 158 0
146 156 0
152 168 0
125 139 0
152 165 0
137 149 0
162 179 0
141 152 0
145 152 0
141 154 0
173 187 0
152 164 0
164 178 0
146 160 0
146 154 0
173 188 0
159 172 0
146 157 0
167 181 0
161 178 0
168 177 0
155 166 0
167 181 0
152 167 0
161 176 0
161 177 0
174 189 0
166 186 0
181 203 0
178 201 0
178 201 0
166 188 89
184 205 89
171 192 0
162 183 0
175 198 123
153 173 0
181 201 89
160 179 0
157 178 89
169 193 89
155 175 89
162 187 89
162 183 0
178 202 89
176 195 0
185 208 148
180 201 0
177 198 0
181 203 0
164 185 89
172 194 89
174 195 0
169 192 89
170 193 0
162 182 89
173 194 0
175 197 89
176 199 148
172 195 89
174 195 0
176 201 168
185 207 123
142 162 123
168 188 89
166 186 89
165 184 0
183 205 89
158 179 89
167 189 89
166 187 0
171 194 89
170 193 0
179 200 123
166 185 0
175 195 0
159 181 0
180 202 0
179 197 0
161 180 89
57 87 89
121 144 168
111 136 168
86 112 158
113 135 136
85 108 148
111 137 186
55 85 136
52 79 123
87 109 108
53 79 123
89 113 148
86 110 148
109 134 186
108 129 148
59 90 148
113 132 168
91 117 158
60 93 136
81 100 123
96 127 195
62 95 148
112 133 178
128 150 195
49 77 136
94 122 168
96 121 136
108 125 158
116 141 195
90 116 178
65 97 158
103 130 158
105 126 148
127 147 168
129 149 136
91 115 148
100 125 136
83 111 148
81 107 136
60 92 158
88 109 153
91 115 168
94 120 158
71 108 168
98 126 178
100 129 195
71 107 158
115 134 178
70 108 186
99 127 178
72 108 178
66 100 168
71 106 158
67 104 148
69 105 158
69 103 168
71 108 168
70 107 168
66 102 123
66 100 148
67 102 148
64 99 148
60 94 136
71 107 168
61 94 136
65 98 158
62 94 136
65 100 148
69 105 158
119 144 136
64 97 148
61 91 136
65 99 136
69 104 148
65 98 108
63 96 142
64 96 136
56 86 99
66 100 136
65 101 153
68 102 158
69 104 158
66 102 163
68 103 136
68 102 158
66 100 148
71 106 148
74 110 178
70 108 186
69 106 158
67 103 148
70 105 148
69 106 158
71 107 158
69 105 148
70 105 136
70 106 158
67 101 136
68 104 148
65 99 123
72 108 168
65 99 136
65 99 108
71 106 148
70 105 148
65 99 136
72 107 158
65 97 148
65 99 123
63 95 123
68 104 136
67 102 148
67 104 158
70 105 136
68 103 136
68 102 158
71 108 178
64 99 148
68 105 158
71 108 178
69 105 148
62 97 148
66 102 123
67 103 136
70 106 148
74 109 168
70 107 168
65 100 108
70 105 148
69 105 148
70 107 178
61 92 108
68 103 158
69 104 136
73 109 178
71 108 178
71 107 158
67 102 123
72 108 168
71 107 158
67 103 168
70 106 158
64 97 108
69 105 148
68 103 123
67 100 168
73 109 178
65 99 123
72 108 168
71 108 168
69 105 136
71 107 168
69 105 158
69 105 148
67 103 136
65 100 136
69 105 148
69 104 136
69 104 158
69 104 136
70 105 136
66 102 136
69 105 148
70 106 148
67 102 148
71 107 148
69 104 136
71 108 168
71 107 168
68 104 136
71 106 136
71 107 148
71 107 158
71 107 168
71 106 148
66 101 136
67 102 108
62 96 136
69 104 123
71 107 158
69 104 158
71 106 148
67 103 136
69 104 136
65 100 89
65 98 148
67 99 136
69 105 148
67 101 136
70 105 136
66 100 148
71 106 136
63 97 89
66 100 123
68 102 148
70 105 148
61 94 108
61 93 123
57 89 108
68 103 158
65 99 136
68 102 136
70 105 136
63 97 89
66 98 123
65 97 136
60 92 123
65 99 123
66 99 123
109 124 89
168 184 0
96 105 0
146 154 0
160 170 0
97 113 0
130 137 0
118 124 0
114 128 0
96 108 0
164 180 0
138 154 0
159 171 0
121 140 0
128 136 0
73 83 0
121 132 0
109 123 0
141 156 0
103 107 0
152 166 0
101 116 0
121 139 0
79 92 0
102 115 0
112 123 0
147 160 0
123 139 0
113 121 0
134 144 0
134 143 0
100 107 0
138 153 0
132 145 0
132 144 0
157 174 0
123 132 0
138 147 0
130 140 0
143 160 0
131 143 0
130 140 0
134 138 0
156 166 0
136 148 0
145 156 0
142 156 0
131 141 0
125 132 0
161 177 0
139 145 0
140 151 0
155 165 0
95 103 0
121 135 0
145 158 0
127 126 0
138 154 0
76 88 0
126 133 0
134 148 0
126 135 0
157 169 0
129 142 0
125 133 0
148 150 0
121 133 0
136 143 0
130 135 0
147 154 0
137 132 0
141 158 0
111 114 0
144 149 0
134 144 0
128 133 0
156 174 0
147 160 0
150 157 0
140 156 0
153 159 0
148 165 0
84 96 0
151 167 0
160 172 0
126 130 0
148 161 0
129 143 0
125 131 0
101 105 0
110 122 0
162 180 0
145 155 0
150 161 0
147 156 0
135 144 0
150 154 0
127 140 0
150 159 0
154 167 0
138 141 0
142 152 0
150 165 0
131 136 0
162 178 0
126 133 0
162 173 0
167 183 0
158 169 0
165 175 0
165 173 0
150 160 0
156 165 0
174 186 0
158 173 0
119 127 0
146 162 0
147 161 0
142 151 0
164 177 0
166 179 0
178 193 0
170 189 0
154 169 0
158 166 0
168 182 0
136 148 0
174 188 0
147 163 0
170 181 0
164 179 0
153 159 0
163 179 0
171 186 0
164 181 0
163 178 0
175 190 0
137 150 0
153 172 0
171 194 0
177 201 0
159 176 0
174 198 123
182 203 0
147 164 0
169 193 89
169 190 89
178 205 148
181 204 89
173 195 89
175 196 89
168 192 123
179 204 123
175 195 0
177 200 168
180 202 0
166 188 0
155 174 0
175 195 0
167 192 0
171 194 89
178 200 123
168 190 0
169 194 168
160 183 89
143 164 0
175 198 123
181 205 123
159 184 89
178 200 123
173 195 148
173 196 89
166 187 0
162 185 89
166 188 0
163 185 0
144 166 89
182 205 89
173 194 123
166 186 0
181 204 89
170 188 89
162 185 0
163 183 0
174 196 89
176 197 89
130 146 0
164 186 89
186 210 168
180 201 123
159 180 89
101 127 108
103 121 148
121 144 158
107 129 158
108 133 168
109 132 158
61 94 123
93 121 168
107 130 136
55 84 136
120 141 168
87 110 136
82 105 136
60 90 136
108 131 148
118 144 158
48 75 108
72 92 108
108 130 168
84 104 136
122 145 178
57 86 136
86 109 158
106 129 158
106 121 136
76 98 123
58 88 153
88 106 136
83 101 136
92 119 178
120 139 158
56 86 148
62 94 163
83 108 136
94 117 129
100 120 108
88 117 136
56 85 136
49 73 123
91 115 168
65 98 168
47 72 123
96 123 178
99 128 186
71 108 186
65 100 148
64 96 136
71 108 178
97 122 148
97 125 178
119 141 186
58 88 129
80 109 152
64 97 148
63 94 148
66 99 123
60 91 148
91 121 148
67 102 158
91 119 158
66 101 158
64 96 136
70 104 168
65 99 136
69 106 168
55 85 148
62 95 136
61 94 136
66 100 148
62 95 136
102 131 136
68 104 148
71 107 158
59 90 65
89 116 123
71 107 158
65 100 158
63 98 123
64 98 115
60 93 136
64 97 158
70 106 158
62 95 123
57 87 108
65 99 123
65 99 129
59 90 136
63 98 153
67 103 136
68 103 136
73 109 178
62 95 136
65 98 153
67 101 148
71 107 158
67 102 148
64 99 129
71 108 168
66 101 158
71 108 178
67 102 108
69 103 148
72 109 178
70 106 158
72 108 168
69 104 163
68 102 136
63 96 136
71 107 158
70 107 178
72 108 168
73 109 168
67 101 148
70 105 136
67 102 158
68 103 123
67 102 148
68 102 108
69 105 158
68 104 148
65 99 123
68 104 148
68 102 158
65 97 136
69 104 136
69 105 148
70 105 168
76 112 186
71 107 168
72 108 158
70 106 158
69 104 136
64 97 148
67 102 148
70 105 148
66 101 108
71 107 168
71 106 148
67 101 136
67 100 158
68 104 148
66 101 108
67 103 168
73 109 178
67 103 136
70 104 123
70 106 148
68 105 158
70 106 158
70 107 168
69 103 148
64 97 108
69 105 158
72 108 158
66 101 148
70 104 158
68 103 136
70 105 136
68 103 123
68 103 136
71 107 158
68 104 136
70 106 158
68 103 123
69 106 158
66 100 136
68 104 136
64 97 108
70 106 158
67 102 123
68 103 123
71 106 148
70 105 148
68 104 136
69 105 148
68 104 148
68 102 148
74 109 158
66 100 136
64 97 136
72 108 168
62 95 136
69 103 148
71 107 158
70 105 148
64 98 123
72 107 158
65 99 123
70 106 158
66 100 158
66 100 150
68 103 136
70 105 148
71 107 158
68 101 123
62 95 108
68 102 136
68 102 136
67 101 136
65 98 108
66 100 123
68 103 108
62 93 123
64 94 93
68 101 123
61 95 65
69 105 148
68 102 148
70 87 65
135 151 0
101 113 0
158 171 0
97 101 0
142 157 0
115 131 0
113 118 0
77 79 0
89 105 0
129 130 0
133 150 0
146 163 0
126 139 0
118 135 0
118 137 0
124 138 0
155 171 0
112 125 0
149 166 0
116 133 0
131 148 0
136 149 0
136 154 0
122 134 0
154 171 0
134 141 0
147 160 0
136 148 0
141 157 0
125 139 0
73 72 0
132 144 0
162 174 0
128 143 0
111 123 0
146 159 0
137 146 0
147 159 0
143 159 0
146 152 0
120 130 0
133 145 0
130 140 0
143 156 0
144 154 0
126 138 0
136 148 0
123 127 0
134 144 0
139 155 0
114 129 0
133 145 0
126 134 0
166 178 0
130 135 0
153 164 0
113 120 0
121 126 0
131 137 0
148 148 0
128 133 0
162 178 0
147 150 0
126 140 0
145 147 0
137 148 0
131 132 0
124 129 0
160 172 0
155 169 0
153 168 0
100 109 0
151 156 0
155 165 0
128 144 0
137 144 0
140 153 0
143 153 0
154 168 0
125 131 0
148 156 0
157 171 0
133 145 0
153 159 0
149 158 0
156 168 0
159 170 0
131 147 0
113 122 0
124 136 0
162 171 0
150 167 0
158 167 0
139 141 0
135 134 0
138 147 0
119 131 0
148 157 0
167 176 0
141 155 0
154 169 0
146 151 0
156 163 0
168 182 0
156 171 0
119 117 0
152 164 0
172 183 0
144 153 0
157 163 0
138 147 0
148 161 0
107 110 0
163 175 0
142 148 0
147 151 0
155 166 0
145 151 0
127 131 0
160 174 0
157 165 0
147 157 0
147 163 0
169 178 0
142 151 0
166 180 0
143 158 0
160 172 0
156 174 0
173 187 0
163 183 0
154 166 0
156 162 0
161 178 0
141 158 0
157 170 0
171 189 0
158 170 0
170 192 0
169 190 123
161 184 0
163 182 0
177 201 0
175 197 89
184 206 123
179 202 0
183 205 89
181 204 89
177 197 0
170 195 89
155 174 89
178 201 0
175 195 0
169 191 89
177 199 123
176 196 89
178 198 89
159 181 89
153 177 0
163 187 123
182 204 89
171 193 123
165 189 123
143 166 89
142 165 0
144 168 123
181 203 0
173 196 89
183 205 89
173 195 0
172 195 89
174 197 89
183 205 89
174 199 148
159 179 89
176 197 89
172 194 89
182 205 89
169 194 89
176 200 0
166 191 123
169 192 0
155 176 89
174 195 89
172 193 89
168 187 0
157 172 0
153 174 0
154 174 0
181 201 89
183 205 186
151 171 0
69 102 148
115 139 148
104 129 158
82 103 148
97 116 108
130 154 178
108 132 158
76 92 89
61 91 136
100 123 136
127 148 186
49 76 108
92 119 178
78 104 142
87 113 136
56 87 123
87 115 158
78 105 123
61 95 148
51 77 123
64 98 123
120 141 158
103 126 158
85 103 136
84 106 136
85 110 148
100 118 136
62 96 158
110 133 148
102 115 123
115 139 186
71 109 186
89 117 148
53 80 136
106 127 148
114 139 108
115 138 191
118 140 136
79 103 136
106 125 148
93 115 158
115 136 158
115 138 168
97 126 178
66 102 178
71 108 178
69 106 168
98 126 178
72 109 186
100 129 195
67 102 158
89 114 172
99 122 156
70 107 178
71 108 178
69 107 186
71 107 148
70 106 158
63 97 123
66 100 168
69 105 158
67 105 168
63 94 158
68 104 136
64 97 148
63 96 148
62 96 108
70 106 158
68 103 136
61 92 136
68 101 136
62 95 123
67 100 168
60 92 108
66 100 136
60 93 123
59 92 108
55 86 108
68 103 158
68 103 123
66 101 136
72 107 158
59 89 108
65 99 158
72 108 168
67 103 136
69 106 168
66 102 136
67 103 136
61 93 136
67 104 158
67 103 168
70 106 158
67 100 123
70 105 148
65 99 123
72 108 168
69 106 158
69 104 168
65 100 108
64 99 142
70 107 168
66 102 136
66 102 136
70 106 158
72 107 158
69 104 158
69 104 136
64 98 136
70 107 168
68 102 148
67 102 158
57 88 123
68 103 123
67 103 158
70 106 148
68 104 148
70 107 168
70 105 136
70 107 168
67 103 123
67 103 136
71 108 178
70 105 148
65 100 158
68 104 148
67 102 123
67 101 136
67 101 148
71 105 168
72 108 168
72 108 168
70 105 136
67 102 123
71 105 168
69 104 136
71 107 158
68 104 148
71 106 148
68 104 136
69 104 136
64 98 123
70 106 158
70 105 148
64 98 136
64 99 136
66 102 148
69 106 158
68 104 136
66 99 148
70 107 168
66 101 123
68 102 136
64 97 108
68 104 136
68 103 123
66 101 89
71 106 148
70 106 158
67 102 158
70 106 158
71 107 168
69 105 158
69 103 123
67 102 123
66 101 108
67 101 136
65 98 148
69 105 136
66 102 123
59 91 123
64 97 108
69 104 136
70 106 148
70 106 158
67 102 123
70 106 148
67 101 136
66 101 136
68 103 123
68 102 148
63 97 123
67 99 136
62 94 108
68 103 158
71 107 168
64 98 108
67 102 123
68 103 123
69 105 148
68 104 136
68 103 123
65 99 136
68 102 136
72 107 158
62 94 89
62 96 108
69 105 158
73 108 158
63 95 123
65 98 136
63 98 136
68 102 123
67 102 158
62 95 93
61 94 108
81 106 125
132 150 0
120 130 0
116 129 0
131 151 0
121 130 0
116 133 0
111 122 0
143 160 0
128 144 0
120 134 0
106 121 0
143 152 0
112 129 0
93 109 0
141 156 0
134 152 0
121 134 0
135 145 0
143 156 0
110 115 0
102 117 0
151 167 0
137 151 0
131 139 0
157 172 0
160 174 0
135 148 0
105 113 0
124 133 0
149 167 0
127 137 0
167 181 0
140 157 0
158 173 0
90 103 0
139 156 0
147 157 0
142 153 0
91 103 0
115 126 0
134 144 0
150 170 0
127 133 0
111 121 0
122 130 0
164 181 0
127 141 0
106 113 0
139 146 0
137 145 0
134 145 0
152 166 0
123 130 0
138 154 0
163 184 0
155 168 0
137 151 0
153 163 0
143 158 0
111 108 0
116 132 0
156 171 0
153 169 0
126 135 0
138 151 0
141 153 0
152 164 0
144 148 0
138 154 0
152 164 0
134 148 0
149 156 0
159 173 0
138 143 0
107 113 0
145 147 0
156 170 0
111 120 0
116 117 0
140 152 0
121 130 0
158 173 0
144 147 0
145 159 0
126 137 0
165 178 0
149 158 0
158 178 0
163 176 0
150 155 0
153 162 0
170 185 0
125 129 0
150 159 0
167 182 0
138 154 0
127 136 0
138 154 0
154 175 0
154 164 0
134 141 0
154 173 0
150 157 0
145 155 0
148 153 0
157 172 0
153 164 0
156 170 0
159 163 0
150 157 0
159 170 0
152 160 0
153 156 0
152 161 0
130 148 0
163 181 0
164 175 0
173 189 0
153 171 0
177 190 0
152 165 0
163 172 0
143 157 0
152 162 0
164 184 0
158 179 0
182 194 0
141 153 0
141 157 0
169 193 0
163 176 0
157 170 0
162 171 0
146 147 0
166 181 0
166 185 0
176 188 0
180 202 0
170 189 0
179 196 0
185 205 0
173 195 89
167 189 89
178 203 89
158 177 0
148 169 89
175 198 123
166 187 89
171 197 123
172 196 89
176 197 89
158 178 0
170 193 89
173 195 89
171 193 0
162 183 0
170 193 89
171 193 0
175 197 89
167 192 123
177 198 89
139 162 0
185 206 89
168 188 89
173 196 123
183 206 123
182 203 0
153 175 0
163 186 0
148 170 123
182 203 0
168 189 89
141 158 0
174 197 89
168 193 89
142 162 0
166 186 0
169 189 89
168 186 0
187 208 123
161 184 89
183 209 168
161 184 0
161 183 0
158 179 89
159 180 89
179 203 89
163 186 0
173 193 0
150 171 89
171 195 123
171 191 89
176 197 89
130 155 123
93 124 158
103 125 89
56 84 123
102 124 123
53 83 115
87 111 123
104 130 136
109 134 168
96 125 186
85 109 123
64 98 158
55 83 123
121 143 158
111 136 178
54 84 123
103 126 136
109 131 178
104 126 123
114 137 186
63 96 148
111 132 178
83 111 148
97 121 136
124 145 158
109 131 148
109 132 168
55 85 148
102 122 136
79 105 123
97 119 89
147 168 210
92 115 168
80 103 129
68 101 168
89 119 168
44 68 89
100 126 148
94 121 158
64 97 158
75 97 123
110 125 158
115 137 186
99 128 195
118 141 186
95 121 168
68 102 158
98 125 186
74 110 186
71 108 178
95 119 158
64 98 136
81 109 141
69 105 178
70 106 158
82 105 141
64 97 148
68 103 168
66 101 158
73 110 186
70 106 158
63 98 136
58 89 123
72 108 158
69 106 168
61 93 123
61 93 108
61 94 136
63 96 136
87 115 158
69 105 148
70 107 168
69 106 168
68 103 123
68 103 158
65 100 148
67 103 136
68 103 136
68 104 148
68 103 123
68 105 168
70 106 168
69 104 136
62 95 136
63 95 123
70 107 168
71 107 158
71 107 158
70 107 168
65 100 158
67 102 153
66 102 136
70 107 168
63 95 136
66 102 123
65 100 148
67 102 158
67 102 158
71 106 148
66 102 123
72 107 158
65 99 136
68 102 148
64 99 136
69 104 123
62 97 123
67 102 123
69 105 148
64 98 142
73 109 168
65 99 158
68 105 158
69 105 148
69 105 136
66 100 148
66 100 148
68 103 158
71 108 168
61 93 89
68 104 136
70 106 158
67 101 148
68 102 148
71 107 158
70 106 148
66 100 89
71 107 158
70 106 158
70 106 148
61 95 65
65 100 136
71 108 168
63 96 136
74 110 178
71 107 158
72 108 168
71 106 158
70 106 158
64 96 136
71 107 168
66 99 123
63 97 108
68 103 136
68 104 136
68 103 136
67 102 158
70 106 158
66 101 148
69 105 158
70 105 148
70 106 158
71 107 168
64 99 136
69 103 123
72 108 168
71 107 168
71 106 178
68 103 148
72 108 168
71 107 158
67 101 136
68 102 136
72 108 168
70 106 158
69 106 168
67 102 108
69 104 136
68 104 148
68 102 148
67 103 158
70 106 148
67 103 123
70 107 178
71 105 168
66 101 158
67 101 148
68 103 136
67 102 108
71 107 148
65 98 136
69 104 136
62 95 108
64 98 108
71 107 168
64 99 136
66 100 123
70 105 136
68 103 123
68 104 136
69 103 136
69 103 148
66 100 136
70 105 148
72 108 158
64 98 108
66 100 136
73 108 168
64 97 108
71 107 158
69 104 168
67 104 148
68 103 136
68 104 136
66 99 108
58 89 89
63 94 125
101 119 108
117 120 0
134 147 0
126 142 0
146 162 0
125 141 0
104 110 0
126 137 0
110 125 0
115 127 0
161 172 0
100 115 0
129 143 0
104 119 0
140 157 0
124 137 0
129 144 0
144 157 0
139 155 0
108 118 0
85 98 0
115 125 0
137 152 0
110 124 0
114 125 0
153 166 0
121 131 0
145 156 0
126 140 0
142 158 0
141 161 0
146 154 0
132 147 0
131 152 0
113 125 0
131 147 0
150 166 0
139 154 0
142 153 0
145 166 0
127 146 0
131 137 0
132 148 0
132 148 0
117 128 0
125 136 0
112 122 0
148 157 0
113 129 0
127 138 0
139 155 0
102 115 0
152 162 0
122 129 0
99 104 0
149 166 0
106 114 0
134 143 0
126 135 0
157 166 0
167 177 0
130 146 0
134 143 0
144 155 0
120 128 0
131 144 0
139 150 0
153 168 0
158 172 0
117 134 0
149 158 0
148 155 0
155 169 0
167 176 0
129 135 0
130 139 0
129 142 0
139 149 0
153 156 0
157 170 0
116 129 0
162 179 0
137 137 0
134 145 0
157 166 0
157 171 0
147 161 0
120 125 0
173 186 0
156 165 0
147 155 0
139 148 0
166 183 0
139 149 0
111 125 0
141 145 0
175 191 0
153 162 0
130 139 0
136 141 0
150 163 0
152 160 0
167 183 0
161 174 0
162 170 0
155 169 0
157 165 0
168 183 0
148 153 0
173 182 0
146 158 0
148 163 0
155 172 0
162 171 0
164 180 0
174 187 0
144 148 0
131 147 0
168 187 0
156 167 0
150 166 0
153 170 0
148 157 0
155 169 0
134 143 0
162 173 0
167 181 0
141 151 0
146 161 0
147 163 0
171 191 0
145 157 0
153 170 0
164 175 0
161 174 0
176 190 0
148 154 0
144 154 0
173 191 0
152 163 0
157 167 0
172 193 0
162 184 89
180 204 89
166 188 123
153 174 0
173 190 0
175 196 0
174 194 0
185 207 123
172 195 89
170 192 0
162 185 89
152 170 0
162 185 89
162 186 89
186 205 0
170 195 89
159 179 89
156 180 89
163 186 89
167 190 0
171 194 89
179 204 123
172 193 89
167 188 89
161 186 89
163 186 89
167 192 0
173 196 123
172 196 123
177 202 89
157 178 89
164 186 0
166 187 89
173 196 89
133 153 0
152 173 0
169 192 123
171 189 0
141 163 89
170 195 89
177 197 89
162 185 0
145 163 0
171 189 89
165 185 89
163 185 0
174 197 89
167 190 123
181 204 89
153 171 0
169 193 89
165 186 89
169 191 0
113 137 108
102 128 123
64 96 123
108 132 148
59 89 148
65 100 148
104 129 148
87 115 136
93 121 168
82 102 136
89 113 148
53 81 108
81 99 136
86 110 158
65 98 158
85 107 148
79 96 123
142 163 202
59 90 136
82 109 148
91 117 168
88 109 148
55 84 123
50 77 123
107 131 168
128 151 148
135 150 158
119 142 148
55 85 148
116 139 178
59 90 148
86 109 136
78 103 108
137 156 123
104 127 123
83 112 158
100 126 148
133 155 202
58 87 148
81 108 148
64 99 148
38 60 89
64 97 158
97 125 168
72 108 168
70 107 168
71 107 168
66 101 158
69 103 158
72 108 178
99 126 168
70 106 158
89 117 172
66 100 136
81 110 162
68 103 168
60 91 136
66 101 153
62 95 136
68 105 158
72 108 168
67 100 168
73 109 178
62 94 123
66 100 168
58 89 123
63 97 123
66 102 168
55 85 65
64 98 136
68 104 136
79 106 89
68 102 148
66 100 158
65 99 136
67 102 158
69 103 148
62 96 129
73 108 158
63 97 108
60 92 108
61 94 136
72 108 168
67 103 158
66 101 148
65 102 136
65 100 136
72 108 178
68 103 163
69 104 148
70 105 168
71 107 158
62 96 136
68 104 136
68 103 158
70 105 136
67 102 158
70 106 168
69 105 158
66 100 136
69 104 148
70 107 168
71 106 148
69 105 148
70 106 158
68 104 148
68 103 123
70 106 158
70 105 136
75 112 186
70 105 148
66 102 136
67 103 136
68 104 148
69 104 158
71 108 178
71 107 168
70 106 158
69 104 136
69 103 123
73 109 168
71 106 148
69 105 173
67 100 136
72 108 168
73 108 158
69 106 158
69 103 148
69 105 158
66 99 123
68 103 136
68 105 158
68 103 136
69 104 136
70 107 178
71 105 158
70 106 158
66 100 136
70 105 158
64 98 148
70 106 148
73 109 168
66 100 148
67 103 136
71 107 148
73 109 168
69 105 148
68 102 148
68 104 148
66 101 148
67 102 136
66 100 136
69 104 136
63 97 123
70 105 148
63 98 123
61 92 123
66 100 136
71 107 158
71 107 168
69 105 148
66 102 123
66 100 108
67 101 123
68 102 148
66 101 136
72 108 158
70 106 148
72 109 178
73 108 158
70 105 148
70 106 158
66 101 148
67 101 148
70 105 158
70 105 148
66 100 136
69 105 148
65 99 136
62 96 108
71 107 158
68 104 136
70 104 158
71 106 158
57 88 89
63 96 108
70 106 148
69 104 136
71 107 158
63 95 123
71 106 148
68 104 148
71 106 148
64 98 108
66 100 136
68 103 136
63 95 136
70 106 148
63 97 108
65 98 136
63 96 108
68 103 123
61 92 123
64 97 123
63 95 108
133 148 0
121 137 0
114 131 0
127 136 0
101 103 0
113 129 0
125 136 0
112 126 0
124 137 0
117 129 0
143 162 0
114 126 0
127 140 0
135 150 0
123 134 0
105 118 0
120 133 0
150 163 0
119 124 0
141 158 0
148 162 0
145 158 0
148 157 0
112 122 0
127 138 0
139 158 0
106 110 0
141 153 0
94 105 0
120 133 0
138 151 0
104 115 0
133 145 0
104 123 0
117 124 0
122 139 0
144 154 0
117 126 0
162 180 0
106 121 0
133 147 0
131 141 0
115 133 0
142 158 0
154 166 0
160 176 0
152 166 0
145 162 0
150 167 0
161 176 0
118 129 0
122 134 0
156 157 0
140 152 0
144 159 0
155 167 0
162 175 0
140 149 0
122 137 0
123 134 0
131 139 0
141 152 0
143 153 0
146 160 0
168 177 0
142 152 0
145 157 0
140 152 0
142 157 0
132 145 0
126 139 0
167 176 0
143 157 0
132 147 0
165 181 0
120 131 0
140 144 0
153 168 0
140 149 0
130 143 0
141 143 0
153 169 0
144 154 0
121 132 0
156 172 0
153 166 0
143 161 0
135 142 0
160 177 0
122 135 0
137 141 0
149 163 0
143 149 0
167 169 0
150 160 0
142 150 0
161 175 0
152 167 0
135 148 0
120 132 0
137 151 0
141 157 0
172 183 0
157 170 0
151 168 0
160 178 0
158 170 0
160 174 0
150 158 0
167 186 0
142 152 0
150 155 0
149 160 0
146 151 0
147 158 0
171 191 0
135 143 0
140 150 0
149 157 0
163 183 0
148 156 0
154 171 0
169 181 0
172 193 0
170 184 0
161 176 0
146 164 0
151 166 0
172 188 0
146 154 0
174 186 0
134 137 0
152 171 0
147 159 0
162 168 0
159 175 0
158 169 0
148 158 0
163 178 0
164 176 0
165 177 0
182 203 0
175 195 0
172 190 0
163 186 89
177 202 89
178 201 0
162 186 89
180 204 123
178 202 89
172 194 0
163 184 89
175 196 89
170 194 89
169 191 123
165 185 0
180 203 89
169 193 0
168 192 0
173 198 123
161 184 0
175 195 0
154 174 0
175 197 89
154 174 0
179 203 89
173 198 123
171 193 0
163 184 89
175 196 0
175 194 0
168 192 148
172 193 0
175 197 89
178 200 148
169 192 0
179 203 89
175 197 89
143 166 0
175 201 89
166 187 89
164 186 89
162 186 89
173 196 123
180 202 0
158 179 123
164 185 89
153 175 0
176 197 0
162 186 0
154 177 0
144 163 123
169 192 0
144 164 0
164 185 168
160 180 108
64 96 148
60 92 108
57 86 136
105 127 148
110 133 168
105 127 168
49 74 89
79 102 108
123 144 148
105 125 158
90 116 148
118 141 168
120 140 148
86 108 148
112 137 178
105 123 136
84 104 123
60 88 148
86 109 158
95 116 108
62 93 148
96 125 178
99 124 178
107 133 168
85 105 148
63 97 153
51 76 108
67 84 89
77 102 123
90 109 136
80 107 148
70 105 178
94 116 123
120 136 123
122 139 123
82 109 148
110 128 168
90 119 168
55 83 108
53 83 123
58 87 148
91 114 158
101 130 195
100 129 195
70 106 158
70 106 168
68 104 136
70 106 158
122 145 195
71 108 178
65 101 168
64 98 136
88 109 152
95 119 172
91 117 152
63 96 148
68 103 168
66 101 158
71 107 168
70 105 136
65 100 148
71 108 178
71 105 168
68 102 148
69 102 136
51 80 108
61 93 153
68 106 178
66 101 148
64 97 148
68 102 148
67 101 136
82 111 136
88 114 108
65 99 123
69 105 158
60 93 123
69 105 148
56 86 89
67 100 158
67 103 148
66 102 136
68 102 153
62 95 148
71 107 168
65 100 136
66 101 123
64 99 136
62 96 148
69 104 136
59 88 108
65 99 136
70 105 148
68 103 136
67 101 148
70 106 158
56 87 108
70 106 148
67 102 148
59 92 148
67 101 148
70 105 136
72 108 168
65 101 148
62 96 136
67 102 158
69 105 148
68 105 158
71 107 148
68 103 123
70 106 158
70 106 148
61 92 148
70 105 136
70 105 136
71 106 148
71 106 148
59 92 89
66 100 136
70 105 148
70 107 168
65 98 123
67 104 158
71 106 148
68 103 123
68 104 136
69 103 158
71 107 158
66 99 123
70 105 148
68 104 136
70 106 158
66 100 123
72 108 168
68 102 148
70 105 148
72 107 158
62 94 123
65 99 123
68 104 148
70 106 158
72 108 168
70 106 158
70 106 158
70 106 148
69 105 158
66 101 148
74 110 178
63 97 158
68 101 123
70 104 158
64 98 123
70 105 178
63 96 108
64 97 136
67 103 136
71 107 168
70 107 168
67 102 123
64 98 108
71 107 158
72 109 178
66 100 136
67 104 148
65 101 123
72 108 168
65 99 136
60 94 123
70 106 148
64 97 148
63 96 89
68 102 136
65 99 123
73 109 178
62 95 136
70 106 158
66 99 123
64 98 108
65 99 123
66 100 123
65 97 123
63 97 89
70 106 158
67 102 148
65 99 123
70 106 158
66 100 123
64 99 89
67 102 123
67 102 108
67 100 123
68 102 148
67 102 123
69 103 123
65 98 108
69 104 136
67 102 123
66 101 108
69 104 158
66 98 123
65 97 108
59 90 65
64 98 123
124 139 0
55 60 0
99 112 0
109 120 0
113 124 0
121 137 0
112 127 0
139 156 0
113 118 0
144 162 0
124 129 0
123 142 0
108 117 0
128 148 0
136 148 0
155 167 0
111 117 0
127 134 0
155 171 0
135 147 0
115 120 0
125 137 0
134 151 0
94 109 0
117 129 0
147 157 0
143 160 0
140 151 0
158 175 0
133 144 0
100 111 0
121 129 0
156 172 0
121 129 0
129 144 0
134 146 0
145 165 0
128 139 0
172 190 0
147 156 0
136 143 0
121 129 0
125 138 0
153 167 0
118 129 0
150 165 0
129 139 0
142 149 0
148 165 0
133 144 0
96 103 0
134 146 0
154 155 0
154 167 0
144 158 0
118 135 0
123 129 0
127 139 0
96 101 0
152 158 0
128 140 0
131 140 0
164 172 0
153 166 0
122 133 0
144 153 0
152 166 0
154 162 0
148 157 0
138 144 0
152 166 0
130 143 0
131 128 0
158 165 0
132 148 0
140 146 0
140 144 0
136 144 0
163 169 0
154 164 0
137 146 0
145 160 0
140 158 0
161 166 0
135 135 0
139 146 0
154 166 0
164 182 0
128 138 0
119 129 0
155 161 0
127 132 0
154 161 0
165 174 0
140 152 0
164 176 0
155 170 0
128 138 0
149 165 0
160 173 0
148 162 0
133 135 0
166 178 0
154 168 0
144 163 0
163 170 0
150 156 0
140 155 0
161 171 0
146 161 0
162 181 0
154 159 0
145 156 0
163 179 0
155 170 0
151 163 0
144 157 0
132 143 0
175 189 0
168 182 0
132 138 0
150 159 0
156 172 0
154 161 0
180 192 0
146 162 0
142 155 0
168 188 0
167 180 0
155 158 0
167 180 0
148 165 0
160 178 0
163 176 0
148 165 0
168 187 0
166 181 0
155 175 0
164 182 0
170 187 0
143 159 0
161 170 0
163 183 0
172 193 0
167 186 0
164 181 89
174 195 89
172 194 0
159 178 89
173 194 0
182 206 123
179 203 89
165 188 148
165 186 0
177 201 168
181 200 0
161 180 0
173 197 123
171 194 89
183 208 168
155 177 0
181 204 89
170 190 89
175 196 0
172 193 0
153 177 89
180 200 89
172 190 0
161 185 0
171 194 0
172 195 89
154 176 0
178 200 123
166 187 89
166 190 123
182 203 0
166 189 123
180 200 123
162 186 89
142 162 0
145 164 0
181 204 89
177 200 148
158 182 123
165 186 0
181 203 0
182 203 0
156 179 0
160 184 89
171 195 89
161 181 89
176 196 89
171 195 89
170 192 123
163 184 0
149 169 0
181 203 0
129 153 108
106 127 136
104 126 136
84 108 136
90 116 158
87 113 136
80 100 142
88 112 108
91 115 168
101 121 123
82 110 123
85 107 148
97 119 148
125 148 178
102 122 142
87 108 136
56 86 142
85 113 158
51 77 108
114 139 195
133 148 136
107 124 158
111 133 178
57 86 129
81 104 136
65 99 168
130 148 123
74 96 123
141 161 186
109 136 182
59 89 123
100 128 148
114 137 136
115 135 173
105 130 158
109 128 128
93 122 162
106 126 136
53 80 136
85 100 136
112 138 178
61 92 148
90 110 148
99 128 195
99 127 178
99 127 178
69 105 158
68 102 158
67 103 178
65 100 148
69 105 158
72 108 168
72 108 168
81 113 162
83 114 162
60 92 158
70 106 158
71 106 148
64 99 148
64 95 158
71 108 178
67 103 148
66 102 123
66 102 158
68 102 158
65 98 168
68 103 158
68 102 148
89 120 148
71 107 158
66 100 136
67 103 136
64 96 136
68 104 136
63 98 123
63 96 89
66 99 123
67 102 123
60 92 142
63 94 108
71 107 158
64 98 108
67 101 136
64 98 123
64 99 136
71 106 158
65 99 148
65 98 123
71 107 158
68 104 148
67 102 153
68 103 158
71 106 148
69 104 136
71 107 158
66 101 148
61 94 136
67 102 108
66 101 163
66 100 136
71 106 148
68 103 123
72 108 168
67 101 136
67 102 148
68 105 158
66 101 148
64 98 108
69 106 158
68 103 123
65 100 136
67 100 136
70 106 158
67 101 148
68 102 148
69 105 168
66 100 136
71 107 158
71 106 148
69 104 136
69 104 136
67 103 136
67 100 123
64 98 123
66 99 123
73 109 168
70 104 148
67 101 148
69 104 136
71 105 148
68 104 148
68 103 136
63 96 89
70 106 148
62 95 123
66 101 108
71 108 168
75 112 186
69 105 148
68 104 148
68 103 136
68 103 148
69 104 136
68 103 123
69 103 158
64 100 108
67 102 123
69 105 148
68 104 136
70 106 158
56 88 108
59 91 65
69 104 123
69 105 148
68 104 136
68 103 123
66 102 123
63 97 108
68 103 136
67 104 148
69 105 158
72 107 148
67 101 148
71 107 148
71 106 148
69 104 136
67 104 148
70 106 158
64 98 108
70 104 148
72 108 168
67 102 123
69 104 136
67 101 136
64 97 158
66 100 136
71 106 148
66 101 136
70 106 148
71 107 158
71 107 168
66 100 148
71 106 136
66 101 108
66 100 123
71 106 148
71 107 148
66 102 123
68 104 148
62 95 108
69 104 123
66 100 136
66 101 136
64 96 108
64 96 108
70 106 148
72 107 158
68 102 136
55 85 71
62 92 108
65 98 123
56 86 65
79 100 89
93 107 0
126 141 0
128 140 0
130 145 0
127 139 0
111 122 0
157 174 0
109 120 0
93 106 0
107 123 0
106 127 0
133 146 0
170 189 0
144 158 0
132 149 0
118 130 0
86 93 0
115 134 0
143 158 0
122 126 0
119 131 0
145 155 0
121 132 0
168 185 0
155 172 0
150 161 0
92 109 0
128 137 0
113 119 0
100 116 0
158 174 0
160 176 0
137 146 0
129 139 0
161 173 0
114 127 0
125 140 0
95 105 0
125 135 0
114 115 0
145 164 0
132 148 0
135 148 0
133 146 0
96 105 0
154 168 0
128 142 0
158 165 0
110 117 0
156 168 0
164 176 0
121 133 0
125 135 0
121 137 0
121 131 0
135 151 0
141 143 0
132 151 0
148 159 0
136 151 0
144 156 0
101 115 0
136 145 0
149 159 0
95 103 0
139 154 0
124 132 0
151 163 0
123 134 0
156 172 0
131 139 0
112 121 0
150 166 0
162 180 0
147 159 0
111 118 0
154 166 0
142 151 0
136 138 0
124 141 0
136 144 0
178 188 0
172 186 0
145 159 0
148 164 0
160 175 0
140 143 0
146 158 0
167 173 0
161 164 0
147 151 0
156 173 0
150 158 0
161 172 0
122 129 0
131 133 0
138 149 0
140 146 0
156 170 0
158 170 0
151 157 0
152 162 0
139 151 0
165 178 0
156 173 0
166 185 0
142 160 0
170 186 0
168 182 0
156 170 0
164 173 0
164 179 0
158 175 0
173 185 0
145 161 0
161 173 0
165 178 0
171 189 0
161 182 0
173 190 0
135 150 0
143 158 0
146 159 0
154 166 0
151 168 0
161 179 0
162 182 0
167 182 0
169 181 0
151 164 0
171 186 0
165 181 0
168 178 0
129 139 0
170 182 0
165 179 0
171 193 0
169 185 0
156 169 0
162 171 0
163 181 0
171 190 0
163 184 89
172 194 0
159 182 123
170 192 0
176 200 0
180 204 89
172 196 89
165 188 89
180 202 0
177 202 89
181 204 123
180 203 89
163 187 89
165 185 0
146 165 89
172 197 123
161 185 89
180 204 123
162 178 0
170 195 89
179 199 89
174 197 0
163 186 0
155 174 89
171 194 0
172 194 0
146 162 0
161 184 0
183 204 0
183 205 89
177 196 0
185 205 0
161 185 123
183 205 89
171 195 89
167 193 89
180 205 123
170 192 0
158 178 89
167 188 89
157 178 89
161 183 148
169 193 89
160 181 123
182 207 148
155 179 123
172 196 89
162 185 0
161 182 0
179 198 89
147 167 0
177 198 89
166 188 89
172 193 89
172 193 0
157 180 89
117 138 136
98 119 65
134 159 158
62 92 136
102 123 123
124 147 186
85 109 123
108 130 148
125 148 186
69 104 168
67 100 158
80 96 108
118 132 108
63 95 136
49 73 123
95 123 168
102 125 148
82 102 123
60 91 148
60 91 148
88 109 136
103 126 148
87 114 142
78 94 129
114 133 123
108 124 158
57 86 136
165 180 178
86 104 136
67 84 89
108 126 148
115 137 186
123 147 123
115 136 136
64 97 158
72 96 123
132 151 162
63 94 158
46 69 89
82 104 136
43 64 108
90 111 158
60 92 158
72 108 178
71 108 178
66 101 148
69 106 178
121 145 195
99 126 168
100 127 178
86 116 172
72 109 186
68 103 168
86 115 162
69 105 148
66 100 136
65 100 158
67 102 136
71 107 168
63 96 108
64 97 142
70 106 168
68 104 178
66 99 168
70 106 158
61 92 148
66 101 148
64 97 108
79 104 89
68 104 136
61 92 89
59 90 136
58 89 136
68 102 148
57 89 123
64 98 123
63 95 136
60 91 129
64 98 123
63 97 108
70 105 148
71 107 168
63 96 148
69 104 168
61 94 108
69 106 168
69 104 136
68 104 148
69 103 148
65 99 148
65 100 158
71 108 168
68 103 158
71 107 168
72 108 168
70 106 148
71 107 158
59 93 136
65 97 148
63 96 123
66 101 108
69 103 158
71 107 158
66 101 123
65 101 148
71 107 158
70 106 148
67 101 148
67 101 123
70 105 136
68 104 158
63 95 129
66 100 148
70 105 148
71 107 158
67 103 136
73 108 158
72 108 158
71 106 148
68 103 158
70 106 158
65 99 136
71 107 168
66 101 123
66 101 148
69 105 158
68 102 158
70 104 158
68 104 148
68 103 136
66 101 148
64 96 123
72 108 168
68 104 148
68 103 123
71 108 168
69 105 148
67 103 136
65 99 136
67 101 148
70 105 136
65 100 136
62 95 136
67 102 136
65 99 136
70 105 148
71 107 158
68 103 136
59 91 65
66 100 136
71 107 158
72 108 168
62 94 108
63 97 108
70 106 158
70 106 148
70 106 148
67 104 158
66 101 108
69 105 148
65 98 148
69 105 148
71 107 158
69 103 123
68 104 136
68 104 136
62 96 89
70 105 136
61 94 123
70 106 158
67 100 108
73 109 178
67 101 123
70 105 148
68 103 123
67 103 123
70 105 148
72 106 168
67 102 168
68 102 123
68 102 108
67 102 148
73 109 168
64 97 123
67 103 136
68 104 136
69 104 136
67 102 123
68 102 136
72 108 168
58 89 123
68 103 148
70 106 148
67 101 136
64 98 123
67 103 123
67 100 158
65 98 108
65 99 123
65 98 108
104 124 65
121 133 0
116 130 0
83 91 0
108 115 0
128 140 0
118 131 0
89 96 0
99 113 0
108 114 0
126 134 0
117 131 0
123 141 0
139 155 0
101 108 0
131 141 0
154 170 0
135 148 0
76 96 0
141 153 0
101 109 0
107 123 0
147 164 0
151 170 0
113 118 0
109 117 0
126 146 0
118 129 0
151 166 0
145 161 0
133 146 0
129 134 0
147 165 0
115 127 0
149 161 0
137 155 0
140 160 0
136 147 0
135 142 0
175 191 0
137 155 0
134 147 0
158 172 0
122 140 0
121 131 0
142 159 0
90 90 0
144 158 0
142 156 0
133 145 0
147 163 0
149 161 0
144 156 0
173 188 0
120 131 0
141 148 0
138 152 0
158 177 0
144 153 0
127 144 0
145 163 0
126 136 0
169 179 0
138 152 0
125 127 0
145 155 0
97 111 0
142 149 0
116 125 0
169 179 0
139 152 0
137 148 0
166 186 0
131 141 0
154 161 0
150 169 0
151 164 0
160 172 0
120 124 0
165 181 0
157 168 0
153 166 0
141 153 0
126 141 0
142 155 0
167 182 0
149 159 0
136 148 0
174 190 0
127 127 0
162 175 0
129 147 0
133 141 0
134 146 0
156 171 0
167 183 0
154 169 0
159 174 0
149 162 0
161 180 0
164 185 0
161 177 0
146 148 0
146 156 0
142 153 0
167 181 0
153 170 0
143 150 0
154 173 0
148 166 0
142 153 0
154 161 0
171 189 0
161 175 0
181 200 0
162 175 0
160 176 0
130 139 0
164 177 0
153 161 0
152 168 0
169 188 0
149 173 0
143 154 0
142 154 0
174 191 0
145 161 0
146 157 0
132 139 0
159 172 0
163 175 0
164 177 0
156 173 0
166 184 0
162 172 0
166 183 0
166 186 0
161 172 0
166 180 0
139 157 0
178 198 0
169 184 0
165 180 0
165 185 0
172 197 123
179 200 89
166 191 89
173 195 89
182 207 148
173 195 0
168 187 0
169 189 89
172 197 123
172 194 0
173 193 0
162 184 0
178 202 89
168 192 0
170 189 89
162 182 0
155 179 89
172 194 0
181 204 89
178 201 0
180 203 148
165 185 89
171 194 0
153 177 89
173 195 89
169 191 0
178 201 0
167 186 0
164 189 148
172 191 89
159 179 0
146 167 89
163 186 89
163 185 0
151 173 89
173 196 89
146 167 89
174 199 148
171 195 89
171 194 0
160 184 0
156 179 168
140 161 123
169 186 0
150 170 89
170 193 0
161 183 123
169 192 0
170 195 89
157 177 89
155 179 89
174 198 123
183 205 89
166 185 89
176 198 89
169 188 123
135 155 0
87 113 148
98 119 65
110 134 178
110 136 178
95 119 108
111 136 158
103 129 148
90 118 148
63 93 148
93 120 178
106 129 136
119 144 158
48 73 65
106 123 148
102 125 148
108 126 148
86 108 148
59 91 148
106 127 136
52 78 123
106 123 158
103 126 123
89 110 148
83 102 123
136 156 148
139 157 168
62 95 158
87 106 148
62 93 158
61 94 136
127 141 168
95 123 186
133 147 136
151 172 168
74 99 108
102 122 141
99 110 133
155 173 186
89 120 168
94 119 168
110 134 158
59 90 136
60 91 136
98 127 186
71 107 158
99 127 168
138 159 195
67 104 158
100 127 168
71 108 186
69 105 158
86 115 172
102 120 133
68 103 168
62 95 148
68 103 158
60 91 136
67 102 148
65 98 158
67 103 148
63 97 123
63 96 148
67 100 158
62 95 148
66 100 136
60 91 148
54 83 123
103 129 136
68 104 136
100 129 123
86 114 158
66 100 136
100 130 123
64 97 108
66 100 148
67 101 148
55 85 136
70 106 168
73 109 168
64 96 89
61 94 123
66 99 123
70 106 148
72 108 168
62 94 123
67 101 148
73 109 178
64 98 153
66 101 158
67 101 148
68 102 158
71 106 148
66 102 158
67 105 168
72 108 168
63 97 89
72 107 158
66 100 136
70 105 148
65 98 123
62 94 148
72 108 168
66 101 148
70 106 158
66 101 148
67 101 148
67 102 148
66 102 136
67 103 148
72 108 168
71 106 148
69 105 148
68 104 148
72 106 158
71 107 168
71 107 158
61 93 108
69 104 136
70 106 158
67 103 136
66 100 136
71 107 158
73 109 178
68 104 148
70 106 158
69 103 148
68 104 136
70 106 158
70 105 148
65 99 136
64 97 108
72 108 158
68 103 158
66 100 123
69 103 123
74 110 186
68 104 136
73 109 168
69 104 136
68 104 148
68 104 136
67 102 123
73 109 178
63 94 123
69 104 158
68 102 108
71 107 158
73 108 168
64 96 136
68 103 136
69 105 148
67 101 136
68 103 123
65 99 136
69 105 136
68 103 148
69 105 148
71 106 148
66 102 136
68 103 123
68 104 136
65 100 136
66 101 148
63 95 123
72 108 168
69 105 148
72 107 148
71 106 148
66 100 136
66 101 148
71 106 136
68 102 148
68 104 136
72 108 168
65 100 108
67 103 136
73 108 158
71 106 148
64 99 123
70 106 148
68 101 136
65 100 89
61 95 89
69 103 123
67 102 148
67 101 123
72 108 168
63 97 123
68 101 158
66 99 148
65 98 108
72 107 158
62 96 123
68 102 108
68 102 136
57 87 108
61 94 108
65 97 65
82 109 136
123 143 0
92 109 0
115 128 0
135 153 0
141 156 0
80 99 0
128 140 0
148 162 0
117 132 0
141 153 0
126 142 0
161 179 0
153 169 0
119 127 0
117 134 0
147 158 0
119 136 0
121 130 0
135 147 0
135 149 0
138 148 0
159 174 0
102 111 0
138 150 0
89 99 0
121 132 0
105 120 0
109 124 0
142 154 0
150 163 0
147 161 0
127 144 0
134 155 0
127 141 0
150 160 0
114 127 0
120 129 0
118 134 0
121 134 0
158 175 0
153 169 0
112 128 0
132 145 0
142 160 0
123 134 0
138 154 0
125 135 0
161 180 0
145 157 0
129 134 0
141 151 0
128 142 0
146 165 0
122 135 0
144 152 0
130 139 0
174 188 0
128 136 0
131 141 0
148 165 0
136 156 0
154 162 0
99 104 0
157 168 0
129 141 0
167 186 0
157 174 0
168 180 0
122 133 0
76 82 0
147 153 0
167 175 0
129 146 0
101 106 0
154 174 0
137 151 0
145 158 0
153 167 0
143 153 0
119 132 0
153 171 0
158 174 0
128 130 0
163 175 0
167 182 0
150 164 0
139 141 0
137 151 0
153 164 0
131 143 0
168 178 0
145 151 0
141 151 0
157 171 0
147 154 0
123 132 0
143 153 0
160 165 0
170 184 0
157 173 0
172 177 0
161 174 0
151 167 0
167 180 0
163 178 0
148 162 0
114 123 0
133 144 0
149 156 0
145 153 0
174 191 0
156 164 0
162 174 0
154 166 0
170 184 0
128 140 0
165 185 0
162 175 0
167 185 0
164 186 0
149 159 0
146 161 0
121 137 0
169 185 0
167 184 0
153 169 0
178 193 0
155 163 0
161 177 0
181 197 0
172 183 0
147 163 0
149 167 0
164 179 0
153 168 0
149 157 0
163 179 0
158 173 0
152 157 0
154 171 0
144 148 0
159 170 0
153 167 0
170 189 0
158 183 89
180 204 89
174 194 0
167 189 89
153 175 89
173 195 0
186 206 89
169 191 0
177 203 123
176 198 89
172 192 123
136 152 0
187 206 0
177 200 148
143 164 0
163 186 0
182 202 0
173 193 0
171 194 89
171 195 89
171 195 89
164 182 0
159 182 89
168 188 0
171 193 0
184 207 123
181 208 168
161 185 0
174 196 89
164 187 89
173 194 0
181 203 0
170 192 0
162 184 0
166 188 0
172 194 0
174 194 89
168 189 123
142 162 0
168 191 0
127 149 89
175 196 89
168 191 123
179 203 89
158 178 0
154 175 89
166 189 123
172 196 123
168 184 123
181 203 0
185 207 123
173 196 89
140 160 89
167 189 89
173 194 0
125 145 0
159 178 89
114 139 89
71 105 168
83 107 123
109 131 168
84 106 123
88 115 148
108 131 148
141 164 202
56 84 123
53 83 108
115 135 108
48 74 89
59 90 129
59 88 108
82 100 108
121 142 168
112 133 178
56 85 136
60 90 153
105 127 158
89 112 148
54 81 136
94 123 178
82 99 136
79 104 136
122 143 168
60 91 148
52 79 136
141 164 148
54 83 136
98 121 123
79 103 136
111 133 123
129 144 168
120 132 141
78 96 128
104 120 123
84 109 136
102 126 136
111 128 148
97 120 123
77 97 108
89 108 136
69 107 186
69 105 158
65 99 136
99 127 186
98 125 148
69 105 148
98 124 178
71 107 158
80 111 141
65 98 148
82 114 172
61 93 123
83 112 141
71 107 158
68 102 158
65 99 123
65 99 123
64 98 123
67 101 148
67 100 136
68 102 158
58 88 108
71 108 178
65 100 148
99 122 89
66 98 148
54 82 108
85 110 148
63 96 129
67 101 148
86 115 136
65 99 158
68 101 123
63 96 148
69 104 136
65 101 123
65 101 123
71 107 168
69 104 173
65 100 148
63 97 123
67 102 158
67 103 136
72 108 168
72 109 178
67 102 153
58 88 123
69 106 158
62 95 129
67 101 136
69 105 148
65 99 108
69 105 148
66 101 136
72 108 168
66 100 123
68 102 158
70 106 158
65 100 89
73 109 158
68 104 136
68 102 148
70 106 148
73 109 178
63 97 123
67 103 136
71 107 158
65 97 136
67 103 148
67 102 148
66 101 108
66 102 136
66 101 136
60 92 108
69 105 148
70 105 168
70 105 148
67 102 148
60 94 123
67 101 108
67 102 158
69 104 136
69 105 148
70 105 148
69 104 123
69 104 168
68 103 148
72 108 168
69 105 148
69 104 158
60 92 108
69 105 148
68 101 123
64 97 148
69 106 158
70 106 148
69 106 158
62 93 108
69 105 148
68 103 136
66 102 136
66 101 123
67 103 136
68 104 148
68 104 148
71 107 158
70 106 158
69 103 158
66 101 148
68 102 136
69 103 158
65 98 136
69 105 136
68 105 158
70 106 158
73 109 178
67 101 136
61 94 123
69 105 136
69 105 148
70 106 148
70 105 148
70 106 148
64 98 108
70 105 148
70 105 148
68 103 123
69 103 148
69 104 136
69 103 136
72 108 158
71 106 148
63 95 123
64 98 108
70 104 148
69 103 148
57 88 108
67 101 148
64 98 148
69 104 136
69 104 123
68 103 123
69 104 123
65 98 148
73 109 168
71 106 136
71 106 148
67 101 89
69 103 136
64 98 65
65 97 123
67 100 89
72 107 158
55 85 0
84 111 123
70 88 65
93 112 0
142 153 0
91 105 0
117 129 0
148 165 0
102 114 0
135 152 0
104 114 0
125 139 0
165 182 0
148 167 0
103 115 0
141 159 0
143 155 0
116 126 0
112 124 0
119 131 0
106 123 0
114 132 0
133 147 0
154 171 0
133 147 0
147 163 0
169 186 0
132 139 0
116 129 0
152 164 0
170 187 0
143 158 0
136 148 0
135 151 0
131 148 0
140 150 0
165 182 0
136 153 0
138 155 0
153 170 0
134 147 0
116 123 0
140 149 0
126 138 0
152 164 0
138 154 0
146 160 0
138 150 0
99 114 0
136 149 0
128 139 0
167 183 0
135 144 0
116 129 0
115 130 0
124 135 0
161 178 0
149 163 0
146 160 0
140 155 0
122 132 0
143 152 0
145 157 0
161 179 0
157 173 0
156 168 0
151 167 0
139 156 0
136 150 0
148 163 0
143 157 0
124 133 0
124 137 0
121 133 0
153 170 0
151 165 0
118 128 0
122 133 0
142 149 0
127 141 0
156 162 0
125 137 0
167 186 0
153 169 0
107 112 0
175 188 0
153 165 0
149 160 0
147 159 0
161 180 0
134 143 0
152 165 0
143 154 0
153 164 0
157 170 0
151 154 0
159 169 0
131 145 0
153 169 0
129 149 0
144 162 0
155 171 0
126 131 0
169 182 0
138 147 0
150 164 0
144 153 0
120 131 0
154 167 0
155 169 0
149 166 0
151 169 0
162 176 0
167 185 0
172 189 0
155 173 0
156 170 0
163 180 0
143 157 0
141 150 0
156 171 0
147 154 0
149 163 0
132 140 0
160 178 0
153 172 0
141 151 0
146 157 0
168 183 0
157 175 0
168 181 0
152 161 0
174 189 0
166 183 0
149 159 0
168 177 0
151 167 0
156 173 0
149 169 0
151 166 0
144 158 0
164 182 0
154 168 0
176 194 0
173 191 0
165 185 0
156 177 0
177 199 148
179 202 0
168 192 123
181 204 89
169 190 123
174 195 0
162 184 0
178 199 89
163 186 0
177 199 148
173 196 89
165 187 89
188 208 89
168 191 148
183 203 0
179 204 123
170 193 0
165 188 89
172 196 89
177 200 123
159 178 0
171 191 123
163 185 0
181 204 89
161 183 0
168 190 89
146 164 89
178 202 89
183 205 89
153 175 0
173 197 123
141 161 89
160 184 0
173 193 0
173 195 0
164 185 0
164 188 89
166 187 0
164 188 89
172 195 0
169 192 0
164 185 0
163 187 89
151 174 89
175 195 0
174 195 89
152 175 89
175 196 0
160 181 123
160 183 89
169 191 89
166 189 89
145 166 0
163 182 0
163 186 0
151 169 89
169 192 123
163 182 0
103 131 136
76 98 65
87 111 136
89 116 148
91 120 158
106 129 148
58 87 89
64 97 148
105 126 158
90 115 163
80 107 136
83 103 136
111 134 178
79 101 89
56 87 123
43 69 108
53 80 136
81 99 136
68 104 136
98 117 123
98 117 89
121 142 158
55 85 148
90 113 148
111 132 178
85 108 123
104 127 136
114 131 123
112 129 168
82 95 123
73 96 123
80 106 123
42 66 89
108 128 108
111 130 158
107 127 141
152 170 178
77 99 123
76 100 123
91 114 158
68 103 168
79 101 123
57 86 148
69 104 178
72 109 178
69 104 168
69 104 178
99 127 178
68 104 136
69 106 158
67 101 158
68 103 168
64 99 136
86 111 141
109 128 145
71 109 186
62 95 136
64 97 148
66 100 148
72 108 168
64 97 148
70 104 123
69 104 136
88 120 158
71 108 168
74 111 186
58 88 108
69 104 123
62 97 123
61 92 123
64 98 136
73 109 168
64 97 142
67 100 136
67 102 123
67 101 148
63 96 123
70 106 148
71 107 158
61 95 108
61 93 142
68 103 136
64 97 148
65 98 108
66 99 158
65 100 142
70 105 148
61 94 136
60 92 108
64 97 108
61 94 108
66 101 136
65 100 148
64 99 123
68 102 158
67 100 158
66 100 136
64 96 136
68 102 148
66 101 148
69 105 148
65 99 123
60 94 123
65 100 148
69 106 158
74 108 168
68 104 136
65 99 136
70 106 148
64 97 108
64 97 148
67 102 158
64 97 148
70 105 136
64 98 123
67 101 136
73 110 178
67 103 136
62 96 136
69 105 148
68 102 148
61 96 108
61 93 89
71 107 158
66 101 136
63 97 136
70 106 158
68 104 148
72 108 168
72 108 158
68 103 136
69 104 136
65 100 136
68 103 148
66 101 108
67 102 148
69 105 148
66 101 108
69 104 123
66 99 136
66 100 123
62 96 108
63 96 89
60 91 123
65 100 136
69 105 148
64 97 108
68 104 148
69 104 136
69 105 148
68 103 158
67 101 136
70 105 148
70 104 148
73 108 158
68 103 148
70 105 136
68 103 168
68 104 136
68 104 136
67 101 89
69 105 148
67 103 136
66 101 148
71 107 158
71 106 136
71 107 158
72 107 148
67 103 148
71 106 148
68 103 168
67 103 136
69 103 148
69 104 136
66 100 108
71 106 148
65 98 123
72 108 158
66 100 136
72 108 158
72 107 148
66 100 136
70 105 136
61 91 89
64 98 108
74 110 178
66 100 108
69 104 123
67 101 136
67 102 108
60 92 89
64 98 89
62 94 108
59 92 89
64 96 123
86 110 89
94 114 0
124 134 0
137 150 0
118 126 0
137 150 0
155 173 0
128 138 0
124 143 0
144 161 0
131 141 0
96 106 0
123 140 0
151 162 0
149 163 0
116 127 0
152 164 0
128 147 0
142 156 0
138 156 0
129 144 0
133 153 0
144 162 0
146 153 0
109 116 0
102 113 0
155 173 0
100 114 0
141 157 0
140 150 0
123 130 0
135 151 0
133 146 0
144 161 0
121 137 0
143 155 0
149 164 0
106 122 0
153 172 0
141 155 0
129 147 0
144 157 0
160 168 0
129 140 0
149 163 0
134 147 0
151 166 0
151 164 0
113 124 0
102 112 0
132 140 0
133 143 0
177 196 0
148 165 0
165 176 0
137 155 0
162 175 0
99 115 0
136 147 0
135 154 0
147 164 0
150 166 0
162 179 0
152 161 0
107 124 0
110 110 0
124 142 0
145 163 0
131 148 0
158 172 0
132 138 0
150 162 0
138 155 0
116 128 0
148 157 0
152 163 0
130 143 0
175 195 0
151 165 0
147 161 0
164 181 0
156 174 0
151 167 0
161 175 0
155 171 0
140 153 0
157 177 0
136 151 0
138 152 0
135 149 0
120 131 0
160 171 0
152 159 0
153 162 0
164 173 0
162 170 0
132 143 0
125 134 0
153 166 0
155 172 0
149 171 0
154 161 0
142 155 0
162 174 0
112 122 0
139 152 0
152 166 0
155 165 0
162 177 0
138 147 0
161 169 0
129 140 0
168 184 0
174 190 0
148 162 0
156 162 0
171 184 0
168 188 0
156 172 0
125 138 0
152 167 0
163 173 0
149 166 0
146 158 0
175 186 0
123 133 0
177 185 0
146 156 0
153 164 0
178 195 0
153 170 0
174 199 0
175 191 0
174 194 0
141 155 0
150 163 0
144 154 0
170 183 0
181 187 0
149 149 0
169 188 0
145 155 0
161 182 0
164 176 0
162 182 0
157 169 0
160 179 0
176 202 89
163 185 0
172 196 89
160 180 89
163 186 0
174 194 0
172 197 123
157 178 89
153 174 0
175 197 89
176 200 148
182 203 0
170 192 0
162 186 89
170 191 123
168 192 123
171 194 89
180 205 123
166 187 89
155 177 0
164 188 89
159 181 0
173 196 89
162 184 0
177 202 89
176 200 0
155 178 89
163 185 0
156 179 89
161 183 0
172 196 89
161 184 89
178 201 0
174 197 89
164 188 89
167 188 123
175 197 123
180 203 89
162 185 148
157 178 89
155 177 89
165 188 148
175 196 0
186 207 123
162 185 0
160 183 123
168 192 0
176 196 89
159 178 0
166 188 89
167 189 89
160 181 89
169 188 0
169 189 0
170 191 123
179 202 0
137 159 89
144 164 0
176 197 65
58 88 108
65 100 148
87 111 136
71 105 168
103 127 136
93 122 168
103 123 136
53 81 89
66 98 148
54 82 108
83 103 136
87 111 136
64 94 158
95 117 123
82 111 148
42 64 108
109 133 148
99 117 108
82 102 89
109 128 168
83 102 136
74 92 108
49 75 123
104 126 148
112 135 186
127 147 186
77 97 108
63 96 136
62 93 158
114 132 158
74 88 89
78 101 123
68 103 168
108 130 148
95 121 178
104 118 108
94 119 168
90 112 148
89 110 158
83 98 123
57 89 136
53 79 123
98 125 186
73 110 186
73 109 168
68 103 123
72 109 186
69 105 148
123 146 202
72 109 186
72 108 168
93 116 152
81 106 152
109 127 156
71 107 168
71 107 168
67 104 148
69 106 158
71 108 178
67 101 136
65 99 136
68 102 148
65 100 136
58 88 108
65 98 108
64 96 129
52 79 65
88 117 158
66 99 123
60 93 123
62 95 136
61 94 136
103 127 148
67 103 136
65 98 123
61 93 78
70 105 136
71 107 168
68 103 168
70 106 158
68 103 153
68 103 148
65 99 123
64 97 136
69 103 153
64 98 123
70 105 158
65 99 123
70 105 173
65 100 136
60 93 108
60 93 108
67 101 136
63 96 136
71 107 158
67 100 129
67 102 108
72 109 178
70 106 148
72 109 178
64 98 123
67 103 158
66 100 148
66 100 158
70 106 158
71 107 158
71 106 148
71 108 168
69 106 158
68 104 148
64 96 136
64 99 136
68 104 136
68 102 136
53 82 89
68 104 148
61 93 108
71 107 158
65 100 108
65 101 123
68 103 136
69 105 148
65 98 158
63 99 89
60 94 89
70 104 168
70 105 148
67 102 108
60 90 123
64 98 108
63 96 136
66 101 148
68 102 148
70 105 136
72 107 148
72 108 168
67 102 108
70 106 158
69 105 148
70 106 158
67 102 158
67 103 123
66 101 136
67 101 136
61 94 123
70 105 136
72 108 158
66 101 108
74 110 178
66 101 158
63 96 89
67 101 148
65 99 136
64 97 136
69 105 148
69 103 158
73 109 168
72 108 168
62 94 123
69 104 158
63 96 136
65 99 123
66 101 123
67 100 136
70 105 136
68 103 148
65 98 136
66 101 89
67 101 136
65 100 123
72 108 158
69 104 136
70 106 148
62 94 123
69 104 148
71 104 136
70 105 136
66 101 108
65 99 123
62 95 89
68 102 136
67 100 148
65 99 123
70 106 148
68 102 148
70 106 148
66 102 123
61 93 123
66 99 136
67 102 108
68 102 148
67 101 158
69 105 136
60 90 89
129 146 89
139 155 0
149 168 0
126 131 0
159 176 0
130 144 0
105 122 0
96 116 0
87 102 0
144 162 0
132 148 0
71 85 0
135 153 0
107 124 0
146 163 0
147 165 0
128 143 0
126 143 0
164 181 0
99 107 0
127 143 0
130 140 0
94 107 0
139 156 0
147 163 0
140 159 0
86 88 0
134 142 0
156 169 0
124 131 0
99 110 0
110 128 0
119 129 0
125 133 0
121 139 0
152 165 0
127 136 0
136 157 0
143 163 0
126 141 0
153 159 0
154 167 0
146 156 0
105 114 0
143 156 0
127 141 0
139 154 0
160 175 0
132 136 0
120 139 0
140 162 0
154 168 0
128 141 0
121 136 0
160 169 0
149 159 0
153 158 0
137 150 0
149 166 0
162 173 0
149 156 0
146 162 0
79 94 0
107 118 0
130 147 0
147 158 0
151 166 0
141 149 0
123 135 0
132 133 0
145 160 0
151 165 0
138 154 0
148 163 0
163 176 0
143 160 0
149 160 0
147 163 0
158 175 0
122 138 0
127 142 0
134 141 0
168 188 0
151 166 0
145 158 0
132 144 0
164 178 0
170 183 0
139 156 0
141 156 0
153 166 0
158 169 0
152 167 0
150 165 0
143 153 0
172 190 0
140 153 0
159 172 0
149 159 0
166 180 0
141 156 0
137 148 0
158 169 0
125 130 0
153 166 0
158 171 0
169 182 0
160 170 0
146 158 0
162 176 0
105 112 0
167 181 0
160 167 0
174 194 0
178 192 0
136 148 0
151 161 0
154 165 0
159 175 0
158 174 0
135 154 0
152 169 0
165 179 0
160 175 0
167 180 0
157 169 0
167 181 0
164 178 0
153 159 0
166 182 0
109 121 0
180 196 0
168 184 0
146 151 0
155 171 0
169 178 0
178 195 0
134 150 0
169 187 0
136 149 0
156 168 0
168 185 0
158 171 0
178 196 0
160 174 0
175 197 0
142 158 0
176 202 89
182 204 89
165 187 89
165 188 123
173 196 89
154 174 0
165 187 0
179 203 89
157 178 89
169 194 89
165 185 0
154 179 89
174 197 89
183 206 123
174 196 0
174 192 0
162 180 0
172 194 0
170 193 0
173 193 0
161 185 0
170 192 0
164 187 89
165 187 89
161 178 0
176 200 0
173 194 89
178 205 148
165 189 89
162 183 0
175 200 0
149 170 89
170 189 89
163 181 0
176 198 123
179 200 89
187 207 89
164 190 148
150 173 0
184 207 123
183 204 0
165 186 0
148 168 0
144 165 0
156 177 89
145 164 0
175 196 89
149 168 0
177 201 0
174 198 123
169 190 123
167 187 89
162 182 0
161 179 0
140 163 89
172 192 89
164 183 89
171 191 89
162 181 123
148 164 123
96 118 65
101 123 123
55 84 65
120 140 136
87 112 158
112 137 178
108 133 158
52 79 123
67 99 158
86 107 136
86 107 136
112 137 178
114 138 168
82 99 136
88 110 123
88 110 158
53 82 123
135 150 136
81 103 123
80 103 123
64 95 158
82 111 148
90 110 148
109 134 168
72 89 65
55 83 108
54 84 136
88 107 148
61 92 158
114 133 168
119 135 136
104 123 136
87 114 148
69 88 65
80 107 162
63 96 148
114 134 141
59 90 136
90 110 148
64 97 148
49 76 108
51 79 136
71 107 168
68 104 148
99 127 178
100 128 178
122 145 186
68 102 158
61 96 123
101 120 145
68 104 148
69 104 168
66 102 148
91 113 133
67 101 158
68 103 168
66 100 136
71 107 158
74 110 178
66 100 148
62 96 108
64 97 148
67 101 148
66 97 136
63 97 123
63 96 148
65 98 148
66 101 148
74 110 168
68 103 158
55 84 123
64 96 108
66 100 136
62 95 123
65 99 136
62 96 123
72 107 148
67 102 148
65 99 123
66 100 123
61 94 123
68 102 136
65 100 142
66 101 108
70 106 148
68 102 148
69 104 123
65 99 129
70 106 158
68 103 123
71 107 158
73 109 178
69 105 148
68 103 123
66 100 136
62 95 123
67 101 136
68 104 148
66 100 123
70 105 168
68 103 136
64 98 136
69 105 148
69 104 123
72 108 168
70 105 148
71 107 158
68 104 136
73 108 158
65 98 148
68 103 136
67 104 148
70 106 158
64 97 108
66 101 148
69 106 158
62 95 89
63 97 123
60 93 123
69 103 148
71 107 168
66 101 148
62 94 108
65 99 123
67 102 123
71 106 148
70 105 148
70 103 136
73 109 168
71 107 158
68 103 123
67 103 136
72 107 158
64 97 108
66 100 148
68 101 136
70 106 148
64 99 136
68 103 136
67 103 136
70 105 148
67 101 123
67 102 148
69 105 148
71 108 178
67 102 123
64 98 123
65 98 136
72 107 148
68 102 136
71 107 158
70 105 158
70 105 148
63 97 89
68 104 148
68 102 148
64 97 148
65 99 123
70 106 148
65 99 148
70 106 158
62 94 123
71 106 148
66 101 108
68 104 136
71 107 158
66 101 123
67 101 136
66 101 89
67 101 148
70 105 136
58 91 89
70 105 136
68 103 148
71 106 148
69 105 148
66 100 89
61 94 65
65 99 123
56 87 89
63 97 108
62 93 65
67 101 148
70 106 158
62 94 108
67 101 136
62 95 108
63 96 89
69 103 136
67 102 136
68 101 136
61 91 89
58 87 89
82 96 0
149 162 0
132 152 0
132 148 0
124 140 0
116 131 0
131 144 0
139 151 0
102 116 0
98 111 0
123 137 0
136 146 0
146 161 0
121 133 0
106 121 0
112 125 0
135 149 0
126 134 0
103 121 0
133 137 0
134 146 0
104 120 0
150 168 0
143 160 0
139 150 0
161 176 0
129 144 0
147 160 0
119 127 0
153 172 0
115 132 0
138 152 0
121 137 0
119 132 0
133 142 0
142 149 0
143 156 0
108 122 0
147 161 0
129 147 0
148 166 0
121 136 0
127 134 0
121 141 0
149 159 0
132 142 0
146 162 0
128 146 0
120 127 0
107 116 0
156 175 0
102 113 0
144 162 0
136 153 0
153 164 0
147 155 0
158 175 0
143 163 0
161 173 0
92 107 0
130 143 0
129 139 0
160 174 0
153 171 0
136 154 0
167 183 0
181 200 0
143 158 0
166 186 0
144 157 0
172 183 0
117 129 0
136 152 0
130 135 0
154 168 0
146 160 0
151 160 0
128 137 0
134 152 0
160 178 0
136 147 0
145 153 0
131 148 0
145 158 0
149 167 0
148 165 0
146 156 0
150 165 0
111 125 0
154 167 0
161 173 0
145 154 0
85 89 0
142 152 0
174 195 0
155 170 0
144 162 0
165 181 0
152 168 0
150 161 0
156 166 0
150 161 0
173 182 0
163 180 0
149 167 0
139 153 0
169 186 0
173 190 0
159 173 0
151 169 0
137 154 0
153 163 0
158 176 0
156 170 0
151 167 0
172 183 0
158 177 0
163 181 0
150 159 0
154 169 0
117 129 0
184 201 0
166 181 0
151 165 0
174 189 0
171 186 0
168 185 0
166 183 0
165 184 0
144 159 0
141 161 0
154 172 0
161 177 0
154 169 0
157 178 0
168 184 0
156 169 0
157 166 0
165 179 0
174 194 0
135 147 0
169 189 0
172 184 0
165 184 0
141 154 0
165 184 0
177 192 0
161 183 0
169 193 0
160 184 89
175 197 89
176 198 89
171 196 123
161 186 89
162 184 0
166 187 0
187 207 89
171 194 89
158 177 0
170 191 0
170 193 89
171 194 0
182 203 0
163 186 123
172 194 0
171 195 123
167 187 0
162 187 89
180 205 123
178 201 0
172 196 89
155 176 89
173 197 123
172 197 123
156 176 0
163 186 0
183 206 123
177 199 89
164 185 0
181 204 89
174 197 89
145 168 0
176 200 0
162 184 89
180 202 0
167 189 89
171 194 89
175 195 0
181 204 168
175 196 0
180 200 89
149 168 89
146 169 0
146 167 89
160 185 89
162 185 0
173 195 89
168 192 89
171 192 89
175 196 0
158 177 0
166 188 89
178 196 0
166 185 0
170 193 0
167 185 0
149 167 0
56 87 65
62 93 136
54 83 108
96 127 178
56 83 108
86 108 148
75 91 65
66 99 123
83 111 136
114 135 108
88 111 136
61 92 148
106 126 168
84 108 136
78 97 108
102 126 136
108 128 168
87 109 148
82 106 123
64 96 148
100 120 123
108 131 168
101 122 123
98 127 178
156 176 202
85 100 136
105 129 158
150 170 148
87 105 136
81 104 136
108 131 168
56 86 148
121 137 148
142 156 168
75 100 123
101 123 152
64 96 148
98 121 115
49 75 108
80 104 136
60 91 148
109 121 148
89 107 148
121 145 202
101 129 186
98 124 178
100 127 178
71 106 158
69 104 168
61 93 108
71 107 168
67 102 158
72 108 168
70 106 158
67 101 158
74 110 186
65 98 158
70 105 148
61 94 123
68 103 158
69 103 148
60 91 148
67 101 148
69 104 168
66 100 136
65 99 136
63 97 108
67 103 168
65 99 158
64 98 153
68 103 148
61 93 123
63 96 129
66 101 148
71 106 148
62 95 115
65 101 123
65 99 123
67 103 136
63 97 123
62 96 108
64 96 136
63 94 108
68 103 158
63 97 108
68 105 158
63 96 136
69 105 148
68 103 136
71 107 158
67 101 148
68 104 148
65 99 65
69 103 123
69 103 148
67 101 123
69 104 123
63 97 148
61 96 148
67 101 148
68 103 123
69 105 148
71 108 168
67 101 148
67 102 123
66 100 148
68 102 148
70 106 158
67 102 108
63 97 123
65 100 89
69 105 136
65 98 89
66 101 148
67 101 123
67 103 136
69 105 136
68 104 148
70 105 136
69 105 148
69 105 136
65 97 123
69 105 148
70 106 158
63 95 123
63 96 108
63 95 108
65 99 123
70 106 158
65 99 136
70 105 136
65 100 148
69 104 136
62 96 89
69 104 136
70 106 148
71 106 136
70 106 148
71 106 148
70 104 148
66 100 136
65 99 123
64 97 89
60 92 123
71 107 158
63 97 108
65 97 123
71 107 158
70 105 148
67 102 123
68 105 158
71 106 148
71 107 158
61 96 89
65 99 136
70 104 168
69 103 148
67 102 148
70 106 158
57 87 108
70 106 148
68 102 136
63 94 108
67 102 148
61 93 108
68 103 158
60 93 89
71 107 168
65 100 89
70 106 158
69 103 148
69 103 123
65 101 108
71 107 148
69 104 158
70 106 148
71 107 148
67 102 148
63 95 108
64 98 108
65 97 108
68 102 108
65 99 123
66 99 108
65 98 123
59 92 89
69 105 136
66 99 136
70 104 158
66 99 136
52 81 65
104 120 108
146 160 0
128 141 0
152 164 0
163 179 0
140 153 0
101 114 0
138 154 0
152 167 0
138 156 0
92 111 0
116 123 0
171 187 0
147 164 0
137 155 0
149 166 0
133 144 0
120 131 0
119 136 0
138 155 0
145 158 0
111 123 0
129 147 0
167 180 0
115 123 0
147 161 0
128 146 0
148 166 0
133 141 0
123 139 0
120 135 0
109 121 0
143 157 0
134 147 0
164 182 0
135 145 0
121 140 0
163 177 0
168 184 0
113 131 0
135 153 0
159 178 0
109 119 0
140 147 0
135 149 0
127 133 0
143 157 0
122 134 0
149 160 0
148 163 0
135 149 0
129 143 0
159 170 0
142 158 0
121 127 0
117 128 0
150 156 0
107 117 0
149 157 0
162 176 0
151 169 0
136 147 0
146 162 0
126 142 0
162 176 0
154 167 0
163 179 0
142 156 0
133 146 0
146 157 0
167 181 0
133 147 0
133 147 0
134 145 0
143 158 0
130 136 0
161 173 0
147 155 0
161 178 0
158 172 0
99 110 0
161 169 0
150 162 0
136 140 0
133 147 0
145 159 0
146 163 0
155 170 0
138 152 0
151 167 0
155 167 0
149 162 0
139 151 0
159 167 0
153 164 0
140 151 0
165 178 0
145 163 0
156 163 0
151 163 0
115 126 0
143 159 0
146 163 0
151 165 0
159 169 0
171 189 0
150 167 0
153 170 0
147 164 0
145 161 0
138 153 0
141 160 0
137 146 0
169 184 0
176 187 0
151 168 0
120 133 0
159 166 0
159 173 0
141 153 0
165 175 0
140 155 0
129 142 0
161 173 0
154 169 0
159 172 0
155 172 0
182 197 0
157 176 0
155 171 0
161 176 0
167 182 0
164 184 0
150 164 0
163 176 0
156 170 0
178 195 0
169 189 0
159 170 0
162 168 0
158 170 0
159 175 0
150 167 0
150 163 0
164 182 0
165 186 0
173 189 0
164 185 0
176 194 0
168 194 123
183 206 123
171 195 89
179 203 89
159 183 0
175 200 0
161 182 0
167 191 0
180 203 89
185 205 0
165 185 0
163 187 89
175 197 89
176 196 89
177 201 0
170 194 123
185 207 123
162 186 0
177 197 89
182 203 0
170 192 0
172 195 89
177 202 89
172 197 123
172 195 89
171 195 89
174 194 0
164 190 148
162 186 89
157 180 89
170 191 89
176 195 0
177 197 89
184 204 0
174 195 89
143 165 0
176 196 0
180 198 0
156 182 148
142 165 0
170 192 0
175 198 123
154 175 0
171 192 123
148 166 0
172 194 0
171 194 0
170 193 89
159 182 123
176 198 123
135 157 0
152 173 0
174 195 89
158 181 123
151 171 89
159 182 148
137 159 89
183 203 123
174 195 0
160 182 123
138 159 89
102 126 108
105 127 108
90 116 123
86 110 136
52 78 108
81 106 123
89 116 148
52 78 108
127 151 178
126 144 108
97 113 108
51 78 123
130 151 158
80 106 123
142 163 186
122 142 148
91 115 158
80 97 123
56 86 148
121 133 136
126 141 168
92 117 158
107 127 148
90 115 168
81 101 123
120 142 148
90 110 148
57 87 148
89 111 158
59 91 148
129 145 178
136 158 202
85 115 136
109 129 108
104 123 152
122 142 152
98 120 128
121 140 162
123 140 158
81 110 136
126 147 168
93 117 158
62 94 123
70 107 168
98 126 168
98 125 158
98 125 158
71 107 168
99 126 168
69 104 168
88 116 162
82 110 152
95 120 181
70 106 158
94 118 145
68 105 158
68 105 158
65 98 158
73 109 178
69 103 158
57 88 123
66 100 136
67 104 148
64 95 123
83 113 123
62 95 136
78 104 89
65 97 136
67 101 158
88 120 158
64 97 148
63 95 123
66 99 123
69 103 148
65 99 123
63 97 108
72 107 158
71 107 158
71 107 158
62 95 123
65 98 108
64 97 108
68 103 158
69 104 136
66 101 108
69 105 148
70 106 158
60 91 136
66 101 108
66 102 136
67 101 148
64 96 123
63 96 136
65 99 136
69 103 158
66 100 108
71 107 168
66 100 136
65 101 123
67 103 148
69 102 148
68 104 136
72 107 158
66 100 108
65 97 148
67 103 136
72 108 168
67 102 148
68 102 136
66 99 123
58 89 65
67 101 136
65 98 108
69 105 148
64 98 123
67 103 123
71 107 158
71 107 158
64 97 123
65 99 136
69 104 136
71 106 148
67 102 148
68 102 168
67 101 148
67 103 148
69 104 136
70 105 136
71 106 148
65 99 108
68 102 148
64 95 123
66 101 148
69 105 148
68 104 148
69 106 168
68 102 148
67 102 148
73 109 168
72 108 168
63 98 136
70 106 158
64 97 123
66 100 136
65 97 148
73 109 178
66 101 136
68 103 158
66 99 136
70 105 148
67 102 123
64 98 108
68 104 148
67 101 136
66 102 123
69 104 136
66 100 123
68 103 148
70 104 123
62 96 123
67 101 136
65 101 123
64 97 108
74 110 178
70 106 148
68 102 136
61 94 123
73 109 168
70 107 168
74 109 168
66 99 148
67 101 136
68 101 108
64 96 65
64 98 123
67 101 89
71 106 136
58 89 108
65 99 123
70 105 136
63 96 108
64 97 136
68 103 123
63 96 89
63 96 65
63 97 89
68 104 136
65 100 89
65 97 123
61 94 108
127 144 65
133 147 0
158 175 0
102 113 0
91 105 0
118 132 0
137 154 0
99 119 0
156 170 0
116 135 0
95 105 0
118 120 0
122 135 0
139 152 0
124 138 0
148 165 0
117 134 0
131 153 0
160 179 0
120 134 0
144 163 0
90 106 0
139 153 0
142 153 0
131 141 0
149 163 0
175 193 0
162 180 0
132 149 0
118 131 0
145 164 0
160 173 0
124 138 0
131 151 0
144 155 0
148 161 0
148 164 0
136 151 0
142 151 0
144 158 0
157 174 0
144 159 0
135 143 0
152 166 0
132 146 0
160 176 0
144 159 0
149 161 0
142 158 0
145 155 0
150 172 0
126 135 0
147 165 0
141 151 0
163 179 0
151 167 0
131 145 0
143 163 0
111 114 0
97 99 0
121 136 0
130 150 0
140 147 0
141 154 0
154 170 0
165 178 0
165 178 0
141 159 0
128 132 0
163 184 0
133 148 0
147 163 0
162 180 0
149 167 0
148 160 0
154 169 0
159 172 0
133 151 0
124 135 0
155 169 0
138 156 0
147 160 0
109 119 0
139 145 0
163 180 0
150 162 0
143 153 0
133 143 0
143 162 0
128 137 0
150 161 0
142 154 0
142 162 0
132 151 0
161 165 0
117 130 0
130 136 0
179 199 0
144 156 0
153 169 0
157 175 0
150 161 0
148 161 0
159 178 0
168 185 0
140 151 0
152 168 0
146 160 0
158 170 0
155 169 0
135 148 0
143 157 0
163 177 0
178 192 0
140 156 0
172 193 0
162 177 0
174 187 0
167 184 0
154 168 0
153 160 0
163 180 0
144 151 0
155 169 0
137 149 0
158 169 0
157 168 0
146 165 0
154 153 0
150 159 0
168 183 0
165 184 0
162 176 0
157 172 0
160 176 0
168 185 0
171 190 0
141 151 0
161 178 0
167 183 0
159 178 0
167 185 0
144 158 0
154 171 0
174 196 0
167 188 0
150 165 0
160 176 0
150 163 0
172 194 0
171 193 0
184 205 89
169 192 123
179 200 89
168 188 0
167 192 0
163 184 0
167 187 0
174 197 89
175 199 0
171 196 123
176 197 0
169 192 0
156 176 89
181 205 123
180 202 0
175 196 89
172 196 89
176 201 89
163 186 0
170 193 89
163 186 89
166 189 89
149 170 0
172 194 89
168 193 0
156 179 0
170 194 0
154 175 0
171 192 0
163 187 89
153 177 89
162 185 89
156 176 0
154 177 89
165 186 0
158 180 0
175 197 89
153 176 0
168 190 89
167 189 89
155 175 0
149 167 89
154 174 0
146 168 89
182 201 89
175 197 89
175 196 89
177 197 0
172 195 89
178 199 89
157 179 89
143 161 0
168 192 0
131 152 89
158 177 123
137 155 89
143 162 0
149 171 123
184 206 89
152 174 108
82 102 123
82 107 108
71 89 89
110 134 173
109 134 148
107 126 148
95 116 108
123 144 136
82 101 123
89 114 123
50 76 89
84 103 123
39 61 89
90 112 136
104 123 136
77 88 108
87 106 148
105 119 108
77 87 108
76 101 123
58 87 142
87 108 136
65 97 148
101 121 136
111 132 148
85 114 158
93 118 148
61 94 158
117 138 191
115 139 186
87 107 123
117 140 148
121 146 202
102 121 89
81 103 108
92 113 148
107 128 158
60 90 136
87 110 136
88 106 148
52 78 123
64 97 148
72 108 168
71 108 178
68 102 158
68 102 158
68 103 168
70 107 168
98 123 168
84 110 148
64 99 148
86 116 172
64 97 148
83 106 141
102 118 120
72 107 158
65 99 136
67 103 123
65 98 158
71 108 168
62 94 148
59 92 123
66 100 136
65 97 136
63 98 136
70 105 148
60 90 123
89 120 148
61 92 108
89 118 123
68 103 158
67 103 136
59 91 108
65 98 108
67 102 136
69 105 136
65 99 108
65 99 136
64 97 123
66 100 163
72 107 158
68 103 148
57 89 123
63 96 136
63 96 108
67 103 136
61 93 136
70 106 158
60 93 65
61 94 123
63 97 89
60 94 136
70 107 168
67 101 148
67 101 136
58 89 108
69 105 148
66 100 136
70 106 158
71 106 158
69 104 136
63 98 123
70 105 148
68 102 158
67 101 136
63 97 108
68 104 136
68 103 123
73 109 168
68 103 123
66 102 123
71 106 148
67 103 136
70 105 148
69 105 148
71 107 158
71 107 148
66 102 136
54 82 89
65 99 123
72 107 158
69 105 148
63 96 136
72 108 158
71 106 148
70 106 148
71 107 158
70 104 158
71 106 136
68 104 136
68 104 148
55 86 108
67 100 136
72 108 158
67 102 123
67 101 136
65 99 158
69 105 148
63 97 136
67 102 123
72 108 158
64 98 108
71 107 158
64 98 108
68 103 123
67 102 123
69 103 123
69 104 136
66 101 108
71 106 136
66 100 123
64 98 108
70 106 148
67 102 136
67 101 136
68 104 136
64 98 148
68 102 108
68 103 123
65 101 108
63 97 123
65 98 108
68 102 108
72 107 148
68 102 148
62 95 108
62 95 123
66 99 148
70 105 136
66 101 136
68 102 148
71 107 158
67 101 136
70 105 148
63 96 108
67 102 108
63 95 123
69 103 148
66 99 123
58 92 89
69 104 158
70 105 136
61 93 89
64 97 89
64 97 108
64 98 108
62 93 93
65 96 123
97 107 0
121 138 0
132 145 0
99 113 0
101 114 0
119 136 0
140 156 0
87 97 0
107 122 0
129 138 0
138 154 0
111 127 0
166 182 0
116 128 0
161 173 0
128 143 0
103 120 0
135 144 0
106 121 0
146 160 0
131 146 0
91 107 0
137 155 0
145 163 0
145 157 0
131 149 0
144 160 0
144 158 0
130 146 0
127 149 0
115 131 0
159 175 0
146 158 0
125 147 0
110 116 0
121 133 0
163 181 0
133 155 0
176 195 0
150 170 0
127 146 0
134 138 0
91 108 0
124 136 0
152 168 0
151 164 0
152 168 0
147 166 0
153 167 0
116 127 0
125 141 0
126 143 0
135 141 0
155 167 0
134 148 0
131 141 0
142 156 0
150 165 0
160 174 0
153 166 0
133 150 0
128 137 0
149 163 0
125 132 0
165 176 0
151 163 0
95 106 0
158 173 0
157 172 0
165 179 0
149 159 0
144 157 0
142 162 0
155 168 0
166 179 0
144 159 0
139 146 0
126 142 0
150 166 0
129 135 0
139 149 0
164 181 0
158 176 0
157 171 0
156 175 0
151 167 0
167 179 0
169 178 0
156 170 0
143 153 0
134 152 0
132 154 0
171 189 0
148 165 0
168 184 0
137 149 0
131 147 0
162 173 0
157 169 0
160 170 0
138 151 0
178 191 0
158 170 0
153 169 0
117 128 0
150 166 0
116 132 0
133 148 0
172 184 0
162 182 0
146 152 0
158 168 0
150 159 0
167 181 0
156 170 0
150 164 0
122 134 0
158 174 0
168 181 0
165 183 0
167 181 0
148 158 0
166 183 0
172 192 0
174 190 0
167 183 0
165 178 0
178 198 0
155 165 0
157 171 0
158 173 0
159 178 0
162 179 0
171 187 0
152 168 0
178 192 0
158 177 0
146 164 0
165 182 0
176 192 0
168 175 0
164 182 0
179 199 0
163 175 0
158 176 0
151 168 0
175 189 0
159 173 0
148 167 0
169 185 0
182 204 89
180 202 0
183 205 89
163 184 89
183 205 89
156 176 0
157 178 89
166 190 0
161 184 0
155 180 123
172 194 0
157 177 89
161 185 89
173 196 89
168 190 89
150 172 0
152 176 0
181 204 89
155 179 123
168 192 0
169 190 89
177 197 0
166 190 123
172 193 0
167 186 0
166 187 0
184 204 0
146 164 0
157 177 0
163 186 0
165 189 123
172 193 0
179 202 0
181 203 0
176 199 0
162 184 0
168 189 89
162 186 123
172 194 0
141 163 0
154 175 0
174 197 89
143 167 0
169 190 89
163 184 89
153 176 0
157 176 0
184 207 123
162 185 0
157 182 123
150 169 0
141 162 123
157 181 123
154 171 0
159 179 0
160 180 89
167 188 0
175 194 0
178 199 89
173 196 89
164 186 0
126 146 89
97 120 108
54 83 108
106 135 148
138 160 168
49 74 65
53 84 123
125 151 178
120 142 108
102 117 136
102 119 136
61 90 123
83 106 108
88 111 123
108 129 136
82 102 136
45 70 108
113 136 158
77 96 108
127 144 158
80 99 108
55 80 123
63 93 148
100 118 136
59 88 148
53 79 123
76 93 108
91 111 158
53 81 108
106 130 136
109 132 108
93 119 178
85 107 89
105 124 136
118 143 158
109 124 152
100 125 123
64 97 158
108 126 141
131 150 152
67 102 168
88 106 148
63 96 148
65 101 158
120 143 178
67 102 148
71 107 168
67 102 158
65 98 158
68 104 148
99 125 148
90 113 128
89 117 168
64 99 148
89 113 114
82 106 141
71 106 158
63 97 136
66 101 148
71 108 178
69 104 148
66 99 158
69 105 148
69 102 148
61 91 136
64 96 89
66 101 142
69 104 136
68 102 148
59 88 108
64 96 148
61 92 136
86 113 89
67 102 158
70 106 158
64 97 148
66 100 136
62 95 108
64 98 148
65 99 136
66 101 148
72 108 158
63 96 123
60 92 108
70 105 136
63 97 108
64 98 136
63 96 142
67 102 123
66 99 123
69 105 148
65 99 136
67 101 148
66 99 136
66 100 136
64 99 89
59 89 123
66 100 123
63 96 89
68 100 123
66 102 123
70 106 158
64 98 136
66 98 108
67 101 148
68 103 123
67 102 123
66 99 123
70 106 148
70 107 168
65 99 136
68 104 148
72 107 158
66 100 123
68 104 148
66 100 123
65 101 136
66 99 123
69 104 123
69 104 136
71 106 148
68 102 136
66 102 123
67 100 136
62 92 123
69 104 136
66 101 148
64 99 136
67 101 136
66 101 108
66 102 136
69 106 158
66 102 136
70 106 158
68 104 148
74 110 168
64 97 108
70 106 148
67 102 123
65 98 136
69 104 136
69 104 136
68 102 136
71 107 158
67 101 123
67 102 148
69 105 148
70 106 148
70 105 136
73 108 158
66 100 123
70 106 148
72 108 168
67 100 148
68 102 108
65 97 123
68 103 148
68 103 123
69 103 136
62 94 108
65 97 136
58 89 108
60 92 108
65 100 108
64 98 148
70 105 136
72 107 148
65 101 108
71 106 148
64 99 65
65 97 123
69 105 148
67 102 108
68 102 136
70 106 158
66 102 123
66 100 123
67 101 136
65 99 123
67 101 89
63 97 108
58 92 108
65 99 123
68 103 123
63 96 136
63 96 123
54 83 108
65 97 123
107 119 0
114 122 0
113 130 0
99 113 0
127 143 0
108 121 0
144 162 0
123 137 0
127 145 0
93 106 0
121 136 0
142 158 0
102 110 0
122 138 0
158 168 0
127 142 0
123 138 0
135 153 0
110 124 0
147 169 0
112 126 0
126 139 0
125 144 0
146 164 0
106 117 0
128 144 0
106 122 0
85 98 0
128 140 0
101 117 0
128 144 0
94 105 0
162 184 0
118 130 0
152 168 0
134 151 0
134 152 0
146 164 0
131 150 0
131 147 0
116 130 0
153 173 0
134 153 0
164 176 0
113 125 0
149 168 0
151 167 0
138 158 0
131 135 0
126 142 0
102 112 0
121 136 0
132 152 0
140 149 0
112 124 0
157 177 0
154 159 0
145 160 0
138 150 0
136 148 0
146 162 0
138 150 0
138 142 0
125 135 0
145 161 0
134 151 0
156 175 0
162 183 0
109 116 0
140 157 0
148 151 0
118 131 0
144 154 0
159 168 0
151 165 0
130 137 0
152 164 0
143 162 0
134 148 0
142 156 0
146 158 0
158 174 0
120 132 0
138 151 0
160 177 0
146 157 0
129 142 0
167 184 0
147 161 0
168 180 0
130 143 0
178 195 0
149 164 0
145 156 0
128 137 0
164 182 0
158 171 0
105 121 0
166 187 0
158 176 0
146 153 0
140 155 0
155 175 0
170 182 0
131 144 0
166 186 0
119 132 0
146 161 0
169 180 0
154 171 0
169 191 0
151 170 0
161 173 0
142 153 0
131 143 0
166 185 0
174 191 0
167 183 0
159 172 0
173 190 0
162 175 0
154 168 0
146 162 0
151 169 0
168 184 0
174 189 0
155 171 0
131 145 0
142 152 0
148 163 0
159 174 0
134 144 0
168 188 0
172 189 0
177 191 0
163 181 0
153 163 0
127 137 0
165 176 0
173 186 0
177 194 0
166 180 0
131 145 0
165 186 0
156 169 0
167 182 0
169 181 0
175 195 0
183 201 0
169 183 0
168 177 0
173 199 148
183 205 89
175 196 0
185 205 0
174 195 0
173 197 123
162 185 89
160 184 89
172 194 0
158 176 0
177 201 0
180 203 89
162 184 89
184 205 89
174 198 123
159 179 0
181 206 148
142 163 89
176 198 89
171 193 0
174 199 148
155 176 0
166 191 0
155 178 0
161 182 89
143 164 0
149 171 89
184 207 123
178 201 0
161 184 0
156 179 89
174 195 89
180 202 0
141 166 0
177 201 0
177 198 89
152 174 89
187 208 123
175 196 0
173 196 89
174 195 0
169 189 0
170 192 0
136 155 0
175 197 89
155 175 0
148 168 89
181 203 0
167 188 89
144 164 0
141 164 0
179 200 123
169 190 89
143 166 89
179 203 89
173 194 0
179 201 148
153 172 123
121 142 0
158 182 0
180 196 89
174 194 123
171 189 89
96 116 89
58 88 108
61 92 148
84 105 142
120 138 168
127 148 178
94 121 148
83 104 123
50 74 123
120 139 158
87 116 136
90 114 123
54 80 123
52 78 123
96 115 65
87 108 136
81 106 108
84 108 136
125 142 158
82 109 148
54 81 136
107 124 136
111 131 158
76 98 123
90 110 148
112 130 168
87 114 158
107 124 136
78 89 108
76 92 89
88 109 136
119 138 123
114 132 148
53 83 136
93 115 108
74 93 65
62 93 108
63 82 114
90 110 148
59 89 136
80 95 108
79 103 123
100 127 168
66 101 158
101 128 178
138 159 186
99 127 168
122 144 178
68 104 136
69 105 178
66 100 148
63 95 136
70 105 148
88 108 141
93 114 152
97 109 97
57 86 136
67 102 158
68 105 158
69 105 158
60 91 123
64 99 136
67 102 158
70 106 158
60 91 136
65 99 136
58 89 89
86 110 142
88 116 123
58 88 108
82 107 136
82 109 89
62 98 89
69 105 158
70 105 148
70 106 178
63 97 108
66 101 108
69 105 148
66 100 136
67 100 136
63 96 136
66 100 136
65 97 108
65 99 123
59 91 108
68 103 136
63 97 148
73 108 158
65 99 123
67 102 108
66 98 123
73 109 168
62 94 123
66 100 136
66 101 108
65 99 123
61 96 108
64 98 136
66 103 148
66 101 136
67 101 158
67 101 148
68 103 136
67 103 163
68 103 136
65 100 136
65 99 123
71 106 148
64 99 136
66 101 148
71 107 158
73 107 136
71 106 148
64 98 123
65 100 89
67 102 148
70 106 158
69 104 136
65 99 108
70 106 158
70 106 158
68 104 136
69 105 148
65 99 108
64 98 108
67 101 136
72 108 158
69 103 123
67 101 108
68 104 148
70 105 148
70 105 148
69 105 148
68 104 136
63 96 123
69 104 123
69 103 123
68 104 148
64 97 108
70 107 168
64 97 89
73 109 158
67 102 123
64 98 123
67 101 136
71 107 158
67 102 136
66 100 123
68 103 136
66 100 136
69 103 148
71 106 148
60 92 89
70 106 148
59 90 108
62 94 108
69 104 136
66 100 123
72 108 168
62 96 89
69 104 136
71 108 178
63 98 123
66 99 89
63 95 123
68 104 136
71 106 136
66 100 136
70 106 158
69 105 136
59 92 108
68 102 108
68 104 148
59 91 89
66 100 123
62 95 108
69 104 136
58 89 108
59 91 89
53 82 65
63 94 108
69 104 136
58 88 89
59 89 108
94 109 65
127 138 0
127 144 0
143 159 0
130 144 0
93 108 0
106 123 0
104 117 0
117 131 0
120 136 0
140 156 0
129 143 0
118 133 0
132 151 0
163 178 0
155 170 0
117 137 0
110 126 0
156 166 0
96 110 0
92 109 0
131 143 0
124 142 0
171 190 0
132 152 0
132 145 0
116 131 0
149 165 0
146 162 0
124 135 0
120 140 0
116 136 0
138 152 0
137 154 0
130 147 0
149 158 0
156 168 0
156 170 0
131 145 0
126 144 0
141 151 0
150 167 0
161 179 0
136 150 0
78 90 0
141 158 0
135 152 0
168 184 0
150 169 0
154 166 0
149 166 0
149 163 0
131 146 0
168 185 0
118 130 0
153 171 0
101 115 0
143 164 0
151 165 0
133 148 0
133 150 0
131 148 0
136 153 0
120 139 0
150 159 0
130 139 0
145 152 0
147 166 0
139 150 0
165 182 0
138 152 0
170 189 0
129 143 0
170 186 0
121 134 0
158 173 0
147 157 0
125 140 0
129 148 0
172 188 0
142 152 0
138 154 0
137 154 0
160 171 0
158 177 0
158 172 0
180 200 0
149 163 0
151 165 0
148 161 0
144 156 0
133 143 0
160 180 0
130 145 0
160 180 0
152 167 0
147 156 0
156 171 0
140 154 0
156 168 0
151 168 0
87 98 0
157 173 0
144 155 0
144 152 0
129 140 0
164 175 0
152 173 0
141 153 0
137 154 0
143 160 0
175 188 0
131 141 0
138 158 0
144 160 0
160 174 0
169 183 0
163 176 0
168 182 0
156 176 0
153 164 0
165 177 0
153 168 0
146 158 0
157 174 0
162 177 0
143 155 0
157 173 0
169 189 0
164 185 0
173 190 0
160 178 0
151 163 0
160 174 0
162 183 0
161 178 0
173 187 0
159 178 0
149 159 0
177 194 0
158 178 0
179 193 0
165 186 0
176 194 0
174 189 0
151 163 0
171 188 0
150 167 0
171 190 0
167 188 0
157 176 0
177 193 0
185 205 0
170 194 89
176 197 0
163 184 0
179 204 123
142 165 0
173 193 0
164 187 123
178 201 0
178 202 89
168 192 89
182 204 89
171 194 89
157 180 89
177 198 89
147 165 0
159 180 89
177 201 0
159 183 0
168 189 0
171 195 89
152 177 89
171 195 89
159 182 0
175 197 89
152 177 89
165 188 123
170 194 0
156 179 89
165 187 0
162 184 0
177 198 89
174 192 0
182 203 0
159 182 0
154 176 0
162 184 0
157 180 123
160 182 0
153 175 0
149 171 89
167 186 89
167 192 0
161 182 0
161 180 0
182 204 89
173 196 89
161 180 89
165 189 123
159 179 89
146 166 0
159 179 0
172 193 0
159 181 89
161 180 148
167 189 89
127 144 0
146 164 89
172 194 0
177 198 123
140 162 123
143 164 0
156 178 123
143 164 0
87 111 136
120 142 158
117 136 136
99 118 108
37 58 65
95 116 89
55 84 123
110 134 123
110 134 168
106 125 136
136 156 148
96 112 108
88 109 148
103 131 136
80 107 89
128 150 173
85 108 123
137 159 186
138 158 178
117 134 148
91 117 158
59 90 136
90 113 158
87 105 136
125 142 108
115 135 168
106 128 148
88 106 148
53 79 123
56 85 129
133 153 158
116 137 178
77 100 108
56 85 136
51 78 123
82 110 136
108 132 168
66 100 148
78 101 108
64 97 158
67 100 158
61 93 123
66 100 148
122 145 195
67 102 168
71 107 158
60 90 123
100 127 168
70 105 148
65 99 136
90 114 128
94 114 128
107 123 128
66 101 148
68 104 158
89 112 97
67 102 123
66 103 148
64 98 136
70 105 148
61 92 108
74 110 178
67 102 158
70 105 168
61 94 136
63 96 129
68 103 158
62 95 123
66 99 158
62 95 136
70 106 158
63 98 123
65 99 148
62 95 136
63 95 136
66 100 136
67 101 136
72 108 168
67 101 136
66 102 123
63 96 136
61 95 65
69 104 136
68 104 136
62 94 123
64 99 136
62 94 148
68 102 136
71 106 148
67 101 123
65 99 123
69 103 148
68 103 123
65 97 148
63 94 108
59 93 65
65 96 123
71 107 158
69 104 123
67 102 123
67 102 148
69 104 136
68 103 123
71 106 148
67 102 158
63 96 136
66 101 108
71 107 158
66 101 148
71 106 148
69 105 158
67 102 148
62 97 123
69 105 148
63 96 136
70 104 158
66 100 136
58 88 108
68 103 136
67 100 108
69 105 148
64 96 123
66 99 123
59 89 123
65 99 123
71 107 158
70 105 148
63 97 108
68 103 123
69 104 136
70 104 148
66 101 108
66 101 123
69 104 136
65 99 148
65 101 108
67 103 136
72 108 168
68 105 158
66 100 89
66 101 108
66 101 148
64 98 65
69 105 148
59 92 108
71 106 148
67 103 123
67 102 148
69 103 148
65 99 123
67 101 123
72 107 148
69 103 136
65 99 123
68 103 108
63 98 123
71 106 148
60 93 108
70 105 148
67 103 136
64 98 108
66 100 123
63 97 108
56 88 89
64 99 136
64 98 123
70 105 136
69 104 123
72 108 168
71 106 148
61 93 136
71 106 148
67 102 148
69 104 123
66 100 123
62 93 65
68 104 136
65 100 123
59 90 65
64 99 123
69 105 148
69 105 148
65 98 123
136 152 0
107 123 0
119 131 0
141 158 0
142 155 0
111 123 0
109 126 0
143 158 0
138 153 0
152 168 0
108 128 0
91 107 0
152 167 0
124 139 0
89 104 0
119 131 0
133 150 0
138 155 0
121 134 0
149 166 0
143 158 0
98 110 0
134 145 0
128 139 0
140 160 0
169 184 0
123 144 0
104 122 0
129 150 0
162 177 0
127 143 0
126 143 0
134 147 0
113 119 0
135 153 0
139 156 0
134 153 0
117 131 0
145 159 0
130 151 0
132 148 0
142 153 0
127 143 0
154 171 0
149 161 0
113 127 0
128 144 0
138 156 0
96 114 0
124 141 0
156 168 0
158 169 0
141 161 0
173 191 0
141 154 0
138 162 0
122 141 0
129 142 0
133 153 0
120 133 0
124 140 0
157 171 0
137 153 0
164 182 0
119 127 0
131 138 0
141 157 0
133 148 0
136 155 0
150 168 0
150 172 0
133 149 0
125 138 0
105 119 0
160 178 0
139 150 0
167 183 0
126 139 0
173 194 0
135 151 0
135 152 0
160 177 0
123 133 0
146 162 0
155 177 0
140 157 0
160 170 0
166 187 0
161 175 0
167 183 0
151 156 0
134 147 0
159 177 0
148 162 0
164 178 0
136 153 0
158 175 0
105 121 0
155 167 0
159 170 0
160 171 0
147 155 0
170 189 0
159 179 0
142 156 0
139 155 0
168 186 0
150 154 0
160 177 0
157 173 0
159 177 0
143 155 0
156 172 0
147 162 0
161 178 0
140 153 0
149 158 0
146 164 0
152 165 0
153 168 0
137 152 0
178 191 0
179 195 0
178 195 0
142 154 0
168 182 0
184 204 0
173 190 0
141 153 0
159 175 0
154 172 0
162 179 0
175 190 0
171 189 0
144 165 0
169 184 0
149 163 0
169 185 0
166 184 0
152 168 0
156 172 0
176 191 0
164 181 0
173 191 0
175 193 0
138 146 0
146 164 0
170 186 0
167 183 0
161 173 0
175 193 0
159 179 0
169 185 0
180 204 123
165 185 0
173 197 89
180 203 89
163 186 89
176 198 89
150 175 0
171 190 89
171 191 0
167 189 89
157 176 0
180 204 123
174 196 0
173 199 0
169 188 0
170 195 123
183 207 148
180 202 0
166 190 123
175 197 148
178 197 89
175 197 89
154 177 89
165 188 89
175 196 0
163 187 148
177 199 89
180 203 89
164 186 0
173 195 0
173 197 123
158 178 0
163 187 123
169 191 123
165 188 123
151 171 148
184 205 89
155 177 89
182 206 123
171 194 0
169 193 0
163 184 0
163 186 0
175 197 89
155 173 89
154 177 89
149 170 89
147 168 89
157 179 89
152 175 148
148 168 0
158 181 123
165 184 0
163 180 0
169 190 89
156 179 89
161 182 89
150 170 89
173 195 89
174 194 0
167 188 89
157 178 0
169 191 123
135 155 123
105 130 136
102 122 108
77 93 115
97 117 123
99 122 123
90 116 136
83 108 65
85 107 136
118 140 123
60 91 136
50 75 89
47 71 108
47 71 108
60 90 136
87 108 148
107 133 148
49 75 108
51 76 89
92 118 123
63 95 123
79 98 99
103 123 108
93 116 158
85 114 158
107 130 148
51 77 108
109 124 148
85 114 158
94 118 148
107 127 148
67 103 168
109 121 148
145 163 178
107 130 108
60 91 136
75 102 128
102 120 148
115 134 178
87 104 123
80 103 136
52 80 89
55 82 136
69 105 158
100 127 168
101 128 178
121 144 186
100 127 168
95 118 158
102 129 178
73 110 178
73 109 168
66 100 148
70 105 136
61 93 123
71 107 158
73 109 178
66 102 158
67 103 136
62 94 123
68 103 136
70 105 178
64 99 136
61 94 136
63 96 136
62 95 123
90 118 148
69 104 136
64 96 136
68 100 148
81 109 108
91 121 148
79 106 65
66 99 148
66 100 136
54 84 89
69 105 148
63 96 136
70 105 148
61 92 89
67 101 136
66 101 148
69 104 136
64 98 123
64 98 148
53 83 108
69 103 158
64 96 148
60 91 108
71 105 158
63 97 108
67 102 163
65 99 123
65 99 123
67 101 148
62 95 136
67 102 123
68 103 123
70 104 158
67 102 158
63 96 108
65 99 136
67 102 123
68 103 123
67 103 148
60 90 89
70 105 136
71 106 148
68 101 136
64 97 108
70 105 148
67 101 136
64 97 123
71 107 178
68 102 108
70 105 158
68 103 123
55 86 65
65 98 108
69 104 136
66 100 136
71 106 136
68 104 148
65 97 136
69 105 148
65 99 123
69 104 136
66 101 108
69 104 136
66 99 108
66 102 123
67 103 136
65 101 108
65 99 123
68 102 136
68 104 136
66 99 108
69 103 148
70 105 136
65 100 108
64 99 123
68 102 148
67 100 136
66 100 123
69 102 136
65 99 136
63 96 136
66 101 108
64 100 108
73 109 168
64 97 108
72 107 148
65 98 123
72 108 158
63 95 123
68 103 148
63 94 136
63 95 123
71 107 158
66 98 136
70 105 136
70 105 136
66 98 108
69 104 136
67 101 123
62 96 89
64 97 108
59 90 108
67 101 136
63 96 123
70 105 136
68 102 136
67 101 148
68 102 108
53 81 65
61 93 89
63 96 136
61 93 123
65 99 89
61 93 89
69 105 148
62 95 108
56 86 65
111 128 65
96 113 0
95 114 0
143 158 0
112 129 0
119 136 0
119 130 0
164 177 0
125 140 0
118 135 0
118 130 0
147 160 0
147 162 0
107 124 0
129 143 0
108 121 0
126 144 0
130 138 0
147 161 0
124 139 0
78 99 0
92 106 0
96 114 0
114 129 0
176 196 0
127 146 0
145 163 0
136 153 0
121 135 0
135 153 0
119 130 0
114 132 0
141 158 0
167 187 0
141 155 0
121 139 0
165 185 0
170 189 0
153 170 0
138 150 0
160 180 0
134 150 0
93 113 0
133 153 0
119 134 0
100 112 0
156 177 0
127 141 0
136 156 0
133 147 0
155 167 0
140 155 0
141 159 0
176 194 0
143 160 0
111 124 0
143 154 0
153 170 0
122 128 0
137 147 0
112 126 0
149 158 0
153 164 0
150 162 0
132 151 0
131 145 0
145 160 0
154 171 0
154 167 0
123 140 0
165 182 0
166 183 0
145 156 0
153 172 0
157 176 0
155 177 0
123 140 0
150 165 0
155 169 0
154 166 0
145 153 0
156 172 0
119 133 0
143 159 0
154 169 0
139 161 0
160 179 0
157 172 0
162 177 0
132 147 0
136 145 0
155 172 0
166 185 0
138 153 0
138 151 0
140 161 0
156 169 0
167 180 0
129 143 0
167 182 0
156 170 0
142 153 0
156 171 0
151 170 0
157 173 0
140 157 0
168 188 0
164 181 0
147 161 0
177 196 0
135 155 0
161 176 0
153 160 0
145 159 0
139 156 0
166 184 0
161 176 0
174 191 0
165 177 0
148 159 0
149 164 0
167 187 0
167 181 0
165 182 0
169 186 0
149 164 0
138 153 0
174 195 0
153 165 0
141 154 0
143 160 0
163 177 0
153 165 0
186 205 0
161 170 0
183 198 0
173 195 0
161 175 0
171 190 0
137 146 0
151 165 0
184 201 0
168 184 0
166 179 0
177 197 0
170 190 0
168 187 0
148 166 0
169 186 0
145 153 0
161 177 0
179 199 0
150 160 0
172 191 0
183 205 89
182 203 123
179 203 89
165 189 123
170 193 0
183 205 89
163 186 89
173 194 89
177 200 0
172 196 89
163 184 0
179 203 89
176 196 0
165 185 89
175 197 89
180 204 89
162 184 0
183 211 202
165 188 89
155 175 89
162 185 0
162 185 0
182 206 123
171 195 89
174 197 89
173 196 0
176 199 123
170 196 123
170 195 89
167 187 0
177 198 89
163 185 0
150 172 0
163 189 123
172 196 89
179 200 123
175 196 89
172 197 123
147 167 0
171 192 0
160 184 0
172 194 89
176 200 123
169 189 89
153 176 89
136 160 89
161 181 0
153 172 0
155 173 0
177 199 89
158 179 89
147 169 89
180 204 123
154 175 0
164 188 89
166 187 0
154 175 0
177 197 89
149 165 89
167 187 89
167 188 89
168 189 89
153 175 89
147 168 89
125 149 0
127 147 123
54 82 89
121 140 136
87 111 136
102 117 123
81 101 108
94 117 65
92 114 123
94 116 108
93 121 168
102 122 136
110 130 158
49 76 89
104 119 108
96 117 108
112 135 178
76 98 123
128 143 158
75 99 108
108 129 108
107 127 148
62 96 148
61 93 123
100 124 123
114 137 178
108 127 136
52 79 123
113 130 158
90 113 148
82 107 123
98 119 123
107 129 136
120 140 148
74 96 108
113 139 123
139 158 148
104 130 148
85 111 123
65 100 148
97 119 108
105 123 136
66 99 158
97 124 148
99 127 178
64 97 148
64 99 136
72 108 168
71 107 158
64 96 136
74 110 186
101 119 145
82 109 158
81 105 108
105 117 120
105 124 152
95 119 136
70 106 158
66 102 168
71 108 168
66 100 136
63 97 123
66 100 136
66 101 148
70 104 148
60 90 123
66 100 136
63 95 136
62 92 136
62 95 136
100 125 123
89 117 108
71 106 158
69 104 136
59 90 65
60 93 108
70 105 178
59 90 89
59 89 108
59 91 108
66 100 108
69 104 136
67 100 136
72 107 168
68 102 108
70 106 148
64 98 148
68 104 136
62 94 115
67 102 158
66 101 123
59 92 108
67 102 123
62 95 123
67 102 123
72 108 168
68 102 136
68 102 136
71 108 178
63 96 123
67 102 123
63 97 108
63 97 108
66 100 108
64 98 108
69 104 168
64 98 136
68 102 136
65 99 89
68 101 136
73 108 158
68 103 123
70 105 136
69 105 148
66 101 108
66 100 89
66 100 136
67 101 136
68 101 136
65 99 123
65 100 136
64 98 123
64 97 148
63 97 108
59 91 89
72 108 168
63 98 108
64 99 89
69 105 148
73 109 168
66 100 136
70 106 148
69 104 136
63 97 108
66 100 136
66 101 89
72 107 148
67 101 123
69 104 136
63 96 123
68 103 123
68 102 89
72 107 158
68 104 136
68 103 136
69 104 136
67 102 108
67 102 123
62 93 136
66 101 108
72 108 168
71 107 158
66 101 136
68 102 136
66 100 136
63 95 123
63 97 108
69 104 123
66 101 123
67 101 136
67 101 148
64 99 136
63 98 108
61 93 108
63 97 89
62 96 89
66 101 108
65 99 108
63 96 136
62 95 123
61 94 108
66 100 123
68 103 123
62 94 89
63 97 89
68 102 136
65 98 108
63 97 89
66 99 136
69 103 108
51 79 65
125 141 0
127 141 0
126 139 0
131 147 0
148 163 0
146 162 0
126 137 0
143 163 0
135 155 0
111 124 0
107 120 0
124 137 0
131 147 0
107 119 0
150 165 0
123 144 0
131 147 0
145 161 0
133 150 0
126 143 0
140 152 0
123 140 0
157 175 0
116 135 0
152 167 0
109 126 0
150 172 0
110 118 0
135 149 0
103 119 0
120 135 0
149 166 0
130 144 0
145 164 0
127 146 0
133 145 0
130 147 0
146 164 0
136 153 0
134 148 0
127 141 0
132 140 0
132 144 0
108 122 0
105 118 0
166 183 0
130 144 0
124 136 0
130 146 0
151 169 0
130 150 0
150 166 0
116 134 0
168 183 0
107 124 0
157 177 0
156 170 0
120 140 0
166 184 0
133 147 0
154 174 0
137 156 0
147 160 0
147 164 0
153 173 0
141 157 0
153 172 0
151 168 0
138 146 0
141 159 0
145 166 0
147 158 0
144 159 0
128 143 0
156 170 0
160 172 0
120 140 0
148 164 0
166 183 0
154 172 0
155 169 0
122 133 0
165 181 0
146 159 0
154 174 0
166 185 0
133 148 0
136 148 0
126 141 0
137 152 0
167 185 0
169 188 0
157 171 0
140 155 0
142 162 0
126 137 0
154 174 0
138 151 0
169 185 0
145 159 0
149 161 0
149 166 0
172 186 0
168 182 0
135 155 0
145 161 0
153 160 0
140 154 0
156 172 0
154 173 0
127 133 0
146 163 0
144 151 0
159 170 0
137 149 0
137 148 0
154 173 0
150 165 0
179 198 0
150 164 0
168 177 0
138 155 0
124 126 0
152 169 0
145 157 0
164 174 0
152 164 0
165 174 0
169 186 0
149 171 0
169 186 0
141 156 0
168 188 0
169 187 0
172 189 0
170 187 0
153 169 0
160 174 0
169 183 0
148 166 0
162 176 0
159 167 0
175 197 0
150 168 0
160 174 0
158 171 0
172 188 0
149 165 0
166 184 0
165 177 0
174 190 0
155 171 0
156 171 0
160 175 0
133 152 0
179 203 89
171 195 89
174 195 0
172 193 0
176 201 89
165 188 123
170 192 0
176 199 0
165 187 89
160 182 0
180 203 89
173 195 0
161 185 89
162 184 0
179 203 89
166 189 89
167 190 123
179 203 89
171 195 89
183 208 148
161 184 89
146 169 0
183 204 0
184 207 123
167 189 89
163 183 0
173 195 89
165 188 123
178 201 0
172 194 89
165 190 148
166 186 0
152 174 0
167 188 0
163 185 0
156 179 123
155 176 0
163 184 89
165 185 0
172 194 0
177 196 0
173 195 0
164 187 89
181 200 89
178 199 89
168 192 148
138 160 89
149 170 89
154 175 0
175 196 0
176 199 123
181 205 123
156 178 0
171 195 89
167 185 0
174 197 89
172 194 0
146 170 89
175 195 123
122 143 0
157 178 89
165 185 0
167 188 0
134 156 89
155 175 89
141 161 123
108 124 108
58 88 108
96 112 108
78 100 89
85 106 136
111 134 158
69 86 89
85 108 108
64 97 148
92 120 148
99 116 89
77 98 108
54 85 108
113 136 178
92 116 168
89 117 148
117 140 136
90 114 158
78 104 108
50 77 108
116 140 178
88 112 148
101 119 136
91 116 148
52 79 136
76 98 123
89 107 148
124 141 136
112 140 123
111 126 158
115 141 148
95 120 168
117 138 178
104 127 123
101 126 108
148 163 158
113 129 158
59 89 123
126 141 148
60 91 148
63 96 136
98 125 178
99 126 158
71 107 168
72 108 168
70 104 148
67 101 148
97 120 158
111 130 152
64 97 108
71 106 148
65 99 136
64 97 158
68 103 168
66 99 168
64 99 136
68 105 168
63 96 148
70 106 158
66 99 123
58 90 89
65 98 123
66 101 89
67 100 136
63 96 89
68 102 158
65 99 123
63 97 108
58 89 123
104 128 123
62 94 123
66 99 136
69 105 148
63 96 148
66 101 148
70 103 158
68 104 148
63 97 108
68 104 136
57 87 89
70 105 148
66 101 136
60 90 123
61 94 123
66 100 136
69 106 158
66 101 136
67 100 136
69 104 136
69 105 148
61 93 89
62 94 148
71 106 148
51 80 108
71 107 168
70 105 136
63 96 136
72 108 168
69 105 148
68 103 123
72 108 158
62 95 136
68 103 123
75 110 168
72 107 158
67 102 123
69 103 158
65 99 108
68 104 148
68 103 136
73 109 178
69 105 148
69 104 168
66 99 136
72 108 168
67 103 168
64 98 108
69 105 148
62 96 108
64 97 89
67 102 148
62 95 123
68 103 123
63 95 123
61 93 89
67 103 136
64 98 108
68 102 136
63 95 123
65 100 123
68 102 108
62 94 123
67 101 136
68 104 136
65 98 108
65 98 123
70 106 158
67 102 123
67 103 136
65 100 136
67 100 123
67 101 136
66 100 136
69 104 136
67 100 136
65 99 108
67 100 136
70 105 148
69 104 123
64 99 89
69 104 148
67 101 136
67 100 136
65 97 123
58 91 136
66 100 89
68 102 148
69 105 136
67 101 136
67 101 136
68 103 158
66 98 108
65 98 123
61 93 0
68 103 123
66 99 148
63 95 136
68 103 123
60 91 123
71 106 148
67 101 136
63 96 89
65 100 89
52 81 65
61 91 89
60 92 89
64 98 108
84 111 123
101 113 0
126 144 0
98 113 0
122 126 0
139 153 0
155 166 0
159 175 0
86 99 0
126 139 0
123 137 0
107 119 0
111 119 0
138 154 0
108 117 0
101 116 0
149 166 0
154 173 0
119 133 0
135 159 0
162 176 0
127 143 0
91 113 0
136 146 0
155 174 0
125 137 0
116 128 0
128 137 0
120 136 0
167 185 0
103 119 0
139 151 0
150 170 0
111 129 0
146 163 0
107 115 0
130 146 0
157 174 0
155 175 0
143 160 0
130 147 0
158 174 0
141 155 0
132 147 0
116 124 0
119 135 0
131 144 0
150 165 0
136 155 0
132 144 0
152 171 0
148 163 0
147 166 0
176 200 0
124 141 0
138 161 0
158 171 0
146 163 0
156 174 0
135 154 0
115 132 0
136 153 0
175 193 0
150 161 0
150 166 0
158 175 0
112 121 0
136 154 0
140 159 0
167 184 0
119 130 0
144 156 0
172 187 0
143 158 0
164 182 0
148 166 0
133 148 0
129 144 0
163 184 0
155 167 0
144 153 0
158 180 0
145 159 0
140 155 0
124 137 0
129 133 0
169 186 0
129 141 0
151 166 0
126 135 0
123 140 0
166 186 0
169 193 0
160 171 0
160 174 0
134 150 0
152 165 0
148 168 0
171 191 0
154 172 0
176 194 0
137 153 0
161 179 0
146 159 0
146 161 0
109 125 0
141 153 0
155 167 0
156 174 0
150 169 0
157 170 0
150 166 0
156 175 0
142 166 0
172 184 0
151 165 0
154 168 0
159 171 0
162 183 0
149 161 0
165 182 0
159 174 0
155 171 0
166 183 0
163 177 0
155 175 0
142 158 0
165 180 0
141 158 0
133 141 0
158 172 0
162 179 0
164 185 0
148 163 0
164 177 0
149 167 0
153 165 0
144 154 0
149 162 0
133 145 0
160 175 0
166 187 0
164 182 0
140 159 0
176 188 0
173 190 0
142 154 0
165 184 0
170 189 0
153 171 0
154 174 0
162 181 0
177 197 0
161 185 0
165 179 0
177 198 0
173 188 0
172 190 0
170 195 89
178 202 89
175 198 89
175 200 148
167 188 0
178 201 0
177 199 89
179 201 0
178 201 0
157 180 123
158 181 123
162 182 123
163 187 89
180 202 0
179 203 89
167 188 0
156 175 0
188 207 89
152 176 89
162 187 89
177 202 89
162 186 0
160 182 0
140 161 0
140 164 0
155 177 0
175 194 89
180 204 89
180 202 0
148 169 0
177 198 123
167 189 89
168 188 0
173 196 89
165 187 0
154 174 0
159 185 89
163 186 0
172 189 0
170 193 89
161 181 0
136 156 0
167 189 123
161 180 89
158 179 89
162 181 123
165 185 0
157 180 123
169 189 89
146 166 0
183 204 0
163 183 89
158 179 89
157 180 89
146 167 0
159 181 89
145 166 0
119 139 0
145 162 123
155 176 0
138 160 0
137 156 89
145 164 0
157 180 89
129 151 89
176 197 89
109 134 148
134 155 108
99 122 65
83 103 123
105 122 136
77 100 108
84 105 99
122 149 168
79 103 136
108 127 158
82 102 123
88 109 136
104 123 136
83 108 136
78 95 65
114 136 178
93 118 158
76 87 108
64 93 136
46 70 108
130 152 108
99 117 123
73 96 108
129 144 168
92 113 136
64 96 136
112 129 158
98 124 168
143 160 178
95 118 89
113 136 108
88 108 136
114 133 178
100 125 123
92 123 168
90 110 123
103 123 148
70 89 89
85 107 136
48 74 89
94 117 148
99 127 178
71 105 158
67 104 158
64 98 123
67 102 123
96 120 158
99 125 148
65 99 136
60 90 123
125 138 150
71 107 158
67 101 136
67 103 123
78 103 136
67 101 148
68 104 148
70 106 148
67 101 148
69 103 158
69 105 136
63 96 108
87 117 148
67 100 148
59 90 123
89 117 136
68 104 148
60 91 89
88 116 136
62 95 89
68 103 123
64 99 129
63 95 123
63 95 123
62 95 89
67 102 123
65 99 123
68 102 108
68 104 158
63 96 123
66 101 123
67 103 158
63 98 158
64 98 108
62 94 108
69 104 136
65 98 123
66 99 108
67 99 136
64 99 136
71 107 158
67 103 123
67 102 123
69 104 136
66 101 108
65 100 89
64 98 108
62 95 136
69 104 136
71 104 158
65 100 136
64 97 108
70 105 148
67 100 158
72 106 136
66 100 148
61 94 65
66 100 65
66 100 123
68 102 108
65 97 136
64 97 136
71 107 158
66 100 123
69 104 123
67 100 136
61 95 89
61 92 89
59 91 89
68 103 123
70 105 136
72 107 158
67 102 108
62 94 89
63 97 123
67 102 123
68 103 158
67 103 158
68 102 148
66 99 123
67 102 123
63 95 123
71 105 136
61 95 123
65 99 108
65 100 136
65 98 136
64 98 108
67 103 123
69 105 148
68 103 123
67 103 136
71 106 148
65 99 123
61 95 108
69 103 136
72 106 168
67 101 123
69 104 136
70 105 136
66 101 108
61 94 65
64 97 123
71 107 158
73 108 158
70 105 168
71 106 148
64 99 123
66 100 89
64 98 108
64 97 108
70 105 136
55 86 65
60 93 108
74 110 178
58 89 108
66 102 123
61 94 108
61 93 89
69 104 136
66 102 123
62 93 123
61 93 89
58 88 108
65 96 123
64 98 123
141 156 0
151 169 0
108 119 0
94 112 0
122 140 0
73 85 0
106 114 0
136 153 0
118 129 0
111 130 0
125 142 0
131 148 0
125 142 0
128 134 0
107 123 0
139 149 0
95 113 0
140 155 0
127 143 0
111 126 0
138 155 0
93 110 0
93 108 0
143 161 0
117 130 0
133 144 0
112 131 0
116 132 0
139 153 0
121 139 0
106 123 0
94 103 0
151 164 0
119 138 0
121 137 0
139 155 0
155 166 0
153 169 0
119 132 0
148 164 0
142 160 0
139 159 0
123 136 0
146 161 0
144 161 0
118 128 0
131 148 0
158 175 0
150 160 0
152 163 0
135 145 0
185 202 0
144 163 0
132 150 0
163 183 0
129 143 0
150 162 0
139 151 0
148 165 0
151 164 0
146 164 0
134 151 0
112 116 0
153 169 0
122 133 0
150 167 0
129 143 0
152 174 0
148 165 0
124 140 0
131 150 0
162 179 0
167 176 0
167 179 0
160 178 0
148 166 0
164 179 0
109 119 0
161 179 0
174 190 0
145 160 0
175 189 0
170 188 0
158 173 0
125 145 0
132 147 0
164 184 0
156 176 0
156 172 0
137 153 0
148 157 0
170 193 0
167 180 0
154 169 0
171 193 0
136 147 0
160 183 0
131 154 0
135 155 0
145 163 0
161 179 0
125 139 0
159 171 0
142 162 0
150 171 0
148 163 0
127 134 0
158 173 0
160 174 0
156 165 0
169 182 0
144 165 0
141 151 0
159 175 0
152 168 0
158 174 0
165 179 0
152 158 0
154 171 0
164 177 0
148 166 0
155 172 0
147 165 0
164 175 0
161 180 0
166 185 0
145 164 0
158 173 0
162 178 0
149 160 0
179 199 0
167 184 0
161 183 0
151 162 0
172 193 0
141 160 0
158 177 0
147 164 0
166 181 0
165 186 0
142 153 0
144 157 0
161 173 0
172 193 0
168 186 0
166 182 0
169 189 0
161 176 0
171 190 0
152 162 0
170 183 0
135 153 0
168 185 0
177 195 0
170 193 0
170 184 0
170 183 0
137 156 0
176 196 89
169 191 0
170 193 89
181 203 0
177 201 0
179 202 0
158 180 89
184 205 89
176 203 123
172 194 89
184 204 0
177 196 0
176 200 0
167 189 89
175 197 89
164 185 0
171 197 123
182 206 123
182 203 123
166 189 148
183 204 0
156 178 0
174 197 89
166 189 123
166 191 148
177 200 123
178 199 89
166 189 123
165 191 0
176 197 0
161 184 0
155 178 89
173 198 123
173 195 89
164 187 89
184 209 168
139 161 0
181 203 0
172 194 0
170 193 89
121 146 0
150 174 123
154 178 89
163 185 0
147 170 89
173 195 0
166 187 0
133 154 0
162 182 0
172 195 89
148 168 89
168 191 123
178 200 148
168 191 148
153 173 0
157 180 123
183 204 0
161 179 89
163 186 89
152 174 0
136 153 0
151 170 0
158 179 0
146 167 0
149 168 89
143 164 0
146 166 0
99 121 0
145 164 136
103 123 136
76 100 89
134 154 136
105 122 148
83 101 108
61 92 136
92 113 65
101 120 136
118 132 136
81 106 108
95 118 89
54 83 123
126 147 123
61 91 123
79 96 65
58 88 108
85 113 123
124 143 158
122 146 158
58 86 136
87 105 148
108 128 148
83 105 136
90 107 136
121 137 136
103 129 148
117 140 186
94 111 65
56 84 123
110 132 168
74 96 123
80 103 123
105 125 128
80 107 136
104 125 123
80 107 136
84 109 148
47 71 123
120 143 178
100 128 178
67 101 148
69 104 168
99 126 158
119 139 158
70 107 168
64 98 158
88 109 128
87 111 152
67 103 136
89 114 128
116 126 138
65 100 148
67 102 158
73 109 178
66 100 136
70 106 158
65 99 123
70 104 158
66 99 158
56 87 108
58 88 123
68 102 158
64 96 123
59 90 123
71 105 168
50 76 89
79 107 89
60 93 108
63 95 65
67 99 158
69 103 148
64 96 123
58 88 89
67 102 136
70 105 136
61 95 136
65 100 136
66 100 89
67 101 136
66 101 148
69 104 136
70 105 136
59 91 123
67 99 136
66 101 142
64 97 108
67 102 123
64 98 123
66 102 123
65 100 136
67 101 136
67 102 108
62 96 136
68 103 123
68 103 123
70 106 148
64 98 108
70 105 136
66 101 108
67 101 136
62 95 108
68 103 136
67 103 136
70 105 148
70 105 136
65 99 123
67 101 108
70 105 136
70 106 148
65 100 89
67 102 108
65 100 148
69 104 136
69 103 148
65 100 108
69 104 136
70 106 158
71 106 136
70 106 148
65 99 108
65 100 89
70 106 158
70 105 123
66 101 108
67 101 89
66 101 136
70 106 168
60 93 108
69 105 148
67 102 123
62 95 108
69 103 148
67 101 136
69 105 148
69 102 123
63 97 108
63 97 123
65 100 136
66 99 158
67 102 123
68 105 158
63 97 89
64 97 148
70 105 136
68 103 123
59 91 65
71 106 148
67 102 123
65 99 123
60 94 65
65 99 108
65 99 136
63 96 123
67 102 123
68 102 136
69 104 136
67 102 136
65 100 89
70 105 123
64 97 89
60 92 65
61 93 108
63 97 89
59 92 89
66 101 148
63 96 136
66 99 123
62 94 123
67 101 123
63 95 108
56 87 65
87 113 65
113 129 0
127 139 0
120 130 0
159 176 0
127 143 0
129 144 0
136 154 0
172 187 0
120 131 0
120 137 0
120 137 0
121 137 0
138 151 0
128 145 0
136 148 0
123 141 0
118 130 0
166 183 0
114 126 0
109 120 0
125 143 0
127 140 0
133 147 0
113 129 0
148 168 0
116 135 0
141 163 0
149 168 0
113 131 0
130 144 0
142 156 0
118 134 0
91 108 0
131 151 0
142 158 0
147 164 0
123 139 0
120 137 0
129 138 0
135 151 0
136 143 0
116 137 0
99 114 0
149 162 0
140 152 0
164 180 0
141 163 0
132 152 0
120 139 0
158 175 0
148 161 0
121 123 0
169 185 0
160 175 0
147 168 0
133 152 0
149 172 0
142 156 0
174 191 0
157 167 0
162 173 0
142 155 0
145 160 0
108 123 0
176 188 0
135 155 0
154 171 0
163 181 0
148 162 0
134 149 0
136 152 0
144 161 0
151 166 0
158 171 0
148 164 0
142 159 0
131 150 0
153 170 0
163 179 0
149 170 0
136 150 0
137 146 0
141 159 0
148 164 0
167 189 0
157 177 0
147 157 0
176 190 0
146 158 0
127 139 0
166 181 0
143 161 0
154 167 0
176 197 0
161 173 0
167 181 0
141 153 0
150 165 0
161 177 0
154 176 0
102 107 0
155 171 0
122 129 0
153 173 0
154 175 0
169 189 0
149 173 0
174 194 0
162 179 0
180 199 0
173 188 0
156 172 0
131 152 0
176 187 0
159 178 0
131 145 0
147 162 0
170 188 0
145 162 0
153 173 0
152 161 0
159 174 0
156 168 0
153 171 0
133 152 0
164 183 0
162 183 0
149 168 0
146 157 0
182 197 0
167 184 0
169 191 0
155 167 0
163 175 0
153 171 0
152 173 0
166 182 0
163 178 0
168 191 0
148 161 0
157 177 0
162 174 0
168 184 0
171 187 0
166 183 0
170 189 0
141 155 0
162 179 0
129 138 0
149 160 0
150 167 0
143 162 0
174 194 0
162 179 0
169 185 0
163 183 0
138 155 0
137 153 0
169 193 89
179 203 89
184 208 148
185 205 0
180 204 89
169 190 123
175 195 0
174 195 89
180 204 89
167 192 0
164 184 0
177 201 0
163 186 0
180 202 148
166 186 0
166 187 0
175 196 89
160 178 0
155 177 89
146 167 0
173 195 0
179 203 89
181 206 148
168 189 89
179 199 89
173 193 0
164 183 0
166 190 89
173 193 0
166 186 0
174 197 89
168 189 123
163 187 89
157 177 89
146 168 0
140 162 0
144 165 89
153 176 0
162 184 89
150 170 89
153 175 0
160 183 0
175 196 0
177 198 89
168 189 0
176 198 89
144 166 0
169 189 0
147 168 89
147 169 0
151 168 89
148 168 89
165 186 89
145 165 0
163 180 89
174 195 0
134 157 0
147 167 89
169 190 89
139 157 0
131 153 123
159 180 89
139 162 0
157 179 0
140 160 123
160 181 168
139 156 89
144 163 89
151 168 123
60 92 89
60 91 136
111 129 108
116 140 136
84 106 136
110 131 158
81 102 89
66 99 158
105 123 153
104 126 123
103 118 108
106 121 148
90 116 136
110 129 158
90 111 148
105 120 123
114 136 168
55 84 108
103 125 148
137 154 158
81 101 123
137 154 148
98 113 108
117 138 178
56 82 136
88 108 136
87 105 136
82 111 136
126 146 158
90 113 148
113 139 136
75 94 108
110 136 168
98 120 108
124 144 172
109 128 136
79 101 108
87 105 148
57 85 123
65 98 158
100 127 168
72 108 168
70 106 158
68 103 158
101 128 178
69 103 148
68 102 148
83 113 158
63 97 123
70 106 158
114 129 156
60 92 89
90 114 141
62 94 108
66 101 123
69 106 168
60 92 108
64 96 123
64 96 148
65 99 136
64 98 123
62 94 123
67 102 108
68 103 158
67 103 123
66 100 136
62 93 108
68 101 89
66 99 142
66 98 148
64 95 158
64 98 123
57 88 65
64 99 123
66 100 136
68 103 123
68 104 136
67 100 136
68 102 153
63 95 136
61 93 123
63 96 123
58 89 136
58 88 89
66 101 148
67 100 136
61 93 108
63 95 108
67 102 123
71 106 148
65 99 108
69 104 136
70 106 158
69 105 148
67 101 136
70 105 148
68 104 136
70 106 148
71 106 148
68 103 123
66 100 148
72 108 158
62 93 108
68 103 158
67 101 123
66 100 123
64 98 108
65 100 136
67 102 123
73 110 178
64 98 108
63 98 123
67 102 148
67 102 123
73 108 158
71 106 148
59 91 89
68 104 136
66 100 123
69 103 123
64 97 136
66 101 123
68 104 136
68 103 148
70 104 148
67 103 136
66 100 123
66 100 136
60 93 89
67 102 123
68 103 123
65 99 123
57 88 108
63 96 123
64 99 123
65 98 108
64 98 123
71 106 148
70 105 136
63 95 123
67 101 148
63 97 89
71 107 148
67 100 123
62 94 108
65 101 148
68 101 123
62 94 108
64 97 136
71 106 148
69 102 148
68 103 148
67 102 148
65 99 65
72 107 158
66 101 108
71 106 148
64 98 108
67 102 108
64 97 136
66 100 89
59 88 89
72 107 148
68 102 136
68 103 123
64 96 136
66 101 108
68 103 123
60 92 123
61 93 89
67 101 136
53 81 89
65 78 0
135 148 0
108 121 0
116 134 0
146 158 0
135 155 0
142 160 0
93 107 0
129 142 0
123 140 0
132 148 0
150 168 0
109 119 0
132 144 0
120 130 0
87 97 0
130 146 0
133 150 0
110 119 0
124 142 0
133 151 0
122 137 0
82 95 0
132 150 0
137 155 0
144 158 0
132 146 0
157 176 0
139 155 0
165 183 0
133 147 0
120 140 0
141 162 0
132 144 0
106 122 0
136 154 0
150 169 0
161 183 0
150 172 0
142 151 0
138 153 0
120 135 0
133 152 0
150 165 0
138 155 0
131 147 0
143 159 0
121 138 0
162 177 0
142 154 0
111 124 0
148 167 0
136 150 0
153 171 0
128 136 0
151 168 0
126 140 0
158 172 0
156 166 0
129 145 0
139 159 0
157 177 0
128 139 0
127 145 0
125 135 0
149 169 0
138 157 0
163 179 0
158 178 0
143 162 0
153 169 0
131 143 0
159 179 0
137 153 0
123 133 0
120 137 0
161 179 0
141 154 0
161 183 0
135 148 0
163 167 0
146 162 0
151 167 0
129 145 0
147 161 0
159 180 0
147 165 0
150 165 0
182 200 0
170 187 0
162 177 0
170 186 0
143 159 0
145 160 0
164 185 0
137 152 0
149 168 0
144 161 0
168 180 0
166 187 0
165 185 0
160 171 0
172 187 0
152 165 0
150 162 0
151 165 0
153 170 0
164 180 0
156 173 0
160 175 0
146 154 0
132 143 0
135 149 0
141 151 0
155 162 0
178 201 0
159 181 0
166 184 0
150 161 0
126 140 0
168 182 0
178 195 0
159 173 0
139 155 0
170 190 0
148 162 0
157 174 0
170 190 0
159 176 0
179 197 0
159 181 0
161 176 0
167 180 0
173 190 0
166 179 0
171 185 0
161 179 0
154 168 0
152 171 0
159 177 0
164 182 0
149 166 0
170 183 0
178 198 0
170 187 0
156 161 0
170 186 0
169 189 0
145 160 0
160 176 0
166 182 0
156 161 0
170 189 0
175 193 0
148 161 0
169 186 0
167 187 0
168 182 0
174 189 0
159 182 0
165 187 89
153 171 0
165 188 89
174 193 89
162 184 0
183 205 89
175 197 89
160 183 0
174 197 89
172 194 0
162 185 0
180 203 89
161 178 0
173 195 89
166 187 0
156 179 89
180 201 0
169 187 89
159 182 89
173 197 123
152 173 0
166 188 89
180 202 0
169 193 89
174 195 89
157 179 123
177 199 123
145 167 0
163 186 89
173 196 89
163 184 0
151 172 123
185 206 89
167 189 89
154 177 89
171 194 0
169 190 89
179 199 123
137 158 0
181 200 123
143 166 0
167 187 89
140 160 89
175 196 89
150 167 0
157 179 0
175 196 0
165 187 0
165 187 89
166 187 89
157 178 0
183 206 123
151 174 123
150 171 89
138 157 0
177 197 89
157 177 89
138 160 0
171 194 89
132 150 89
156 175 168
174 195 0
160 179 89
147 166 89
159 178 0
139 158 0
161 183 123
135 155 0
73 95 0
50 75 123
76 100 89
138 162 195
83 101 108
84 103 136
106 126 158
54 80 136
85 111 108
123 142 158
99 120 136
58 88 108
44 66 0
145 162 186
84 107 123
142 161 178
84 102 123
58 87 148
78 104 108
145 162 195
87 106 123
90 113 148
128 140 148
54 81 136
117 138 178
115 136 168
91 121 148
113 129 148
124 146 148
156 174 178
58 88 108
81 102 108
55 84 136
107 127 136
94 118 158
108 131 123
80 91 97
55 84 123
61 93 123
55 80 123
68 103 158
153 170 195
97 123 136
98 123 168
73 109 178
66 100 136
99 124 168
65 99 136
66 99 123
63 96 148
88 113 128
104 126 166
95 111 108
83 110 158
109 124 145
71 107 158
69 104 136
67 104 158
62 94 136
55 85 65
65 97 136
61 91 136
87 110 89
54 82 108
58 90 108
85 112 136
59 88 108
101 130 123
93 122 136
68 102 148
67 101 136
67 102 123
70 104 123
62 94 123
64 97 136
61 93 108
68 103 123
67 102 123
61 92 123
68 103 148
69 105 148
62 95 123
71 108 168
64 98 123
68 103 123
68 103 136
58 89 65
66 101 89
67 101 136
64 99 89
67 103 123
65 99 123
65 98 108
65 100 136
69 104 136
67 100 123
72 107 158
70 106 158
65 99 123
71 107 158
69 104 136
69 105 148
70 105 136
71 106 148
64 98 148
68 103 136
66 99 148
70 105 136
65 99 108
63 95 89
61 94 65
63 96 148
61 93 89
64 97 108
64 97 108
66 101 123
67 101 136
68 104 136
64 98 123
66 99 148
66 99 123
63 97 108
71 106 148
65 98 123
67 101 136
71 107 158
67 102 123
67 102 148
68 104 136
65 98 108
63 98 65
68 103 148
67 100 136
68 103 123
66 101 108
68 103 123
67 101 108
64 98 123
70 106 148
64 97 136
66 101 108
69 104 136
68 104 136
67 102 108
67 102 108
62 96 108
63 96 123
64 98 89
67 103 123
64 96 123
66 101 136
59 92 89
68 102 108
68 103 136
65 97 89
66 101 148
60 93 65
63 97 108
63 95 108
63 96 123
60 92 65
62 95 89
68 103 148
69 104 123
57 86 65
71 107 158
64 97 89
68 102 136
65 99 108
59 92 89
115 135 108
96 107 0
97 112 0
96 114 0
94 105 0
105 118 0
149 161 0
89 109 0
73 92 0
118 132 0
94 108 0
92 106 0
126 143 0
137 148 0
119 130 0
112 128 0
126 142 0
68 83 0
107 126 0
129 144 0
106 124 0
135 141 0
110 120 0
135 147 0
125 141 0
122 142 0
165 185 0
130 146 0
118 131 0
111 121 0
108 116 0
127 143 0
141 161 0
140 157 0
123 142 0
161 171 0
150 166 0
138 155 0
134 152 0
153 171 0
48 72 0
116 129 0
117 135 0
156 171 0
137 156 0
118 133 0
132 147 0
179 199 0
108 124 0
156 176 0
161 175 0
121 140 0
136 153 0
154 174 0
150 172 0
144 164 0
129 145 0
134 144 0
137 156 0
137 155 0
140 156 0
166 183 0
124 143 0
139 154 0
139 152 0
140 159 0
163 181 0
158 178 0
162 178 0
121 141 0
144 164 0
158 173 0
171 194 0
130 146 0
160 183 0
148 167 0
165 182 0
152 170 0
168 191 0
152 169 0
146 158 0
157 166 0
158 174 0
142 160 0
152 165 0
149 170 0
166 182 0
115 125 0
151 161 0
148 168 0
132 150 0
138 154 0
169 184 0
149 170 0
131 147 0
131 144 0
150 169 0
146 163 0
146 159 0
157 172 0
153 170 0
156 173 0
152 171 0
142 154 0
161 178 0
151 167 0
182 200 0
151 161 0
139 157 0
157 176 0
166 183 0
160 179 0
163 184 0
146 161 0
162 184 0
166 185 0
156 170 0
132 146 0
154 172 0
115 125 0
138 154 0
165 176 0
163 184 0
146 164 0
162 179 0
131 146 0
146 156 0
155 172 0
156 170 0
120 131 0
149 160 0
155 168 0
155 169 0
147 162 0
158 175 0
165 184 0
159 173 0
163 180 0
144 161 0
152 168 0
160 175 0
182 201 0
159 173 0
149 166 0
147 149 0
172 187 0
163 185 0
182 200 0
167 184 0
179 199 0
155 172 0
166 181 0
171 187 0
166 183 0
158 173 0
167 185 0
181 202 0
177 194 0
167 187 0
156 175 0
165 183 0
182 204 89
181 202 0
172 193 0
164 189 123
171 195 123
162 185 123
168 194 89
158 178 0
172 194 0
152 175 0
170 192 0
181 200 123
172 196 89
180 199 0
155 171 0
176 197 89
164 184 0
156 178 89
183 204 0
182 203 0
157 178 0
167 188 89
174 198 123
169 192 0
162 183 148
171 193 0
179 200 123
162 186 89
186 205 0
177 195 89
168 189 0
160 180 0
173 196 89
178 198 123
177 197 0
162 181 89
168 188 89
167 186 0
158 181 123
178 199 123
190 210 123
159 179 89
157 177 89
158 180 0
160 183 89
129 152 123
170 192 123
168 189 123
166 186 0
178 201 0
152 175 0
143 167 89
169 189 89
160 183 148
165 185 0
136 158 89
157 177 0
167 192 0
107 128 0
166 188 89
130 149 89
160 182 89
164 186 0
153 176 89
161 180 89
162 183 89
150 166 89
177 198 89
136 155 0
153 171 123
119 141 89
61 93 123
106 126 148
133 153 136
89 113 148
74 94 89
77 98 123
105 124 136
90 115 136
63 96 136
92 115 148
38 60 89
88 109 148
35 56 0
104 128 136
58 86 123
128 150 178
77 102 123
73 86 65
164 181 168
114 135 168
115 133 158
78 98 108
42 64 89
77 99 129
89 108 136
102 127 148
93 115 158
100 119 108
56 86 108
123 148 158
105 121 136
102 115 114
120 139 136
81 106 123
97 116 128
81 101 128
119 140 178
88 105 136
70 105 136
70 106 158
66 102 123
70 105 136
70 106 158
69 105 148
98 121 168
71 107 158
70 107 168
90 114 152
66 100 136
92 116 141
62 95 89
71 106 136
85 114 123
91 109 128
64 97 142
71 107 158
68 101 136
64 98 108
63 96 108
66 98 148
70 105 136
74 110 178
83 112 153
66 101 136
87 113 136
58 89 108
89 115 108
65 98 123
66 101 123
64 94 148
65 99 136
61 92 123
67 103 123
59 92 99
62 96 108
61 94 123
68 103 158
62 95 65
57 86 108
72 108 168
63 96 89
69 104 168
61 93 123
64 97 108
71 108 178
63 96 136
61 94 65
65 99 136
70 105 136
62 94 115
69 104 123
70 105 148
73 109 168
72 108 158
70 105 136
63 97 89
67 100 136
69 103 123
60 94 65
66 101 136
63 95 123
66 99 123
65 100 89
67 102 108
69 104 136
62 96 108
65 99 123
66 101 148
54 85 89
68 102 168
65 99 123
68 102 108
67 101 108
68 102 136
64 97 89
68 103 123
67 101 148
69 105 148
65 100 108
70 104 158
65 98 89
68 102 123
65 99 136
70 105 148
70 106 148
65 99 123
64 98 108
69 105 136
69 104 136
61 95 89
69 103 148
67 101 123
62 98 108
62 94 136
66 98 136
64 97 136
70 106 158
68 101 136
66 101 136
60 93 89
68 103 123
64 98 123
64 97 136
61 93 123
66 101 123
69 103 108
70 106 148
67 101 136
66 99 123
62 93 65
65 99 123
69 104 136
60 91 65
68 103 123
63 96 136
69 103 136
68 104 136
68 102 108
68 103 123
64 96 123
64 98 123
70 105 148
62 94 108
66 101 108
68 102 108
60 90 136
57 89 65
81 104 89
77 89 0
116 129 0
117 130 0
109 119 0
146 160 0
142 154 0
104 117 0
125 145 0
110 127 0
107 122 0
146 166 0
80 95 0
137 159 0
142 157 0
127 143 0
102 119 0
146 164 0
100 114 0
110 123 0
125 144 0
89 99 0
122 131 0
91 110 0
92 108 0
131 147 0
164 184 0
110 126 0
109 115 0
107 123 0
132 147 0
126 140 0
145 160 0
109 119 0
135 148 0
149 164 0
147 160 0
135 154 0
153 167 0
138 154 0
136 157 0
131 150 0
145 165 0
152 169 0
130 146 0
138 150 0
129 147 0
139 154 0
130 148 0
127 144 0
158 169 0
164 185 0
148 163 0
165 182 0
132 141 0
158 166 0
126 134 0
155 176 0
137 155 0
174 191 0
165 182 0
134 143 0
166 182 0
133 143 0
156 172 0
134 151 0
142 158 0
162 185 0
138 154 0
138 156 0
140 153 0
157 162 0
158 173 0
150 162 0
131 149 0
160 178 0
144 161 0
162 177 0
151 157 0
146 164 0
139 154 0
150 171 0
162 179 0
175 193 0
141 152 0
138 155 0
151 168 0
150 164 0
139 151 0
142 159 0
119 126 0
147 167 0
153 166 0
159 171 0
150 170 0
157 172 0
144 165 0
163 181 0
158 173 0
152 170 0
146 160 0
135 154 0
157 173 0
164 183 0
151 168 0
150 164 0
155 170 0
171 189 0
165 176 0
137 146 0
142 158 0
150 168 0
162 177 0
162 184 0
132 145 0
154 170 0
170 189 0
164 180 0
151 165 0
149 165 0
163 176 0
159 176 0
177 192 0
136 155 0
164 175 0
149 162 0
142 157 0
155 166 0
166 185 0
132 151 0
169 190 0
162 180 0
150 168 0
158 173 0
161 176 0
161 179 0
148 163 0
140 158 0
179 202 0
163 183 0
181 200 0
153 170 0
172 187 0
174 192 0
166 186 0
159 176 0
147 167 0
165 177 0
166 184 0
157 170 0
163 180 0
168 190 0
152 167 0
151 166 0
179 199 0
148 165 0
147 159 0
168 185 0
171 188 0
161 176 0
150 168 0
169 192 0
145 165 0
180 201 89
154 174 0
170 193 89
162 184 0
175 199 123
183 205 148
188 210 148
169 187 89
180 202 0
172 194 0
170 191 123
175 194 0
172 194 89
186 206 89
171 188 89
180 203 89
161 186 123
162 185 89
162 181 123
191 209 186
170 192 0
175 197 89
170 193 0
164 182 148
165 185 0
161 184 148
181 204 89
154 178 89
155 177 0
157 181 123
179 200 123
166 189 89
170 195 89
182 202 148
154 175 0
152 173 89
186 206 89
176 198 89
168 187 0
164 186 0
171 194 89
172 195 148
168 189 123
170 193 168
150 171 0
158 178 0
179 198 0
167 188 89
163 184 0
143 164 123
163 185 0
157 179 89
157 179 89
166 188 89
174 193 123
135 155 89
162 185 0
162 181 89
160 182 89
149 168 89
148 169 89
157 178 89
127 144 89
163 183 89
168 187 0
162 184 123
123 144 0
142 157 89
147 166 0
137 154 89
85 110 108
50 75 89
55 82 89
103 131 136
109 132 148
52 80 89
102 123 108
88 111 136
106 123 148
83 110 123
82 101 108
60 90 123
48 71 89
50 76 108
114 128 108
61 91 123
96 120 108
63 93 148
82 98 123
108 132 136
114 136 178
45 71 99
61 92 148
87 105 136
75 100 108
107 125 108
74 98 89
86 104 136
94 115 148
96 117 158
134 152 178
106 124 136
103 126 123
94 115 128
113 129 158
53 79 123
104 122 123
79 105 108
58 88 123
120 141 168
72 107 158
99 126 168
69 106 158
65 100 108
70 105 148
140 158 195
101 127 158
75 111 178
73 109 168
68 103 168
108 124 145
63 95 136
81 107 136
83 112 148
60 90 123
66 100 123
64 97 136
60 91 89
70 105 136
57 87 108
61 92 136
91 121 148
86 112 136
83 111 123
68 100 136
86 112 123
119 142 123
77 104 89
68 102 148
70 104 158
67 102 123
62 94 123
65 99 136
67 103 123
70 105 136
65 95 136
65 99 148
65 97 136
67 101 148
68 104 148
68 104 148
56 86 89
59 89 89
64 98 108
71 105 148
57 87 123
60 92 89
63 97 123
66 100 136
69 103 148
69 104 136
67 103 123
63 96 108
68 104 136
62 94 108
63 98 123
68 104 136
64 97 89
69 105 148
69 105 148
65 98 123
64 97 108
61 93 108
71 106 148
65 100 108
69 104 136
63 97 108
69 104 123
58 90 65
64 97 108
71 107 158
69 104 136
69 105 148
74 110 178
67 99 108
65 100 89
64 98 108
67 101 136
65 99 108
65 100 136
67 102 108
68 102 148
63 97 108
65 99 123
71 106 158
67 102 108
57 88 89
67 100 123
68 103 123
69 104 136
59 92 89
72 107 148
67 103 123
68 101 148
70 106 148
61 94 108
63 97 123
72 107 148
65 99 108
71 106 148
55 86 65
66 99 108
65 101 148
65 98 136
71 106 148
68 102 108
66 100 123
66 101 108
57 89 65
69 103 158
67 100 65
64 98 108
65 98 108
65 99 123
60 91 89
66 101 108
58 90 89
61 93 123
54 85 65
59 89 89
69 104 123
62 94 89
71 106 158
56 85 89
55 86 89
59 91 108
114 132 0
123 138 0
122 132 0
75 92 0
157 174 0
130 140 0
77 91 0
145 159 0
114 129 0
109 126 0
132 146 0
100 114 0
130 138 0
103 118 0
120 131 0
134 147 0
110 128 0
156 175 0
148 164 0
148 155 0
136 153 0
123 131 0
129 149 0
145 164 0
127 146 0
116 130 0
131 153 0
143 165 0
113 132 0
130 146 0
118 134 0
129 144 0
140 157 0
122 137 0
140 163 0
149 165 0
132 150 0
94 110 0
149 161 0
132 143 0
149 167 0
102 119 0
142 162 0
90 112 0
131 145 0
113 127 0
133 152 0
146 165 0
160 180 0
119 127 0
133 155 0
146 157 0
139 153 0
153 173 0
163 181 0
133 149 0
112 119 0
165 184 0
157 177 0
123 136 0
146 162 0
170 188 0
131 145 0
124 142 0
157 171 0
163 183 0
157 174 0
155 169 0
175 196 0
128 143 0
149 162 0
167 181 0
124 141 0
140 156 0
160 171 0
146 161 0
155 175 0
128 136 0
162 183 0
147 158 0
154 174 0
139 145 0
136 150 0
153 169 0
137 151 0
153 173 0
173 193 0
140 157 0
124 136 0
141 154 0
166 184 0
144 158 0
153 156 0
166 183 0
159 166 0
180 199 0
154 170 0
145 162 0
143 158 0
111 128 0
158 173 0
145 164 0
147 159 0
126 139 0
140 155 0
137 144 0
149 167 0
159 163 0
157 170 0
161 172 0
168 182 0
172 188 0
176 197 0
175 195 0
159 179 0
152 171 0
166 183 0
144 159 0
154 165 0
166 184 0
143 160 0
143 165 0
149 165 0
155 175 0
164 181 0
162 178 0
160 179 0
177 201 0
161 183 0
145 164 0
151 170 0
169 189 0
156 176 0
155 175 0
143 163 0
144 154 0
163 179 0
139 153 0
137 145 0
161 179 0
158 173 0
148 164 0
172 187 0
151 166 0
157 174 0
167 187 0
180 199 0
159 177 0
172 190 0
181 203 0
143 161 0
151 168 0
175 197 0
173 190 0
164 176 0
148 167 0
167 184 0
146 166 0
162 179 0
158 179 0
178 198 0
165 178 0
178 201 0
184 205 89
186 208 123
168 191 0
179 204 123
161 186 89
174 198 123
173 196 89
185 208 148
179 202 148
164 186 123
174 196 123
159 181 0
171 190 89
173 199 148
180 202 168
158 177 0
158 178 89
169 191 0
176 198 123
176 198 89
171 189 0
168 191 148
171 197 123
171 193 123
163 185 148
136 156 0
174 191 89
169 194 89
171 193 0
173 193 0
165 188 89
182 203 148
159 182 123
166 190 123
165 186 0
156 178 0
169 190 89
176 199 148
176 196 89
152 172 0
173 193 0
172 192 123
173 194 89
171 193 0
155 176 0
158 181 123
145 164 89
180 203 89
164 187 89
170 193 89
165 187 0
170 193 148
170 191 0
156 174 0
180 200 123
158 179 89
168 190 89
136 154 0
149 170 89
151 169 89
169 190 123
156 175 0
148 166 123
128 147 123
177 197 89
148 166 89
127 149 89
157 178 0
157 177 89
152 172 89
143 162 0
114 130 89
113 134 108
88 113 123
99 113 108
104 128 123
99 116 65
63 94 136
110 128 158
82 102 136
109 132 136
109 127 136
84 105 108
111 132 158
116 131 89
59 89 108
84 102 108
56 85 123
88 109 158
54 80 108
90 111 108
84 106 136
59 90 123
59 89 123
86 104 123
122 141 136
97 118 123
132 146 168
75 96 89
64 96 136
98 122 168
114 132 158
108 124 123
91 110 136
99 121 123
119 133 120
90 109 136
91 110 136
113 136 158
58 89 136
96 120 168
99 124 168
68 105 158
100 126 158
62 95 148
62 95 148
71 106 158
66 101 148
91 122 158
106 122 145
96 118 136
64 97 148
88 112 152
66 100 136
94 114 141
67 104 148
64 96 108
71 107 158
66 100 136
65 97 148
57 87 123
63 96 136
58 88 108
66 100 148
66 98 148
57 87 108
68 103 136
54 84 89
82 111 148
68 102 148
64 99 136
61 91 89
60 92 108
65 97 89
68 104 148
65 98 158
68 103 123
67 101 136
62 95 65
65 97 123
64 98 108
60 90 65
58 87 123
66 100 136
67 102 108
67 102 148
69 104 158
71 107 158
67 102 123
68 103 136
68 103 136
67 102 108
62 94 123
66 101 148
62 95 108
64 95 108
58 88 89
71 106 148
65 99 123
63 97 108
63 95 108
65 98 108
64 98 108
66 101 136
68 103 158
62 96 136
65 99 123
63 96 129
61 95 136
69 104 123
66 101 123
71 107 158
69 105 136
61 93 108
66 99 89
68 102 148
71 106 148
70 105 168
69 103 148
66 99 123
67 100 123
57 88 108
69 105 158
67 102 123
71 106 148
69 105 148
64 98 123
71 105 136
66 100 136
62 94 89
70 104 108
67 102 123
70 105 136
66 99 136
66 100 136
63 96 89
65 98 108
62 95 123
67 101 123
70 106 148
64 98 89
66 99 123
63 96 89
65 98 108
62 95 123
61 93 89
66 101 136
62 96 136
60 93 108
62 94 108
62 94 108
64 97 136
63 96 89
67 101 136
68 104 136
65 99 123
66 99 148
68 102 148
67 101 123
65 99 108
58 89 89
63 96 136
61 93 65
65 98 108
59 90 65
62 93 89
72 90 0
125 135 0
122 140 0
116 134 0
126 136 0
132 144 0
114 130 0
125 134 0
113 130 0
110 120 0
124 143 0
145 164 0
139 151 0
134 144 0
110 125 0
148 167 0
125 133 0
115 131 0
159 177 0
141 156 0
117 130 0
83 95 0
159 170 0
125 141 0
120 142 0
153 170 0
127 136 0
95 112 0
119 130 0
123 142 0
164 181 0
154 170 0
144 160 0
159 174 0
143 158 0
135 152 0
144 160 0
125 141 0
155 164 0
151 167 0
148 160 0
159 173 0
123 144 0
141 157 0
138 154 0
113 132 0
134 152 0
108 125 0
114 129 0
142 156 0
116 134 0
145 155 0
144 161 0
144 161 0
76 99 0
128 141 0
115 132 0
155 174 0
123 139 0
151 166 0
82 96 0
107 128 0
87 100 0
161 179 0
130 142 0
157 175 0
133 142 0
117 128 0
146 161 0
153 169 0
118 134 0
170 189 0
171 189 0
170 186 0
165 181 0
141 158 0
128 146 0
147 161 0
116 130 0
139 156 0
152 167 0
143 160 0
158 175 0
145 167 0
165 182 0
168 183 0
142 157 0
139 159 0
135 149 0
138 156 0
138 153 0
162 177 0
158 176 0
154 167 0
117 135 0
141 158 0
162 183 0
130 144 0
143 155 0
179 195 0
135 152 0
142 149 0
174 192 0
161 184 0
129 148 0
147 167 0
181 200 0
149 173 0
162 173 0
150 170 0
167 187 0
156 176 0
170 186 0
139 147 0
157 171 0
152 168 0
168 185 0
132 142 0
170 189 0
161 177 0
162 181 0
145 155 0
166 190 0
167 188 0
163 178 0
129 145 0
150 167 0
155 168 0
158 171 0
152 163 0
159 175 0
140 150 0
172 194 0
146 166 0
167 177 0
153 170 0
166 179 0
161 177 0
157 165 0
180 199 0
157 173 0
140 161 0
154 174 0
148 168 0
131 147 0
162 177 0
172 188 0
152 175 0
151 163 0
182 200 0
165 187 0
150 167 0
167 189 0
155 176 0
178 198 0
162 179 0
176 194 0
149 169 0
137 156 0
170 194 0
173 195 0
172 190 0
169 185 0
169 189 0
159 182 123
163 180 89
157 180 89
171 193 123
183 205 89
175 199 123
154 179 123
161 183 0
167 189 89
195 213 148
183 203 123
180 200 89
186 208 123
179 199 89
169 192 0
146 167 0
167 188 89
168 191 123
179 203 89
164 187 89
169 189 89
167 188 0
182 204 89
176 197 0
156 178 89
157 178 89
174 197 89
164 183 89
174 196 89
171 195 89
168 186 123
157 180 89
150 172 0
167 190 123
171 193 148
173 196 89
166 189 123
183 209 168
156 179 89
177 198 123
173 195 89
184 208 148
152 173 89
161 185 89
167 188 89
177 197 89
174 197 89
169 190 123
148 171 0
160 182 123
172 194 89
151 173 0
162 181 89
137 154 89
176 199 123
141 164 0
158 182 0
143 164 0
159 176 89
162 182 89
177 199 148
171 194 0
147 167 89
136 154 89
154 173 123
140 159 0
157 172 0
155 176 0
139 158 0
158 179 89
181 203 148
134 152 89
126 144 0
55 84 108
106 124 123
72 94 65
129 149 136
108 128 136
108 130 148
86 104 123
44 68 89
93 115 89
60 88 148
78 97 89
107 133 158
144 160 168
57 86 136
99 117 108
78 98 108
86 103 0
125 149 158
119 136 136
111 127 136
86 105 136
58 88 123
112 131 158
105 124 148
121 144 148
111 127 136
92 113 136
126 148 108
55 84 123
118 138 136
91 111 148
56 84 123
109 135 0
78 103 89
105 120 141
131 146 114
97 118 123
89 107 108
68 104 148
63 97 123
70 105 148
71 107 158
66 100 136
98 123 148
101 127 158
69 103 136
70 107 168
67 100 123
90 113 152
89 111 128
90 110 108
68 102 148
80 105 108
65 97 136
69 104 123
63 96 136
66 100 136
60 91 123
66 100 136
84 111 123
65 97 136
60 91 108
68 104 136
57 89 123
102 123 89
88 116 123
64 96 148
64 97 108
63 96 123
63 98 108
69 104 123
62 93 108
67 101 108
70 106 148
64 99 89
69 103 168
67 101 136
64 99 136
66 100 123
64 98 108
69 105 148
64 98 123
64 98 123
64 97 89
72 107 158
70 105 136
63 96 123
70 104 158
69 105 148
64 98 123
65 100 108
63 96 108
65 99 123
66 101 136
68 104 148
70 105 136
71 107 168
70 105 136
70 106 158
72 107 158
69 104 136
64 97 108
65 99 123
62 96 123
60 91 123
69 103 108
67 102 123
62 95 65
68 102 136
68 102 136
68 103 123
62 95 65
62 92 123
57 89 65
72 106 136
72 108 168
71 106 168
67 103 123
63 96 136
60 93 89
70 105 148
71 106 158
68 101 136
66 100 108
68 103 123
62 95 108
69 105 148
69 105 148
72 107 148
65 100 89
70 105 136
63 95 136
67 102 123
66 98 136
62 94 108
67 100 123
62 95 123
67 102 123
69 104 123
65 100 136
68 103 123
59 90 89
57 88 108
54 84 89
64 97 123
68 102 108
66 101 108
61 93 108
68 103 123
65 100 89
72 108 168
69 103 148
66 101 89
64 97 123
66 100 123
60 90 89
58 91 89
61 93 108
66 101 108
62 95 65
63 95 108
114 137 0
127 141 0
116 132 0
103 118 0
130 139 0
112 120 0
72 82 0
150 168 0
126 138 0
135 143 0
116 123 0
143 158 0
125 142 0
120 132 0
106 120 0
117 133 0
144 160 0
158 174 0
122 137 0
90 108 0
158 177 0
92 95 0
127 140 0
111 116 0
117 137 0
104 120 0
143 159 0
135 151 0
122 139 0
116 130 0
159 177 0
148 166 0
140 160 0
129 138 0
119 139 0
157 177 0
153 170 0
124 139 0
104 117 0
138 157 0
146 166 0
131 149 0
111 127 0
141 157 0
132 148 0
141 156 0
133 148 0
142 157 0
143 158 0
132 146 0
121 140 0
147 163 0
129 148 0
105 121 0
163 184 0
168 187 0
164 182 0
143 162 0
147 164 0
156 173 0
127 137 0
146 160 0
146 159 0
156 171 0
123 139 0
145 163 0
128 141 0
146 165 0
162 182 0
146 162 0
168 185 0
152 167 0
157 177 0
130 144 0
161 175 0
141 156 0
158 178 0
170 189 0
138 160 0
168 183 0
165 184 0
169 181 0
173 189 0
134 147 0
127 141 0
154 170 0
138 154 0
160 177 0
153 170 0
167 185 0
152 168 0
166 184 0
135 153 0
144 161 0
173 191 0
148 156 0
148 168 0
148 166 0
159 172 0
168 191 0
156 176 0
145 160 0
140 156 0
164 182 0
147 160 0
145 162 0
165 185 0
153 174 0
154 175 0
139 157 0
150 159 0
142 164 0
180 199 0
145 162 0
163 182 0
142 158 0
145 160 0
168 183 0
147 165 0
168 177 0
154 166 0
156 175 0
165 183 0
165 183 0
159 168 0
162 180 0
172 193 0
155 171 0
153 174 0
160 178 0
172 194 0
161 179 0
137 155 0
151 168 0
170 186 0
166 183 0
170 189 0
156 176 0
163 181 0
171 185 0
161 175 0
147 163 0
139 150 0
163 183 0
153 168 0
161 179 0
174 192 0
165 184 0
182 200 0
164 181 0
161 181 0
157 178 0
173 192 0
167 187 0
172 192 0
171 191 0
168 187 0
166 184 0
167 187 0
177 201 0
170 177 0
149 164 0
163 180 0
160 182 0
167 180 0
153 173 0
166 191 0
155 178 89
182 206 123
183 205 89
177 198 89
174 196 0
153 175 168
165 187 89
169 191 0
168 194 89
179 199 123
155 177 89
154 177 89
169 189 89
168 191 123
169 190 123
163 181 89
152 171 0
182 206 123
188 210 148
167 187 168
167 192 89
172 193 123
164 188 89
169 189 89
175 191 89
187 209 123
169 191 123
171 195 89
177 198 89
150 173 89
166 191 148
178 201 0
162 185 0
183 206 123
164 187 0
169 193 89
157 176 148
187 208 123
170 195 89
152 176 0
155 178 0
185 206 89
137 158 0
162 182 0
167 186 0
177 198 89
148 168 89
180 202 148
162 184 123
178 198 89
180 198 89
126 146 0
149 172 89
138 157 89
197 216 168
141 164 0
165 185 0
178 196 0
149 171 89
180 201 123
138 156 0
146 167 123
166 187 0
138 157 0
113 127 89
154 175 0
176 196 148
128 147 0
177 198 89
142 158 0
153 174 89
151 170 0
132 150 0
116 137 123
86 108 136
118 138 123
107 126 148
83 104 108
86 108 136
121 138 136
105 128 136
107 134 158
86 107 123
101 125 123
90 111 148
77 100 108
80 105 108
87 105 136
25 38 65
71 90 89
120 135 136
129 147 158
86 105 136
88 108 136
104 119 108
122 139 148
112 129 158
130 148 158
88 119 148
112 126 148
90 108 136
134 153 123
94 118 168
103 123 89
115 132 148
61 95 136
90 109 136
59 89 123
75 92 89
84 100 141
100 126 148
100 126 158
100 127 168
123 145 186
72 107 158
94 116 123
69 104 136
109 130 123
63 95 123
68 104 148
63 96 123
70 105 168
63 97 148
84 113 148
66 99 123
68 102 148
65 99 136
65 98 148
65 97 136
60 93 108
61 93 108
84 110 108
62 94 123
63 96 108
42 65 65
59 91 108
63 96 65
68 101 136
63 96 89
64 97 108
69 105 136
65 99 108
61 92 89
65 99 65
57 88 108
62 93 123
63 97 108
60 93 108
68 102 148
66 100 136
59 92 108
67 102 123
69 104 123
58 89 65
66 99 123
62 93 89
67 103 136
68 104 136
72 108 158
64 98 123
63 96 136
65 98 123
62 95 89
61 92 89
60 92 108
65 99 123
64 98 123
67 101 108
62 95 65
64 99 65
61 93 108
62 95 65
70 104 148
66 101 148
65 98 123
58 90 123
66 101 123
69 104 136
63 96 89
68 101 136
67 100 136
65 100 136
64 98 123
66 101 148
61 93 108
66 99 136
68 101 168
71 107 168
66 100 123
69 103 123
64 97 108
70 106 148
68 103 123
65 100 136
62 94 89
69 102 148
67 102 148
67 101 148
68 103 158
62 95 123
61 93 108
66 100 136
65 100 108
63 96 123
69 103 136
64 98 108
64 98 108
69 105 148
69 104 136
54 82 65
65 99 123
63 97 108
64 97 136
69 104 136
61 94 89
66 101 108
58 89 89
65 97 123
61 92 89
65 99 108
63 96 89
66 101 108
63 96 89
69 105 136
63 95 136
62 94 108
54 84 65
67 102 123
55 84 65
60 91 123
59 89 123
84 108 65
105 125 89
66 78 0
111 125 0
123 134 0
136 150 0
136 150 0
110 127 0
108 126 0
135 154 0
126 141 0
122 139 0
111 128 0
128 144 0
102 117 0
134 154 0
97 114 0
129 142 0
142 160 0
112 127 0
120 135 0
95 112 0
133 155 0
147 166 0
122 140 0
137 151 0
123 134 0
79 103 0
136 148 0
142 157 0
101 113 0
129 145 0
93 111 0
116 130 0
120 138 0
105 119 0
121 137 0
142 155 0
71 89 0
148 167 0
162 177 0
163 182 0
114 126 0
130 140 0
145 165 0
130 150 0
152 168 0
164 182 0
153 171 0
110 124 0
120 133 0
149 163 0
148 163 0
159 179 0
146 167 0
94 108 0
143 162 0
118 133 0
118 135 0
150 168 0
155 175 0
123 139 0
141 161 0
175 193 0
144 166 0
135 151 0
145 156 0
152 168 0
159 176 0
162 183 0
126 144 0
141 156 0
120 141 0
165 180 0
141 160 0
155 173 0
162 174 0
163 183 0
148 166 0
150 169 0
173 189 0
135 154 0
136 150 0
135 149 0
149 165 0
150 165 0
137 153 0
165 178 0
162 174 0
147 163 0
173 190 0
161 180 0
145 163 0
150 164 0
164 185 0
158 169 0
150 163 0
153 173 0
159 178 0
146 163 0
150 165 0
151 169 0
159 179 0
164 177 0
169 188 0
151 166 0
140 153 0
168 184 0
169 189 0
160 176 0
134 146 0
175 195 0
160 176 0
166 185 0
145 149 0
162 183 0
150 171 0
122 137 0
146 162 0
172 191 0
170 189 0
136 151 0
151 170 0
162 176 0
160 179 0
134 148 0
166 186 0
155 165 0
158 182 0
163 182 0
171 190 0
168 182 0
153 164 0
159 173 0
172 190 0
161 177 0
162 176 0
169 183 0
173 190 0
157 177 0
158 173 0
165 185 0
163 184 0
168 181 0
176 192 0
165 186 0
176 193 0
153 168 0
154 168 0
133 150 0
172 192 0
155 173 0
181 203 0
172 190 0
157 176 0
166 187 0
186 205 0
157 175 0
163 180 0
175 196 0
164 185 0
155 175 0
154 177 0
146 165 0
166 186 0
175 193 0
173 195 0
168 185 0
180 202 0
171 194 0
173 197 148
190 211 148
173 194 0
183 204 0
179 203 89
188 207 148
161 179 89
174 195 0
172 194 89
162 185 89
181 200 89
176 196 89
180 201 123
195 215 168
171 195 89
177 195 123
169 194 89
159 181 0
174 195 89
151 171 89
179 202 0
172 194 0
163 184 0
174 195 0
183 205 89
182 203 0
148 168 89
149 167 0
174 193 89
157 178 89
173 192 123
176 197 0
161 185 0
171 193 0
172 193 123
144 163 123
174 197 89
180 197 148
182 201 123
185 202 168
178 201 148
149 172 123
167 187 168
158 182 123
165 188 89
162 184 89
169 190 89
172 190 89
162 185 89
179 202 0
173 195 89
155 177 0
150 170 0
135 157 0
179 199 123
178 199 123
152 169 0
137 157 89
173 193 0
158 178 89
149 167 0
137 155 0
160 182 123
166 186 89
143 162 0
163 182 123
153 168 0
170 192 148
103 122 89
143 162 148
160 180 89
170 190 89
114 131 89
82 105 89
82 107 108
88 112 136
120 144 136
75 93 0
75 97 65
93 119 136
41 63 89
47 71 108
126 150 168
104 124 148
106 127 123
114 134 158
56 85 136
120 136 136
101 121 136
120 142 148
107 127 148
89 109 136
131 149 186
94 115 148
107 128 108
130 147 158
130 148 158
109 129 148
116 134 168
130 149 178
125 144 148
132 149 158
88 107 108
101 127 123
48 71 89
74 98 89
92 112 158
75 94 108
57 88 108
96 114 108
69 105 136
97 124 148
98 124 148
68 103 123
97 120 158
101 128 178
91 120 136
88 120 148
85 115 148
69 103 158
79 105 108
68 103 123
65 98 123
63 97 123
61 93 123
63 95 123
66 100 148
68 103 123
66 101 148
66 101 136
67 100 123
64 99 136
63 96 89
68 101 148
64 99 136
87 112 89
60 94 136
63 96 89
62 97 123
66 98 136
67 102 123
69 105 148
52 80 65
56 87 89
64 97 89
62 95 65
65 99 136
68 103 148
60 93 108
58 89 108
68 103 123
67 101 136
65 99 158
66 100 136
65 99 136
67 103 136
67 102 108
58 89 108
63 97 123
69 106 158
69 103 123
68 103 136
67 102 158
64 98 65
68 102 108
69 103 158
60 93 89
67 102 108
63 96 123
64 97 108
67 102 108
66 101 89
68 102 136
60 93 89
60 92 108
65 100 108
70 105 136
68 101 136
64 97 89
65 98 108
67 101 148
71 107 158
70 105 148
70 105 148
71 107 158
71 106 148
64 98 108
63 97 108
67 102 123
71 105 158
64 97 136
68 103 123
63 97 89
70 105 148
63 96 108
59 91 89
66 99 108
59 90 123
66 100 123
67 102 123
67 101 136
67 102 108
64 98 65
66 101 148
73 108 148
66 100 123
65 98 108
56 87 89
62 94 108
64 97 89
68 101 148
66 100 136
70 105 148
67 102 136
64 98 65
64 96 123
59 90 108
59 88 65
65 97 136
60 91 123
63 97 89
65 99 108
61 93 108
61 92 65
64 96 108
69 104 123
63 96 123
60 93 0
58 89 89
84 110 65
100 114 0
102 119 0
95 106 0
123 142 0
140 155 0
104 124 0
103 115 0
41 64 0
108 122 0
104 118 0
146 164 0
122 137 0
145 159 0
143 162 0
116 125 0
94 107 0
112 127 0
122 139 0
94 112 0
111 125 0
120 137 0
111 126 0
126 143 0
78 101 0
130 154 0
145 160 0
159 177 0
126 143 0
154 170 0
160 174 0
137 147 0
120 134 0
110 129 0
152 169 0
166 184 0
112 129 0
154 173 0
119 139 0
133 147 0
137 151 0
104 116 0
142 163 0
146 162 0
132 143 0
124 145 0
142 159 0
149 168 0
149 167 0
158 170 0
166 186 0
148 166 0
139 154 0
148 164 0
133 152 0
139 156 0
132 150 0
152 170 0
117 125 0
132 149 0
164 185 0
158 180 0
170 186 0
132 151 0
151 164 0
109 126 0
133 148 0
138 154 0
139 154 0
121 131 0
159 175 0
152 171 0
158 173 0
159 176 0
156 176 0
153 171 0
139 162 0
130 149 0
133 148 0
146 165 0
152 168 0
165 181 0
139 144 0
149 168 0
155 175 0
165 184 0
156 177 0
158 175 0
143 159 0
136 152 0
154 167 0
125 143 0
158 175 0
159 178 0
154 169 0
145 161 0
136 155 0
157 173 0
145 154 0
160 173 0
155 171 0
150 168 0
140 157 0
150 162 0
154 174 0
152 169 0
160 175 0
156 176 0
153 175 0
153 163 0
150 163 0
159 176 0
151 169 0
149 155 0
165 183 0
136 155 0
157 173 0
174 191 0
150 172 0
156 176 0
145 164 0
159 170 0
147 167 0
152 169 0
151 167 0
180 199 0
167 189 0
165 180 0
154 174 0
151 169 0
143 156 0
169 189 0
155 176 0
166 185 0
163 173 0
154 174 0
167 185 0
168 187 0
162 180 0
138 149 0
172 193 0
162 179 0
164 183 0
141 157 0
153 166 0
161 180 0
171 189 0
174 185 0
177 195 0
171 188 0
162 180 0
168 191 0
165 180 0
182 200 0
162 176 0
160 181 0
170 189 0
158 167 0
175 197 0
164 178 0
153 175 0
180 202 0
156 172 0
176 194 0
179 202 0
141 163 0
169 188 0
170 190 0
170 189 0
159 181 0
169 194 89
191 211 148
186 208 123
169 189 89
151 173 89
173 199 148
149 168 89
169 192 123
149 168 89
178 202 89
162 184 148
185 209 148
150 173 0
177 199 123
179 199 123
168 188 89
189 212 168
183 207 148
179 198 89
153 174 89
171 195 89
172 194 0
168 188 89
181 200 89
171 195 89
166 190 123
193 212 186
170 191 148
165 184 123
182 201 89
146 168 89
174 199 148
167 187 0
180 200 168
171 190 89
158 179 89
160 182 123
177 196 123
147 165 123
144 161 148
148 171 89
134 155 0
184 204 148
176 198 89
177 198 123
147 169 0
164 188 89
178 197 89
192 212 148
149 167 89
183 204 148
173 194 0
177 198 89
173 193 89
145 164 0
160 183 0
176 196 148
141 160 89
149 165 0
175 196 0
160 182 123
167 188 89
146 167 0
138 155 0
146 162 0
110 129 0
136 156 0
113 133 0
146 166 89
163 181 89
121 139 0
166 186 0
135 154 89
120 140 0
114 134 89
121 136 136
105 123 123
87 107 123
116 134 65
90 114 108
50 76 89
106 122 136
50 75 65
79 94 89
108 130 89
113 130 108
82 110 123
85 103 136
85 114 158
105 128 136
70 92 108
91 113 136
52 78 108
107 118 136
92 114 148
111 127 136
112 130 148
109 130 108
68 102 158
104 123 148
104 126 148
59 91 89
56 86 89
90 107 108
123 144 123
51 79 65
38 60 89
92 114 148
90 108 123
88 105 136
128 136 97
70 107 168
98 123 158
69 103 158
63 96 108
71 106 158
99 124 168
84 116 123
66 101 158
87 114 148
69 104 123
67 101 136
66 101 108
82 109 148
87 107 128
92 117 152
67 104 148
71 106 158
65 100 136
60 91 136
65 99 136
62 95 65
66 99 123
63 95 136
69 105 148
54 84 65
119 142 89
102 126 89
86 115 123
66 100 89
65 99 123
66 100 136
62 95 108
72 107 148
64 98 148
66 99 123
65 99 123
65 100 136
68 103 136
69 104 136
59 90 123
67 100 123
63 95 123
67 102 108
62 93 89
60 94 108
58 90 108
70 106 148
64 96 148
67 102 108
59 90 89
62 94 108
63 96 65
60 92 108
58 88 99
61 92 136
71 107 158
71 105 158
65 97 136
64 99 89
67 101 89
66 101 89
56 89 65
65 99 123
64 96 123
59 89 123
64 97 108
67 102 136
68 104 136
61 95 123
70 105 158
69 105 148
62 96 89
60 89 89
60 94 65
63 94 123
63 97 89
62 94 65
59 90 65
62 93 136
71 105 136
68 103 108
68 103 136
63 95 108
63 97 108
65 98 108
68 104 136
68 102 148
72 107 148
66 100 136
64 99 89
64 97 123
66 99 123
67 102 123
63 96 123
64 98 123
67 101 108
68 103 123
61 93 65
66 100 123
66 99 108
66 100 123
70 106 148
70 105 136
64 97 108
63 97 108
69 104 136
67 101 136
60 91 123
68 103 123
64 98 108
69 103 148
62 94 108
69 104 123
69 104 136
62 95 108
65 100 89
65 99 123
62 93 108
112 121 0
88 105 0
119 132 0
112 123 0
34 53 0
76 92 0
122 134 0
149 167 0
125 138 0
88 100 0
147 162 0
137 151 0
127 138 0
116 129 0
104 119 0
123 130 0
100 115 0
116 122 0
111 128 0
106 120 0
108 122 0
113 133 0
165 182 0
109 121 0
127 140 0
94 111 0
144 164 0
130 144 0
143 159 0
81 86 0
116 128 0
155 168 0
136 156 0
158 172 0
103 120 0
143 158 0
139 157 0
97 114 0
152 174 0
137 154 0
129 147 0
131 150 0
121 136 0
137 152 0
96 107 0
168 185 0
141 158 0
111 127 0
145 162 0
148 163 0
126 143 0
157 178 0
141 158 0
143 160 0
163 178 0
159 177 0
112 122 0
169 185 0
154 175 0
166 186 0
145 159 0
138 155 0
138 149 0
98 113 0
114 129 0
141 147 0
163 179 0
158 178 0
133 150 0
159 174 0
136 155 0
154 167 0
165 183 0
114 135 0
141 158 0
149 169 0
162 183 0
148 167 0
163 182 0
152 169 0
180 196 0
126 147 0
159 177 0
149 165 0
144 158 0
132 142 0
137 152 0
177 192 0
153 175 0
121 138 0
141 158 0
147 167 0
99 108 0
162 177 0
158 173 0
155 171 0
147 170 0
165 186 0
141 162 0
148 167 0
132 150 0
144 159 0
160 183 0
160 175 0
151 170 0
148 165 0
168 194 0
167 190 0
164 178 0
169 187 0
166 183 0
166 182 0
145 156 0
154 174 0
160 179 0
168 173 0
171 189 0
126 140 0
143 159 0
151 171 0
153 174 0
142 155 0
154 173 0
140 154 0
164 185 0
172 187 0
173 194 0
179 201 0
159 170 0
140 157 0
151 168 0
162 179 0
155 173 0
156 168 0
131 150 0
153 171 0
176 200 0
159 175 0
158 170 0
161 176 0
160 170 0
167 183 0
157 172 0
175 193 0
160 175 0
136 146 0
162 176 0
160 179 0
167 182 0
179 202 0
162 179 0
172 190 0
150 167 0
157 167 0
169 186 0
161 177 0
168 185 0
178 201 0
172 193 0
156 169 0
142 161 0
164 180 0
173 191 0
178 194 0
168 185 0
179 198 0
162 180 0
173 193 0
175 194 0
148 164 0
149 166 89
177 201 148
174 196 148
175 196 89
173 196 89
166 191 0
172 196 89
186 205 168
169 194 168
174 197 89
170 195 89
172 194 89
180 200 123
179 200 123
172 191 123
179 200 148
180 204 123
166 188 123
174 196 89
170 193 0
179 198 168
170 192 0
180 201 123
176 198 89
177 196 123
161 181 89
152 178 89
164 183 123
186 207 89
185 206 89
143 164 0
173 193 0
178 203 123
175 196 89
168 190 123
149 169 123
186 206 89
177 199 123
183 207 148
172 192 123
160 178 0
145 165 0
171 191 89
167 189 123
177 197 89
173 196 89
177 195 148
167 189 89
176 194 123
159 178 89
157 178 123
191 210 123
154 176 148
177 198 123
156 178 89
143 163 89
169 186 123
120 136 89
143 163 89
140 156 123
123 141 0
152 170 89
130 153 0
135 156 89
159 179 89
143 161 0
152 172 0
155 173 0
120 142 0
162 183 123
126 146 89
164 182 123
177 198 89
139 158 0
136 156 0
147 166 89
115 133 65
41 63 89
58 85 123
74 94 65
128 148 168
55 83 123
114 139 186
106 128 123
55 84 123
124 146 168
80 106 123
109 125 148
87 106 148
80 92 108
80 105 108
127 148 158
105 123 123
104 122 123
90 112 123
142 158 158
117 136 148
78 103 65
104 119 108
58 90 89
146 165 178
112 129 148
95 116 158
94 116 136
118 137 148
115 135 65
130 150 178
52 79 89
102 118 114
106 125 123
105 116 106
114 129 158
143 138 59
86 110 148
101 128 178
71 107 158
71 106 148
100 126 148
67 102 148
68 103 168
117 143 123
86 113 108
62 95 136
66 101 148
80 105 108
82 107 123
67 101 148
104 118 97
92 107 123
63 96 136
64 97 108
55 84 108
59 90 89
67 101 136
62 94 123
56 85 65
57 88 108
82 104 65
110 130 0
103 130 123
61 91 123
66 101 108
66 99 136
57 87 123
66 102 123
65 99 123
62 96 89
67 102 108
67 101 136
72 108 158
65 100 108
56 88 0
64 96 89
63 94 123
64 95 108
67 102 123
66 99 136
68 102 123
68 103 123
64 97 136
64 96 148
71 106 136
67 101 136
70 106 148
62 97 108
64 98 108
68 102 148
64 98 123
63 97 89
66 100 108
68 103 123
68 102 148
71 105 136
61 94 65
70 105 136
64 98 123
66 101 136
66 100 89
63 95 123
60 93 108
66 100 123
65 101 123
66 102 123
65 98 148
63 97 0
69 104 136
67 102 123
67 101 136
65 100 89
63 95 123
72 108 168
68 103 148
64 97 108
68 102 148
69 102 148
68 103 123
67 102 148
62 96 89
63 94 108
65 100 89
65 98 108
72 108 158
70 106 148
68 102 148
65 99 123
59 91 89
61 94 108
74 110 178
61 95 89
67 101 136
69 104 123
68 103 123
64 100 108
62 96 89
65 97 123
57 89 89
64 98 108
59 91 65
66 99 123
64 97 123
62 93 89
58 89 89
66 100 123
62 95 108
62 94 108
56 88 89
59 91 89
60 93 65
115 131 0
72 94 0
135 152 0
118 130 0
115 133 0
105 121 0
148 166 0
89 107 0
91 108 0
96 116 0
145 162 0
118 139 0
80 96 0
111 128 0
148 167 0
121 138 0
145 164 0
100 116 0
156 175 0
126 142 0
161 179 0
94 112 0
61 85 0
142 156 0
125 142 0
155 172 0
123 137 0
109 129 0
123 140 0
86 100 0
93 112 0
140 160 0
146 163 0
106 118 0
100 115 0
155 176 0
110 130 0
133 152 0
92 110 0
106 125 0
114 126 0
135 151 0
150 166 0
136 155 0
169 187 0
110 128 0
123 140 0
144 159 0
165 183 0
150 165 0
146 164 0
146 161 0
161 180 0
107 119 0
148 166 0
154 172 0
118 127 0
153 170 0
132 153 0
156 172 0
128 148 0
145 161 0
131 151 0
124 144 0
160 183 0
106 125 0
156 175 0
138 141 0
150 169 0
97 111 0
159 182 0
146 166 0
147 167 0
136 156 0
158 179 0
145 160 0
151 175 0
131 142 0
136 148 0
128 137 0
138 155 0
139 156 0
151 169 0
156 173 0
155 168 0
131 145 0
122 138 0
148 166 0
129 148 0
148 164 0
173 187 0
152 167 0
153 165 0
145 158 0
152 174 0
127 145 0
126 138 0
142 162 0
146 161 0
153 168 0
120 131 0
138 150 0
140 164 0
151 166 0
159 178 0
166 184 0
172 194 0
130 148 0
176 189 0
152 166 0
148 156 0
153 170 0
151 171 0
165 182 0
153 166 0
150 167 0
149 167 0
166 178 0
166 188 0
163 182 0
135 151 0
169 183 0
166 186 0
170 190 0
170 194 0
158 177 0
177 197 0
143 155 0
175 195 0
165 181 0
158 176 0
162 179 0
168 189 0
152 170 0
148 166 0
143 161 0
160 174 0
176 193 0
146 162 0
154 165 0
153 168 0
162 176 0
163 184 0
162 179 0
169 184 0
174 194 0
151 171 0
162 178 0
160 180 0
154 170 0
177 195 0
156 174 0
167 185 0
164 184 0
177 197 0
160 180 0
158 173 0
164 185 0
163 183 0
164 183 0
152 170 0
161 180 0
157 177 0
177 196 0
173 190 0
177 198 0
166 183 0
153 172 0
150 167 0
169 188 0
170 188 0
156 173 0
172 191 89
170 192 0
170 191 0
187 206 148
174 195 0
172 193 0
171 189 89
174 196 89
180 199 89
184 209 168
187 208 123
164 188 123
196 214 148
177 201 0
157 180 123
172 196 89
180 203 89
172 194 89
172 196 123
192 212 148
181 204 89
170 192 89
179 199 123
180 203 89
155 177 89
162 182 123
197 218 202
189 210 123
186 203 123
186 208 123
189 212 168
182 202 148
176 198 123
163 185 89
175 196 89
168 190 123
135 152 123
179 199 89
163 184 0
168 189 89
153 175 0
160 180 89
167 189 123
164 183 123
176 198 89
154 173 0
160 183 123
174 190 148
169 188 123
162 182 123
175 196 148
170 192 123
156 170 0
151 170 89
161 179 89
137 156 0
173 193 123
140 155 148
169 190 123
162 182 0
149 168 89
168 188 89
132 151 0
176 195 148
154 174 89
166 186 0
119 136 123
127 144 89
145 166 0
150 168 0
116 132 123
156 178 123
150 168 0
147 167 89
164 182 0
131 145 123
144 162 89
116 135 108
73 90 65
83 113 108
126 143 168
90 114 108
50 76 89
89 108 123
88 111 108
139 158 148
83 101 108
49 75 89
105 123 123
108 130 136
79 91 89
53 79 123
140 159 158
115 136 158
119 143 168
171 187 195
157 174 178
125 143 148
108 128 148
60 89 148
96 121 178
134 153 186
134 149 158
94 114 136
116 133 158
90 108 65
117 139 123
92 113 136
104 124 89
92 111 152
135 151 168
54 82 89
117 112 0
70 86 65
62 96 108
102 129 178
124 146 186
69 105 148
67 101 148
86 114 123
70 104 158
115 138 65
68 103 136
89 117 136
69 105 148
68 102 148
65 99 108
91 109 108
81 107 123
70 105 136
86 114 123
60 91 123
86 115 136
69 103 148
68 103 123
68 102 158
84 107 123
46 72 0
134 157 65
82 110 136
56 87 123
64 98 0
62 95 89
57 87 123
70 104 158
61 94 123
60 91 65
60 93 108
64 97 108
71 108 168
69 103 158
67 101 136
68 102 136
63 95 108
67 101 136
65 97 136
63 97 136
59 89 65
70 104 158
71 106 148
65 99 136
63 96 108
54 84 65
68 103 123
67 101 136
59 91 108
70 106 148
59 91 65
58 89 89
63 97 123
69 103 123
69 103 148
65 99 123
65 99 123
70 105 136
66 100 136
65 99 148
63 96 89
70 105 158
68 102 136
67 101 136
64 97 108
61 94 108
66 99 123
64 97 89
61 94 108
62 95 123
68 104 148
64 96 123
61 94 123
67 102 123
65 101 148
66 101 136
68 103 136
70 105 136
71 106 148
64 96 108
68 104 136
71 106 148
65 99 123
68 103 108
59 89 89
58 88 89
68 102 136
62 95 123
60 91 89
62 94 108
66 100 123
63 96 89
64 97 108
63 96 123
62 94 108
62 97 108
62 95 65
61 94 123
65 100 123
69 104 136
62 94 89
57 89 65
66 101 108
67 101 123
65 100 123
67 101 136
60 92 89
69 104 123
64 96 123
49 76 65
74 89 0
120 126 0
67 82 0
107 123 0
93 104 0
98 116 0
109 119 0
84 99 0
107 118 0
99 120 0
123 135 0
125 143 0
137 150 0
110 126 0
111 126 0
138 149 0
128 143 0
137 154 0
145 159 0
95 108 0
136 150 0
107 122 0
111 128 0
111 129 0
116 133 0
140 152 0
131 148 0
106 122 0
111 127 0
138 156 0
122 132 0
99 115 0
125 139 0
142 160 0
156 173 0
123 132 0
126 142 0
146 167 0
175 192 0
122 145 0
126 143 0
132 152 0
145 165 0
107 121 0
165 183 0
151 170 0
138 152 0
161 174 0
152 173 0
156 171 0
125 143 0
142 161 0
115 125 0
148 163 0
160 176 0
169 188 0
130 144 0
141 156 0
133 150 0
139 156 0
161 179 0
133 150 0
156 176 0
140 158 0
149 169 0
130 151 0
150 173 0
144 158 0
141 158 0
169 189 0
121 135 0
156 172 0
167 187 0
152 175 0
158 174 0
138 157 0
152 169 0
133 152 0
146 162 0
154 175 0
153 176 0
113 128 0
140 161 0
150 172 0
164 181 0
147 165 0
159 174 0
152 167 0
146 165 0
146 162 0
167 188 0
106 114 0
163 181 0
153 165 0
179 201 0
146 164 0
151 174 0
167 182 0
157 170 0
169 190 0
158 173 0
168 187 0
136 154 0
144 160 0
147 161 0
165 186 0
165 182 0
153 171 0
172 190 0
144 163 0
155 174 0
163 180 0
154 163 0
148 166 0
176 191 0
166 186 0
164 177 0
147 166 0
157 176 0
149 168 0
125 145 0
143 163 0
163 182 0
157 174 0
177 201 0
174 184 0
152 167 0
142 164 0
165 184 0
163 186 0
164 185 0
147 163 0
165 183 0
156 175 0
164 184 0
155 169 0
148 167 0
178 198 0
157 181 0
155 175 0
168 192 0
146 156 0
166 185 0
170 185 0
161 179 0
165 178 0
166 186 0
176 195 0
141 154 0
154 164 0
162 180 0
167 183 0
144 156 0
166 187 0
167 183 0
146 164 0
172 192 0
141 158 0
164 185 0
168 184 0
157 176 0
144 162 0
170 186 0
148 166 0
148 168 0
162 178 0
170 188 0
179 196 0
144 168 0
153 172 0
167 184 0
159 172 0
175 194 0
175 200 168
170 192 123
183 208 148
155 177 89
183 205 89
173 191 123
153 176 0
170 192 0
173 195 0
145 167 0
168 187 0
181 204 89
153 176 89
172 193 0
185 208 148
171 190 89
184 208 148
179 199 89
189 209 123
153 173 89
176 195 148
168 187 89
173 193 0
171 193 148
176 198 89
166 188 89
177 198 89
169 188 123
178 200 123
170 194 89
181 201 123
187 208 123
160 180 89
172 191 123
157 181 123
169 191 123
174 195 148
169 188 89
164 186 0
163 181 89
173 195 148
163 181 89
169 190 123
183 204 148
158 179 89
174 196 123
166 187 89
141 160 89
174 194 123
178 199 168
180 203 168
172 193 123
147 166 123
141 162 0
115 137 89
164 183 123
152 172 89
158 178 89
148 166 0
151 169 89
180 203 89
172 194 123
164 183 148
152 170 123
151 171 123
143 159 89
115 133 0
149 169 89
152 174 0
159 179 89
163 185 0
148 169 0
140 160 89
154 175 148
173 192 123
124 142 0
161 181 89
146 165 0
71 90 65
103 125 123
81 107 108
135 152 148
124 139 148
98 113 89
63 94 123
75 91 65
122 141 136
77 104 108
104 126 136
112 131 148
94 116 108
85 102 136
118 141 148
114 135 108
111 127 148
88 107 136
52 78 108
133 149 178
127 144 148
88 113 123
93 114 108
96 120 123
60 89 108
109 128 136
102 121 108
105 123 136
90 109 136
100 125 123
60 91 136
77 101 108
106 123 123
75 96 89
135 137 133
118 120 89
116 120 128
140 159 178
71 107 158
98 122 148
103 132 136
70 106 158
73 107 158
101 129 136
72 109 178
90 121 148
86 118 136
71 106 148
100 120 123
61 92 108
59 90 136
68 102 148
79 100 89
67 101 136
70 105 136
84 112 89
60 90 123
64 99 136
60 94 136
70 106 158
87 116 136
81 104 65
86 110 89
67 100 136
56 88 89
68 103 148
66 98 148
65 99 123
63 97 89
64 98 123
68 103 108
71 106 136
63 97 89
69 103 148
70 105 136
67 101 136
68 102 136
64 97 108
66 100 136
60 92 108
59 90 65
72 107 148
67 102 123
66 100 123
64 97 108
61 94 123
67 101 148
69 104 158
67 101 108
69 104 136
65 98 108
64 97 108
66 101 158
67 101 89
68 103 123
66 99 136
67 101 89
63 97 108
62 95 123
64 99 123
69 104 136
63 96 89
64 97 108
72 107 148
64 97 108
67 103 136
67 102 123
62 95 65
65 99 123
56 86 89
64 98 108
65 98 108
63 94 108
64 97 89
68 103 148
65 98 108
58 88 89
64 97 108
63 97 89
66 100 123
61 93 89
67 102 123
64 97 89
68 104 136
64 97 108
63 96 108
68 103 123
59 91 65
66 100 108
69 103 123
66 100 89
63 96 123
60 91 89
56 86 89
60 91 65
61 92 108
70 105 136
69 104 136
60 92 108
69 102 148
63 98 65
72 108 168
66 100 123
63 95 89
59 91 89
68 101 123
63 96 123
97 119 65
138 156 0
110 128 0
98 111 0
113 129 0
88 101 0
80 97 0
101 110 0
137 153 0
99 114 0
101 120 0
109 126 0
112 128 0
139 154 0
110 121 0
95 113 0
132 150 0
142 159 0
146 164 0
109 125 0
143 156 0
128 146 0
113 132 0
108 123 0
106 119 0
140 157 0
175 192 0
134 151 0
112 128 0
71 87 0
121 135 0
131 148 0
109 128 0
112 124 0
135 149 0
77 94 0
158 177 0
136 156 0
135 154 0
141 154 0
156 174 0
132 149 0
130 147 0
133 144 0
143 162 0
96 112 0
138 158 0
144 160 0
131 150 0
129 143 0
134 151 0
151 174 0
108 121 0
133 152 0
135 152 0
127 142 0
134 153 0
119 133 0
180 195 0
160 174 0
155 176 0
167 186 0
130 149 0
170 186 0
136 153 0
180 202 0
149 169 0
160 177 0
145 167 0
142 162 0
142 163 0
136 154 0
152 173 0
127 140 0
94 109 0
154 175 0
158 176 0
152 169 0
158 176 0
140 162 0
124 141 0
154 167 0
105 122 0
143 157 0
153 174 0
160 177 0
158 179 0
154 174 0
166 184 0
136 149 0
135 152 0
119 140 0
113 127 0
166 178 0
148 162 0
166 185 0
154 167 0
140 153 0
152 173 0
158 171 0
149 169 0
141 156 0
158 175 0
165 184 0
122 131 0
148 160 0
149 166 0
161 180 0
169 184 0
153 171 0
159 174 0
154 176 0
171 192 0
170 183 0
158 176 0
159 177 0
148 164 0
163 178 0
160 178 0
143 153 0
159 174 0
146 162 0
169 190 0
155 175 0
172 192 0
164 185 0
141 159 0
160 181 0
143 161 0
165 183 0
169 188 0
146 166 0
137 154 0
166 185 0
146 162 0
164 178 0
151 165 0
164 180 0
168 188 0
169 184 0
167 185 0
154 171 0
153 174 0
163 185 0
169 189 0
157 171 0
173 190 0
178 196 0
152 173 0
161 180 0
174 192 0
160 177 0
164 184 0
168 187 0
167 179 0
171 185 0
164 180 0
168 189 0
170 188 0
172 190 0
162 176 0
160 183 0
172 193 0
150 172 0
175 197 0
168 189 0
166 184 0
155 169 0
181 203 0
160 182 0
181 199 0
156 173 0
169 189 0
157 177 0
155 176 0
161 182 0
155 177 123
169 194 89
178 199 123
192 212 148
173 193 0
169 193 0
138 160 89
166 186 0
176 200 0
181 201 123
175 194 168
191 211 148
165 188 123
167 193 168
184 205 89
160 183 0
173 192 89
162 185 89
162 183 89
184 204 0
150 170 89
165 182 123
165 187 89
169 193 0
154 177 89
148 173 0
176 198 148
171 191 123
141 161 0
160 183 123
178 198 89
159 180 89
145 168 89
166 187 0
184 205 168
146 167 123
159 180 123
171 188 148
170 190 89
183 205 168
160 179 89
158 178 89
158 179 0
166 186 89
132 154 0
167 186 148
167 190 89
164 183 89
174 194 123
144 167 89
182 205 89
173 192 123
145 165 148
182 201 123
172 190 89
172 193 123
172 192 89
146 165 123
133 150 89
126 143 0
153 173 123
158 181 123
126 145 89
140 161 0
162 180 0
165 185 0
155 172 89
170 189 0
147 168 89
172 193 123
136 154 0
142 161 89
135 153 0
127 142 89
145 162 0
152 173 89
123 142 123
156 177 89
120 140 108
46 71 89
88 108 123
96 114 108
63 94 123
98 113 108
88 110 108
77 104 108
117 137 123
90 113 148
86 112 123
80 101 65
88 109 148
81 108 136
82 106 108
105 126 123
129 150 168
53 81 89
116 134 168
53 80 123
116 131 158
144 160 173
127 146 153
93 112 148
106 124 136
87 112 108
60 92 108
122 142 65
55 83 89
92 113 136
91 113 65
96 121 148
89 105 123
130 143 172
130 124 0
135 132 97
82 109 158
68 103 123
65 98 148
69 103 123
69 105 148
85 117 123
88 120 158
83 114 89
87 114 108
98 124 65
72 108 168
69 104 123
56 86 65
100 120 136
64 96 136
65 98 148
59 90 123
62 93 136
67 102 148
61 93 123
61 94 65
58 87 123
57 87 89
45 72 0
152 173 65
132 152 89
60 93 142
52 78 108
68 101 123
58 88 89
62 94 123
64 96 89
67 101 123
66 99 123
70 105 136
62 95 136
68 103 123
67 101 108
64 98 108
64 97 136
62 96 108
66 100 89
55 85 89
62 96 108
65 100 89
67 99 123
67 101 136
67 102 123
57 88 108
65 99 65
65 99 123
71 106 148
69 105 148
68 103 148
56 86 65
59 91 123
66 100 123
70 105 148
65 99 136
69 104 123
67 101 136
65 98 108
64 98 108
67 101 136
67 102 123
64 98 123
70 106 148
59 92 108
65 99 108
62 95 89
68 102 108
70 105 136
59 92 108
66 101 108
66 102 123
69 105 136
64 97 123
66 101 108
66 99 148
68 103 123
69 104 136
68 103 123
67 102 148
68 102 148
64 96 108
67 101 136
67 101 89
72 107 158
67 101 89
64 96 136
64 98 108
71 106 148
63 97 108
65 99 89
64 97 89
57 88 0
56 87 108
69 104 136
51 79 89
67 101 108
59 90 108
59 90 65
59 90 108
67 102 108
71 106 148
65 97 123
61 92 108
60 92 123
95 110 65
42 64 0
71 84 0
73 90 0
98 112 0
140 157 0
117 134 0
59 75 0
128 139 0
108 126 0
99 116 0
117 133 0
133 146 0
143 159 0
135 151 0
70 86 0
109 124 0
136 149 0
152 171 0
97 119 0
122 141 0
109 126 0
113 134 0
153 167 0
105 125 0
95 100 0
133 152 0
153 170 0
114 132 0
89 101 0
125 143 0
151 167 0
156 176 0
91 105 0
122 135 0
127 145 0
120 138 0
107 116 0
135 153 0
135 156 0
148 166 0
144 162 0
148 161 0
158 178 0
114 128 0
95 109 0
174 191 0
139 154 0
173 192 0
112 129 0
106 122 0
149 167 0
162 177 0
147 166 0
136 153 0
129 144 0
144 162 0
129 146 0
153 170 0
119 138 0
130 148 0
170 189 0
161 184 0
151 167 0
159 174 0
147 164 0
167 187 0
163 181 0
139 150 0
143 163 0
143 155 0
161 182 0
160 173 0
158 178 0
129 138 0
180 199 0
155 173 0
143 158 0
152 174 0
142 158 0
161 182 0
161 179 0
130 145 0
154 175 0
158 174 0
144 163 0
161 180 0
120 139 0
150 169 0
125 141 0
161 182 0
146 164 0
154 170 0
133 142 0
153 170 0
160 182 0
155 168 0
141 161 0
144 158 0
147 164 0
142 158 0
148 162 0
121 141 0
161 181 0
175 192 0
161 176 0
151 171 0
180 196 0
177 198 0
142 161 0
158 174 0
153 168 0
132 151 0
130 141 0
167 183 0
150 165 0
171 193 0
168 187 0
152 169 0
160 181 0
170 186 0
158 179 0
150 168 0
156 172 0
162 171 0
155 171 0
156 175 0
160 182 0
149 169 0
162 180 0
158 174 0
184 204 0
176 195 0
160 175 0
151 167 0
149 168 0
156 172 0
162 182 0
165 179 0
169 187 0
140 160 0
169 186 0
157 173 0
156 177 0
169 188 0
153 174 0
169 188 0
175 188 0
153 171 0
169 185 0
154 173 0
157 170 0
153 172 0
168 186 0
144 159 0
167 187 0
171 187 0
160 183 0
174 189 0
170 190 0
162 183 0
178 198 0
160 180 0
152 168 0
151 171 0
164 182 0
151 171 0
161 183 0
165 184 0
161 179 0
157 177 0
144 163 0
173 199 0
160 181 0
159 181 0
174 189 0
179 198 0
155 177 89
161 180 89
168 188 89
185 203 89
173 193 123
163 185 89
179 203 89
173 194 0
145 169 123
169 189 89
154 176 89
160 183 0
162 184 89
180 204 168
181 200 123
182 204 89
149 168 89
181 202 123
179 199 89
137 156 0
163 182 123
160 178 89
179 200 123
174 198 123
157 179 89
174 196 89
177 199 186
164 185 123
159 179 123
171 191 89
172 190 89
159 181 123
159 183 89
171 192 148
155 176 0
174 194 148
177 196 148
157 177 123
161 182 89
175 196 148
161 179 89
154 175 89
179 199 123
160 177 89
162 184 0
175 192 123
193 215 186
169 190 89
130 146 123
144 164 89
140 161 0
166 185 148
163 183 123
145 163 89
160 179 123
160 175 123
166 187 0
160 180 89
164 182 123
162 179 0
183 200 89
126 145 0
161 179 89
156 177 0
150 168 89
136 152 89
161 184 123
176 196 89
155 175 0
127 145 0
129 148 89
148 164 123
140 159 89
132 153 0
157 176 0
138 159 0
139 156 89
180 199 0
120 136 89
120 137 89
82 97 108
113 134 148
87 108 89
69 88 0
49 73 123
105 123 123
92 114 148
97 122 89
81 109 108
85 102 108
61 91 136
97 115 65
131 148 168
116 132 123
56 85 108
108 124 123
60 91 89
76 99 89
93 117 148
103 123 123
41 62 89
115 139 108
88 105 136
103 121 89
83 110 108
143 158 148
109 132 89
127 151 89
90 109 123
98 121 123
92 113 136
110 124 141
80 102 108
158 152 59
122 117 43
151 143 59
121 140 186
69 101 148
88 116 136
72 109 178
66 101 89
88 116 136
53 82 108
116 142 123
63 98 136
98 122 89
93 123 148
66 100 136
88 119 136
60 92 108
101 121 89
84 113 108
57 86 89
63 95 136
64 97 136
60 92 108
56 85 65
63 95 123
115 137 0
101 124 108
116 143 136
62 95 123
64 99 89
56 84 108
58 89 108
68 103 123
62 95 89
62 94 108
58 90 65
66 99 148
61 92 115
62 95 136
65 99 136
59 89 108
65 99 89
62 94 108
70 105 136
65 97 136
65 98 123
63 97 65
66 100 123
66 100 123
67 102 123
56 84 65
63 98 65
65 99 89
67 102 123
70 104 123
63 96 123
65 98 108
63 96 108
61 94 123
66 100 89
69 104 136
60 91 108
72 107 148
65 98 108
60 92 0
69 104 136
65 100 108
69 103 136
59 90 123
67 101 136
60 94 89
65 99 123
63 96 108
62 96 89
66 99 123
63 95 123
65 97 136
55 85 108
58 90 108
66 100 123
66 100 123
58 89 108
68 103 123
70 105 123
64 98 65
63 96 108
60 90 123
63 96 89
67 101 123
62 94 108
64 96 123
69 104 136
67 101 148
69 103 108
61 94 123
64 98 123
66 100 108
64 96 123
66 100 136
69 104 123
63 96 108
67 101 136
62 95 108
65 98 108
58 89 89
66 100 136
64 96 65
59 90 108
61 92 89
99 115 0
138 154 0
111 129 0
75 95 0
92 110 0
75 92 0
115 126 0
115 130 0
108 125 0
123 143 0
114 127 0
74 90 0
135 154 0
87 103 0
95 112 0
118 126 0
123 138 0
106 118 0
110 128 0
132 147 0
112 124 0
97 114 0
123 143 0
125 141 0
144 161 0
145 164 0
73 95 0
126 145 0
141 157 0
123 139 0
100 115 0
125 141 0
130 151 0
114 131 0
136 154 0
137 154 0
133 148 0
166 184 0
108 125 0
148 166 0
133 151 0
129 148 0
138 154 0
152 173 0
91 106 0
117 132 0
117 132 0
166 187 0
135 152 0
155 175 0
124 140 0
149 171 0
139 152 0
140 153 0
137 157 0
111 130 0
143 160 0
122 139 0
121 143 0
144 159 0
134 154 0
154 176 0
148 167 0
158 178 0
158 180 0
143 163 0
127 146 0
172 190 0
106 126 0
146 162 0
146 160 0
138 155 0
155 169 0
139 155 0
135 157 0
154 173 0
163 180 0
163 181 0
132 152 0
168 183 0
152 167 0
145 167 0
159 179 0
160 174 0
152 169 0
168 186 0
144 160 0
144 166 0
157 175 0
145 168 0
155 170 0
154 169 0
144 159 0
172 180 0
161 181 0
119 135 0
165 186 0
164 183 0
131 154 0
165 182 0
152 163 0
165 182 0
154 173 0
169 188 0
166 180 0
162 182 0
179 199 0
151 172 0
161 179 0
165 185 0
150 169 0
162 183 0
151 161 0
152 169 0
156 175 0
143 153 0
137 155 0
147 167 0
178 198 0
160 182 0
154 174 0
128 135 0
169 191 0
145 161 0
168 190 0
164 185 0
150 167 0
135 152 0
147 158 0
157 176 0
165 181 0
158 174 0
171 193 0
162 177 0
172 193 0
157 178 0
168 192 0
145 162 0
173 191 0
151 168 0
154 170 0
158 178 0
178 198 0
147 159 0
158 173 0
174 190 0
176 194 0
169 192 0
175 193 0
168 188 0
160 178 0
160 178 0
150 168 0
159 181 0
151 173 0
157 174 0
174 199 0
150 169 0
169 179 0
178 192 0
173 187 0
165 183 0
168 188 0
174 193 0
173 199 0
156 172 0
174 193 0
164 181 0
154 173 0
174 187 0
165 185 0
163 181 0
178 198 0
162 179 0
180 199 0
175 196 0
157 170 0
147 166 0
182 202 123
177 198 89
156 178 123
171 191 148
151 175 0
189 208 89
170 190 89
187 208 123
166 189 123
168 191 123
154 176 89
172 193 0
171 188 0
188 209 123
167 192 0
167 189 123
167 188 89
179 199 123
169 190 123
155 176 0
178 200 123
167 188 89
191 214 186
183 207 148
161 184 0
173 193 148
160 182 123
167 189 89
159 184 89
171 190 89
169 191 0
170 189 89
179 198 148
183 204 148
165 188 89
170 193 0
168 186 148
146 167 89
170 192 148
162 185 168
170 194 89
144 166 89
174 195 148
134 155 89
139 158 89
154 171 89
175 195 0
147 168 0
151 170 0
153 171 89
174 194 0
142 160 89
153 173 89
136 157 0
164 183 123
163 180 89
150 169 89
167 189 89
162 181 89
163 182 89
183 204 148
148 167 89
173 191 89
161 180 89
167 185 148
164 183 0
141 159 0
160 174 0
143 163 0
164 185 0
166 185 123
147 166 0
149 169 0
147 169 89
152 170 0
160 181 89
166 185 148
119 137 89
163 183 89
114 130 0
144 162 89
127 144 89
74 98 65
61 92 108
82 109 108
73 95 65
126 142 65
132 149 136
112 130 136
81 99 123
89 109 136
60 90 123
91 114 148
101 112 108
95 118 65
73 96 108
85 101 123
91 113 148
91 113 136
84 107 108
78 102 108
90 107 108
51 78 65
108 127 123
119 139 148
122 141 148
126 144 148
100 127 123
106 127 108
109 130 0
80 104 89
93 115 136
52 80 89
82 91 108
174 171 111
123 116 0
125 118 0
78 104 123
105 132 123
85 114 108
86 116 108
85 113 108
87 118 136
68 103 158
68 103 123
86 113 89
70 106 148
69 104 136
62 91 123
107 130 123
93 108 89
62 94 123
58 90 123
63 96 89
58 88 65
85 112 89
57 85 123
87 115 123
38 58 0
133 150 65
112 133 65
60 93 108
70 105 148
67 101 136
60 92 108
62 93 99
63 95 123
68 104 148
64 97 108
60 92 89
59 89 89
68 101 136
61 93 89
64 98 89
63 97 89
64 97 108
59 89 89
66 99 123
65 101 123
60 92 89
67 100 123
58 89 89
70 105 136
69 102 168
61 94 65
64 97 136
62 95 65
53 81 65
61 93 108
69 104 158
65 100 136
57 90 65
61 92 89
66 99 123
63 95 89
64 97 108
62 93 136
65 99 123
57 88 108
58 88 89
64 98 123
67 102 123
61 94 89
62 95 123
54 81 108
67 101 136
66 99 108
65 99 123
69 104 123
66 99 123
64 97 108
63 96 108
57 88 108
62 94 123
63 97 136
67 101 89
57 88 108
58 90 108
68 102 136
65 99 108
65 98 136
61 92 89
65 100 89
62 94 108
66 99 108
58 88 89
64 97 108
62 92 123
60 90 123
63 97 0
62 94 136
65 100 108
57 87 89
65 99 123
61 94 123
58 90 65
57 88 65
59 89 89
69 104 136
60 91 89
74 90 65
113 134 0
159 178 0
130 148 0
126 143 0
104 120 0
93 104 0
122 132 0
149 169 0
92 110 0
86 99 0
128 146 0
111 132 0
111 127 0
135 157 0
92 108 0
129 144 0
130 143 0
111 131 0
133 152 0
116 137 0
134 150 0
118 137 0
102 115 0
131 147 0
125 143 0
94 109 0
121 138 0
148 168 0
141 159 0
137 154 0
120 138 0
107 121 0
106 127 0
120 139 0
120 140 0
146 162 0
49 74 0
157 174 0
140 157 0
115 133 0
142 164 0
143 156 0
137 155 0
108 125 0
121 134 0
135 155 0
133 147 0
126 143 0
139 153 0
74 92 0
150 172 0
96 115 0
138 158 0
153 176 0
126 137 0
135 153 0
167 185 0
122 143 0
155 177 0
120 138 0
122 143 0
150 170 0
151 169 0
147 166 0
134 150 0
171 190 0
162 181 0
142 157 0
139 148 0
164 180 0
158 178 0
152 169 0
123 143 0
149 168 0
131 143 0
147 171 0
147 165 0
145 164 0
151 168 0
158 179 0
145 164 0
132 145 0
143 159 0
146 164 0
140 151 0
150 166 0
151 169 0
142 158 0
153 175 0
132 143 0
144 161 0
158 175 0
171 193 0
170 187 0
166 187 0
143 161 0
171 191 0
168 188 0
157 170 0
139 155 0
169 191 0
177 201 0
160 177 0
140 157 0
149 165 0
168 186 0
151 171 0
136 153 0
141 163 0
150 167 0
165 185 0
161 179 0
169 182 0
147 163 0
159 178 0
125 140 0
161 175 0
170 192 0
158 176 0
172 188 0
166 185 0
176 194 0
153 171 0
166 185 0
170 192 0
132 150 0
149 173 0
168 186 0
165 188 0
166 185 0
115 120 0
175 192 0
161 176 0
169 188 0
173 187 0
168 191 0
160 183 0
160 182 0
176 193 0
175 192 0
169 184 0
157 171 0
170 189 0
164 182 0
139 153 0
157 173 0
152 166 0
149 168 0
148 164 0
170 189 0
163 180 0
152 171 0
181 202 0
164 178 0
168 185 0
146 165 0
171 194 0
174 194 0
178 192 0
169 183 0
169 185 0
163 180 0
158 173 0
153 171 0
164 185 0
151 164 0
145 161 0
170 186 0
160 180 0
169 186 0
165 187 0
177 195 0
175 196 0
149 169 0
170 186 0
180 196 0
171 193 0
152 171 0
175 197 0
189 210 148
167 189 123
177 199 123
180 202 0
188 209 123
162 183 123
160 184 89
183 204 148
172 195 0
175 197 123
161 181 89
145 165 123
175 200 0
174 196 89
177 198 89
179 198 89
183 201 123
155 177 89
164 186 0
173 193 0
168 188 89
168 187 148
165 185 123
163 186 0
158 181 123
165 187 89
166 183 123
166 188 0
160 181 123
166 187 89
181 200 89
157 178 123
178 197 148
156 181 123
170 191 123
159 181 89
179 198 0
169 190 89
155 176 123
179 200 123
169 193 148
168 188 0
177 198 89
169 192 123
167 183 123
158 181 148
126 146 0
156 176 89
140 162 123
177 197 186
168 188 123
177 200 123
166 181 168
153 176 89
172 192 123
177 196 148
158 177 123
135 153 89
174 192 168
179 199 123
174 194 123
135 150 123
169 189 0
167 188 89
150 169 0
164 182 168
148 166 0
172 192 148
137 156 89
170 190 123
165 184 123
151 170 89
168 189 89
166 186 123
148 168 89
138 153 0
173 193 148
139 158 89
116 133 89
116 132 89
111 127 89
130 143 89
96 114 0
125 141 168
124 144 148
82 109 89
48 74 65
132 151 168
83 109 108
103 125 123
103 119 123
37 56 0
124 140 136
57 86 123
48 73 65
100 117 89
113 129 148
105 119 89
138 157 178
78 105 89
72 91 89
132 150 168
107 128 108
120 142 136
93 113 136
95 120 136
104 128 136
86 115 148
105 122 89
100 121 89
90 108 123
108 124 123
89 105 123
40 61 89
136 138 128
105 101 43
76 70 0
79 105 123
88 117 148
67 102 123
85 116 108
62 94 136
68 103 123
67 101 89
66 100 136
98 124 65
69 105 148
68 104 136
61 94 123
89 119 123
62 93 108
57 86 89
69 105 148
68 102 148
61 93 123
63 96 89
67 102 108
56 86 65
77 97 108
116 138 65
127 146 108
83 109 89
70 106 148
68 102 136
63 96 136
64 97 108
66 99 123
63 96 65
66 101 108
68 103 123
66 100 136
64 96 108
69 103 123
61 93 89
57 87 89
60 92 89
62 95 89
65 99 136
66 100 136
62 94 136
65 99 123
66 100 123
60 91 89
64 98 108
68 102 136
67 102 148
68 103 136
64 97 136
60 91 65
68 103 123
64 98 123
65 98 108
64 97 108
60 93 108
57 88 89
67 101 136
64 97 123
62 93 108
63 97 89
67 102 123
65 100 89
66 101 148
66 100 89
62 94 136
61 92 108
68 103 123
66 101 108
61 93 89
68 103 123
62 94 108
62 94 136
64 98 108
65 98 123
63 97 89
70 105 136
65 99 123
62 95 108
70 104 123
54 83 89
60 93 89
60 92 65
59 89 123
59 91 108
61 93 108
58 87 89
64 98 108
65 99 108
70 105 136
52 81 65
66 101 108
66 99 123
66 100 123
64 97 123
53 82 65
58 89 108
57 88 89
69 103 123
58 89 108
54 81 89
110 124 0
112 124 0
92 105 0
111 123 0
108 124 0
119 134 0
128 145 0
107 120 0
136 145 0
101 121 0
132 144 0
70 89 0
98 118 0
124 138 0
112 131 0
104 119 0
145 161 0
118 132 0
126 143 0
122 139 0
146 162 0
94 110 0
139 156 0
123 140 0
154 169 0
91 104 0
113 127 0
119 134 0
124 144 0
149 167 0
137 154 0
149 165 0
155 176 0
140 161 0
123 141 0
126 146 0
126 142 0
148 162 0
129 144 0
123 144 0
103 119 0
129 149 0
135 149 0
144 159 0
135 149 0
152 171 0
121 141 0
107 124 0
134 141 0
124 141 0
129 146 0
159 174 0
154 171 0
103 120 0
119 133 0
145 161 0
144 158 0
152 169 0
133 153 0
129 152 0
131 148 0
143 165 0
113 126 0
155 173 0
161 181 0
157 176 0
152 165 0
142 164 0
146 166 0
120 138 0
132 141 0
166 186 0
129 146 0
149 170 0
159 179 0
151 160 0
136 155 0
119 137 0
160 183 0
166 185 0
118 137 0
144 166 0
161 183 0
140 155 0
130 149 0
153 163 0
137 155 0
165 184 0
143 161 0
150 166 0
118 134 0
136 155 0
160 180 0
159 175 0
136 155 0
148 161 0
160 183 0
158 166 0
155 175 0
171 194 0
161 176 0
143 163 0
153 170 0
151 174 0
162 184 0
163 184 0
154 175 0
153 171 0
164 185 0
142 163 0
139 158 0
145 163 0
153 170 0
140 159 0
165 186 0
143 162 0
136 150 0
151 169 0
163 180 0
138 158 0
171 186 0
140 158 0
173 191 0
157 173 0
152 173 0
166 184 0
162 181 0
160 177 0
158 180 0
160 177 0
152 174 0
171 193 0
153 172 0
156 174 0
145 158 0
157 172 0
142 163 0
161 180 0
157 172 0
168 188 0
147 167 0
169 192 0
175 192 0
148 168 0
164 175 0
163 178 0
173 195 0
148 162 0
157 175 0
160 177 0
153 173 0
179 201 0
177 201 0
179 199 0
158 178 0
157 177 0
154 173 0
157 176 0
159 179 0
172 186 0
165 187 0
174 193 0
170 186 0
173 191 0
170 188 0
154 170 0
151 167 0
153 173 0
171 189 0
155 174 0
167 190 0
165 184 0
149 162 0
164 182 0
163 183 0
149 156 0
153 169 0
157 180 0
184 204 0
174 196 0
170 191 0
177 198 89
179 198 89
162 184 123
176 197 89
181 204 168
167 191 0
165 187 89
172 192 123
174 197 89
176 196 168
187 209 148
159 179 0
172 196 123
159 181 0
180 203 89
175 195 148
184 202 186
162 181 89
179 204 123
164 189 123
168 190 89
173 196 168
187 207 186
166 186 148
151 168 89
160 180 0
178 200 123
190 211 148
165 186 89
177 200 148
166 187 123
179 198 168
163 181 89
178 201 148
179 199 89
169 189 168
180 201 148
166 187 89
176 196 0
173 193 123
162 183 89
165 186 89
151 172 89
153 172 123
184 201 168
177 198 168
169 191 123
178 199 123
170 191 123
185 205 148
152 168 123
163 183 123
184 202 123
171 194 89
150 171 123
181 202 123
174 197 89
112 130 0
161 182 123
125 141 0
136 157 89
157 174 123
152 169 89
126 146 0
144 158 89
144 161 89
152 172 0
158 178 168
148 164 89
77 95 0
155 176 89
144 161 123
164 185 89
129 148 123
127 140 89
156 174 0
133 151 0
120 135 0
159 177 89
118 137 89
103 120 89
126 144 0
151 168 123
124 141 0
90 111 108
123 141 136
83 110 108
54 81 123
103 124 108
77 90 89
119 143 136
126 145 123
87 105 136
79 106 108
103 129 136
84 106 123
48 73 65
69 103 148
149 166 178
115 133 108
60 90 123
97 120 158
93 114 136
92 111 89
53 80 123
87 115 136
100 115 89
77 97 89
82 106 89
123 134 136
125 141 136
87 108 148
77 99 65
55 84 123
172 181 59
158 172 89
133 136 76
125 135 65
117 131 65
85 114 148
64 96 136
109 135 148
120 144 136
87 113 123
85 112 89
71 107 158
70 104 168
83 111 123
90 110 108
63 96 89
87 116 89
104 124 123
98 122 136
58 90 89
64 96 136
54 82 108
69 104 136
66 99 108
62 94 108
126 146 65
112 133 65
81 110 65
62 92 123
62 95 89
64 96 89
69 103 123
66 100 123
69 104 123
67 101 136
60 90 89
62 95 108
70 105 148
57 88 89
58 88 108
62 94 89
57 88 108
64 97 123
65 98 108
66 100 136
66 100 136
69 104 123
67 102 108
68 101 136
54 82 89
64 98 123
69 103 158
60 92 89
62 96 89
69 102 136
68 102 136
68 103 123
69 103 123
57 88 89
67 101 108
65 98 123
64 98 123
68 104 136
56 88 0
62 98 89
62 93 108
64 97 89
60 91 108
56 88 108
60 92 108
58 89 108
66 101 108
60 93 108
60 91 108
66 99 89
57 86 108
67 100 108
63 97 0
68 102 123
59 90 89
67 101 136
65 98 108
63 97 108
59 91 65
67 102 123
63 96 123
67 101 136
63 96 108
59 90 65
66 100 123
48 77 0
62 94 108
59 89 89
60 91 108
68 104 136
66 99 89
66 101 108
63 95 123
62 94 108
59 89 123
56 87 89
75 101 108
88 101 65
56 56 0
137 153 0
83 93 0
107 121 0
128 144 0
101 116 0
124 139 0
98 106 0
90 109 0
95 111 0
117 134 0
117 131 0
123 143 0
114 130 0
90 108 0
111 124 0
116 134 0
104 117 0
106 121 0
112 126 0
125 143 0
122 138 0
105 121 0
134 150 0
135 153 0
74 89 0
103 120 0
134 150 0
119 137 0
127 143 0
123 138 0
145 159 0
122 137 0
153 170 0
147 168 0
87 100 0
143 160 0
161 173 0
133 150 0
108 124 0
111 128 0
109 125 0
138 151 0
151 170 0
136 156 0
133 148 0
150 164 0
79 103 0
145 165 0
155 177 0
153 175 0
123 138 0
142 160 0
136 150 0
145 161 0
134 148 0
135 152 0
139 153 0
134 155 0
152 174 0
124 140 0
136 151 0
130 145 0
159 177 0
149 157 0
155 176 0
158 178 0
120 134 0
129 148 0
139 156 0
159 177 0
144 161 0
163 179 0
125 140 0
137 157 0
148 163 0
167 184 0
141 165 0
172 193 0
132 144 0
158 179 0
126 148 0
152 168 0
161 177 0
156 177 0
145 163 0
131 154 0
150 169 0
118 134 0
144 162 0
121 135 0
127 142 0
126 143 0
140 155 0
167 187 0
139 153 0
161 183 0
116 135 0
160 175 0
164 178 0
159 177 0
138 154 0
154 171 0
160 174 0
155 172 0
171 193 0
173 189 0
160 172 0
131 150 0
168 186 0
145 161 0
158 173 0
143 160 0
172 190 0
158 173 0
162 180 0
159 179 0
141 163 0
163 186 0
137 151 0
164 180 0
151 169 0
149 166 0
160 179 0
150 162 0
166 188 0
162 179 0
146 165 0
163 186 0
132 150 0
152 169 0
164 183 0
153 172 0
152 170 0
170 185 0
180 202 0
177 198 0
141 149 0
175 195 0
156 171 0
163 181 0
164 187 0
177 197 0
165 183 0
158 174 0
159 175 0
164 180 0
168 188 0
166 182 0
149 165 0
162 184 0
166 184 0
134 148 0
157 170 0
160 174 0
173 194 0
157 173 0
158 174 0
153 170 0
165 188 0
175 190 0
177 198 0
165 184 0
164 179 0
170 189 0
162 183 0
133 150 0
147 167 0
158 175 0
155 173 0
143 156 0
153 172 0
161 177 0
140 153 0
158 175 0
170 189 0
148 167 0
169 188 0
168 185 0
170 189 0
164 183 0
161 182 0
150 166 0
179 198 148
169 193 0
154 174 89
165 188 89
178 200 123
164 185 123
172 193 0
169 189 89
161 181 89
171 192 148
174 195 123
185 206 168
158 179 89
160 180 0
171 190 123
168 187 89
163 185 0
165 189 123
162 184 89
174 191 123
190 208 89
170 192 0
171 195 89
174 194 123
169 191 123
180 199 186
165 186 0
183 204 148
174 194 123
167 187 89
170 194 89
170 189 123
164 186 0
172 191 148
193 215 186
168 190 123
185 207 123
162 185 89
162 181 123
169 192 0
174 197 89
141 161 0
166 185 123
168 190 89
174 194 123
149 168 0
168 188 89
184 202 123
179 202 148
175 193 123
178 200 123
159 177 89
177 198 123
140 159 0
155 174 123
176 197 89
168 186 123
145 162 89
139 159 123
172 193 148
168 186 148
142 163 0
177 195 148
123 139 123
116 133 89
190 211 148
168 189 89
164 185 148
173 195 0
124 138 0
116 134 89
142 160 123
185 205 148
145 162 89
146 163 89
155 177 0
146 163 89
134 149 0
101 118 89
125 142 0
149 168 89
156 173 89
147 164 148
111 126 0
79 97 0
123 142 136
140 155 158
88 109 136
83 112 89
106 122 136
115 134 89
52 80 89
51 77 108
60 90 123
93 117 136
47 71 108
56 84 123
93 113 158
106 123 108
97 124 178
70 85 65
117 135 108
109 132 123
108 126 136
95 115 89
96 112 0
103 129 123
58 88 108
79 102 108
136 153 123
113 132 65
97 123 123
122 145 148
52 78 108
161 175 0
171 189 0
182 195 89
153 158 0
124 133 0
93 120 148
102 130 136
65 98 136
68 103 158
95 122 108
84 113 136
81 103 0
68 102 148
67 103 136
107 134 136
123 144 123
64 99 136
108 131 65
80 102 136
66 99 123
69 103 158
68 102 108
68 102 136
63 96 108
56 87 65
121 141 65
134 155 108
61 93 123
60 93 0
70 104 123
53 82 65
63 95 108
55 86 65
59 91 89
70 104 123
64 97 108
62 95 136
66 99 108
61 91 108
58 90 108
60 90 115
63 96 123
64 97 108
65 98 136
61 93 108
61 92 65
70 105 136
65 98 108
62 94 89
65 98 108
62 95 89
63 96 65
64 96 65
70 105 136
60 94 65
53 83 0
59 90 123
62 95 123
66 101 108
64 98 123
67 102 108
55 85 108
59 90 65
67 100 108
66 101 136
60 92 65
67 102 148
58 89 108
69 103 123
62 94 123
59 89 89
68 103 123
64 97 108
63 95 108
68 104 136
67 101 123
65 99 123
56 85 0
65 99 123
62 95 108
67 101 136
52 83 0
63 98 65
64 98 108
68 103 108
72 106 136
63 96 89
62 95 0
62 96 89
67 101 89
56 87 89
59 91 89
61 93 89
63 97 89
56 87 108
63 95 108
59 90 89
61 92 123
60 91 89
55 85 65
72 89 0
110 121 0
40 62 0
124 141 0
97 113 0
67 76 0
112 128 0
124 139 0
117 134 0
95 106 0
110 127 0
106 117 0
137 151 0
98 111 0
113 128 0
94 112 0
79 94 0
116 134 0
128 146 0
133 151 0
70 84 0
71 91 0
152 169 0
118 132 0
110 130 0
112 126 0
108 125 0
105 114 0
120 135 0
110 129 0
115 130 0
108 121 0
86 103 0
110 121 0
108 128 0
146 166 0
85 104 0
162 175 0
120 134 0
130 145 0
129 148 0
144 164 0
110 130 0
122 140 0
144 162 0
153 171 0
121 134 0
153 173 0
147 163 0
144 156 0
131 150 0
127 139 0
122 136 0
148 165 0
137 155 0
148 162 0
132 145 0
108 127 0
161 174 0
138 156 0
140 157 0
155 171 0
130 148 0
123 139 0
138 153 0
124 142 0
140 164 0
135 153 0
134 154 0
121 136 0
142 164 0
115 136 0
162 185 0
105 124 0
169 187 0
179 202 0
155 174 0
163 180 0
152 165 0
142 164 0
153 174 0
166 182 0
126 149 0
135 152 0
108 125 0
138 141 0
174 199 0
174 190 0
160 183 0
166 182 0
144 159 0
149 166 0
176 197 0
146 164 0
143 163 0
176 195 0
152 166 0
153 171 0
156 176 0
144 159 0
170 193 0
162 182 0
144 161 0
149 161 0
155 173 0
145 167 0
161 178 0
136 155 0
159 173 0
154 172 0
165 183 0
145 160 0
176 197 0
162 180 0
174 195 0
165 189 0
133 149 0
173 195 0
159 180 0
129 141 0
166 191 0
174 192 0
153 170 0
164 186 0
159 173 0
156 174 0
138 158 0
157 174 0
154 172 0
150 166 0
170 188 0
164 184 0
152 173 0
153 171 0
168 188 0
144 163 0
140 159 0
172 193 0
150 164 0
160 179 0
160 182 0
159 177 0
176 197 0
162 183 0
164 182 0
166 190 0
157 174 0
162 183 0
171 188 0
174 195 0
160 181 0
170 194 0
164 185 0
180 197 0
165 177 0
177 194 0
165 184 0
159 178 0
154 164 0
154 173 0
173 195 0
179 199 0
172 191 0
169 188 0
158 182 0
159 173 0
177 189 0
151 163 0
165 180 0
160 175 0
167 186 0
171 190 0
174 196 0
179 195 0
171 189 0
170 186 0
179 202 0
171 190 0
160 179 0
178 198 0
160 179 0
166 183 0
175 194 0
169 188 0
154 172 0
169 182 0
179 200 123
174 195 0
179 200 148
140 163 0
170 188 123
191 212 148
184 205 148
166 187 89
172 194 148
183 206 186
166 188 123
172 192 148
178 199 123
173 191 123
176 198 123
172 194 148
136 154 89
179 199 123
185 207 123
180 203 89
172 193 0
174 194 0
180 202 0
155 176 0
163 186 89
158 179 123
163 185 0
171 191 89
176 199 123
178 201 168
189 211 148
156 178 89
156 178 0
161 183 148
147 166 148
176 198 89
144 163 89
156 175 0
178 199 123
182 203 148
188 209 123
164 183 0
170 191 148
161 183 148
169 184 123
152 171 123
138 158 0
173 192 89
169 187 89
160 180 89
160 180 89
166 184 123
148 168 89
179 195 148
163 181 89
153 169 89
167 189 123
151 172 148
157 177 89
150 166 148
118 137 89
148 165 89
164 181 123
103 121 0
161 182 148
173 192 123
149 168 89
181 200 89
148 166 0
163 180 89
167 186 0
125 144 0
188 210 148
148 167 89
165 182 123
139 156 123
121 135 89
92 108 0
123 141 0
113 129 0
111 127 0
136 154 0
149 167 89
149 163 148
141 158 0
87 102 0
97 121 65
112 132 158
86 104 123
79 102 108
132 152 158
109 124 123
89 114 123
130 151 148
45 70 89
50 75 89
97 115 65
107 125 148
69 81 65
80 105 108
106 125 108
93 115 148
58 88 123
87 103 108
95 117 65
110 134 89
48 73 65
115 138 136
105 128 136
137 157 148
135 157 136
98 115 65
97 122 108
55 82 136
106 116 89
159 176 0
160 174 0
146 149 65
139 139 89
123 130 89
64 98 136
88 119 136
67 101 148
106 132 108
83 113 108
66 100 123
65 98 148
68 103 158
71 107 158
67 102 123
94 116 123
86 113 108
78 102 123
94 123 148
81 104 65
90 121 148
61 93 108
62 94 108
53 81 65
79 105 89
97 115 0
65 99 65
57 88 0
62 94 108
59 91 89
62 95 108
69 102 89
67 102 108
59 92 0
64 97 123
60 93 89
70 104 158
60 91 89
65 99 123
65 99 89
65 100 89
61 94 108
60 89 136
65 98 136
66 99 89
54 82 89
60 92 65
64 97 108
68 103 123
54 83 89
67 102 123
66 100 136
66 99 123
60 92 89
67 102 123
64 98 65
65 99 0
60 91 65
70 105 136
60 93 0
62 93 123
63 97 108
59 90 65
64 99 89
64 97 108
62 97 108
65 100 136
56 86 65
67 101 123
62 92 123
66 99 136
65 99 123
59 90 108
56 87 65
69 103 123
66 101 89
60 93 89
63 96 89
54 83 0
65 99 123
60 91 123
58 88 89
63 97 123
65 99 148
62 93 136
62 93 108
61 92 108
61 94 123
62 95 108
60 93 108
59 91 89
65 98 89
66 98 136
66 99 108
65 99 123
56 86 89
100 118 65
137 155 0
114 132 0
94 107 0
95 109 0
109 122 0
76 94 0
110 123 0
121 138 0
104 116 0
100 115 0
133 152 0
126 143 0
128 145 0
126 141 0
124 139 0
113 127 0
81 100 0
107 116 0
105 121 0
100 110 0
120 132 0
73 82 0
94 108 0
130 147 0
133 152 0
121 139 0
126 144 0
123 143 0
147 162 0
139 155 0
79 98 0
140 153 0
139 158 0
128 146 0
108 128 0
112 130 0
159 176 0
99 113 0
123 141 0
149 166 0
89 106 0
135 152 0
144 158 0
142 159 0
122 145 0
160 177 0
146 162 0
127 145 0
129 139 0
125 146 0
109 127 0
121 140 0
149 165 0
147 161 0
138 157 0
159 170 0
135 146 0
157 176 0
149 166 0
110 127 0
154 172 0
161 177 0
157 179 0
169 187 0
124 142 0
123 142 0
142 161 0
115 135 0
142 158 0
133 153 0
146 163 0
136 158 0
136 151 0
133 145 0
148 168 0
144 159 0
167 188 0
177 196 0
145 166 0
128 143 0
166 186 0
124 142 0
144 161 0
124 144 0
162 184 0
158 175 0
164 185 0
171 187 0
143 163 0
155 174 0
138 157 0
172 193 0
151 166 0
148 167 0
155 176 0
155 172 0
141 157 0
154 172 0
145 164 0
163 184 0
153 164 0
146 165 0
180 199 0
160 175 0
156 171 0
156 174 0
125 143 0
164 182 0
142 155 0
138 159 0
168 187 0
133 152 0
143 162 0
142 162 0
156 177 0
173 192 0
159 182 0
161 185 0
149 169 0
183 201 0
140 162 0
161 179 0
153 172 0
171 189 0
147 166 0
159 177 0
178 195 0
143 160 0
173 188 0
158 180 0
156 177 0
157 170 0
167 185 0
147 159 0
150 170 0
164 180 0
159 179 0
156 176 0
176 200 0
160 178 0
156 175 0
133 151 0
168 187 0
145 164 0
166 181 0
184 204 0
150 170 0
128 146 0
143 163 0
181 196 0
165 183 0
179 198 0
165 183 0
150 159 0
167 190 0
171 194 0
150 166 0
156 171 0
171 190 0
146 160 0
155 168 0
162 180 0
137 150 0
160 179 0
160 175 0
161 183 0
174 189 0
171 194 0
169 191 0
180 202 0
165 186 0
168 192 0
159 181 0
156 176 0
158 182 0
174 194 0
164 182 0
171 189 0
165 181 0
150 164 0
151 174 0
162 180 0
162 184 0
164 184 0
169 186 0
169 191 0
164 184 0
177 197 0
160 185 148
159 178 0
191 211 148
176 198 89
159 181 123
167 191 0
177 197 89
151 176 89
176 197 89
181 203 168
169 189 123
179 200 123
179 203 89
172 196 123
176 195 148
175 197 123
157 180 89
166 191 123
170 192 148
162 186 89
187 210 148
159 179 89
166 188 123
146 168 0
179 200 123
167 191 123
158 179 89
159 178 123
149 169 89
141 162 123
148 166 89
164 185 0
181 202 136
167 190 123
164 183 123
122 143 0
178 199 123
175 196 0
160 183 0
182 202 148
166 189 89
152 173 0
160 177 123
163 185 123
170 193 89
155 176 0
155 178 89
127 148 89
125 143 89
165 184 148
148 167 89
168 186 123
181 199 168
155 174 89
163 184 123
159 179 0
179 201 148
176 196 89
132 148 89
156 175 123
147 161 148
166 187 89
155 171 123
118 132 89
132 150 0
141 159 89
142 164 0
148 166 89
179 199 89
166 184 89
142 157 89
143 157 89
160 177 89
148 169 89
162 178 0
108 130 0
120 136 0
151 169 89
156 177 123
127 147 0
142 159 89
137 153 123
155 173 148
109 123 0
149 164 123
106 123 89
103 119 89
53 80 65
116 137 168
127 143 148
105 118 123
65 97 136
114 134 89
78 103 123
97 117 89
73 92 89
53 81 108
75 97 0
131 149 136
112 138 148
89 108 123
44 67 65
110 131 148
102 118 108
76 97 108
89 107 136
66 100 136
59 88 136
105 123 123
77 97 89
94 116 136
137 154 108
77 102 123
118 136 89
95 115 89
174 195 89
177 190 0
163 177 0
129 136 65
156 166 0
139 154 65
70 105 148
90 117 136
84 109 89
106 131 123
84 113 108
102 127 148
100 128 89
82 110 123
68 90 89
79 102 108
86 111 108
57 87 89
69 104 136
65 97 136
67 102 123
57 86 89
51 77 108
88 119 123
89 106 0
115 132 65
104 126 108
64 99 89
61 92 89
66 100 123
66 101 108
68 103 123
62 94 108
65 100 89
63 95 108
60 93 89
68 103 123
60 93 89
58 88 89
64 96 108
63 95 123
57 88 89
60 91 65
57 87 65
57 88 89
68 103 123
59 90 108
63 96 123
65 99 123
61 93 136
66 99 123
61 94 0
56 88 0
57 88 108
61 93 89
63 97 89
46 74 0
63 95 123
64 97 123
63 97 108
62 95 89
67 101 136
61 93 89
55 85 65
67 102 108
70 105 136
60 90 108
67 99 123
66 99 108
62 93 89
64 96 136
63 97 89
61 94 65
60 91 89
53 82 65
65 100 136
57 87 89
62 93 108
66 100 123
61 94 89
65 98 108
66 100 123
66 100 89
65 101 108
61 92 89
67 101 136
62 96 89
62 94 65
65 100 89
62 94 108
57 87 123
59 90 89
67 100 136
45 69 65
50 78 0
115 135 0
70 84 0
91 104 0
79 93 0
124 140 0
94 107 0
69 85 0
82 91 0
93 107 0
108 122 0
99 116 0
111 128 0
133 148 0
110 130 0
124 139 0
111 129 0
96 112 0
121 138 0
125 145 0
93 108 0
110 125 0
122 141 0
72 85 0
108 126 0
148 160 0
74 93 0
147 164 0
123 134 0
75 97 0
113 127 0
83 104 0
113 133 0
115 131 0
139 154 0
107 120 0
148 167 0
144 164 0
111 128 0
110 134 0
126 142 0
113 127 0
107 127 0
110 126 0
111 127 0
122 143 0
146 165 0
152 176 0
129 147 0
110 126 0
158 178 0
124 140 0
146 166 0
153 173 0
122 137 0
109 129 0
125 145 0
145 159 0
151 170 0
133 153 0
134 152 0
160 181 0
164 181 0
123 143 0
149 164 0
142 163 0
170 189 0
145 168 0
159 184 0
142 162 0
155 175 0
99 121 0
145 166 0
134 145 0
158 176 0
144 161 0
169 188 0
136 149 0
148 165 0
167 189 0
125 141 0
156 176 0
143 157 0
156 177 0
166 182 0
120 134 0
154 172 0
109 131 0
144 164 0
134 149 0
152 165 0
130 146 0
162 184 0
151 168 0
134 152 0
179 202 0
153 170 0
154 166 0
165 185 0
136 155 0
143 153 0
136 152 0
154 176 0
126 138 0
144 161 0
161 180 0
170 190 0
149 165 0
164 172 0
150 169 0
135 155 0
156 175 0
153 167 0
157 178 0
153 167 0
111 131 0
148 164 0
142 162 0
182 203 0
150 168 0
167 185 0
177 197 0
162 183 0
169 192 0
169 188 0
156 176 0
157 174 0
159 178 0
167 184 0
160 174 0
157 173 0
154 176 0
161 180 0
145 164 0
168 185 0
155 170 0
147 160 0
150 161 0
152 170 0
166 186 0
170 192 0
167 187 0
172 190 0
176 197 0
141 159 0
164 184 0
145 165 0
161 179 0
160 176 0
148 167 0
162 182 0
167 187 0
158 174 0
175 196 0
175 193 0
166 191 0
163 181 0
172 194 0
161 180 0
164 184 0
168 188 0
163 176 0
154 175 0
155 175 0
161 178 0
161 180 0
153 170 0
173 188 0
154 166 0
171 190 0
155 177 0
170 189 0
152 173 0
165 185 0
166 185 0
176 196 0
170 193 0
181 199 0
164 186 0
158 179 0
174 195 0
178 198 0
155 177 0
168 188 0
177 193 0
161 183 0
159 177 0
156 167 0
178 198 0
162 175 0
156 174 0
187 207 89
168 190 123
167 189 123
165 182 123
180 200 123
189 209 123
182 204 89
180 203 148
175 196 0
186 206 148
186 209 148
182 206 123
183 200 89
155 177 89
196 214 148
148 166 0
168 190 89
181 203 89
178 200 123
178 202 89
156 175 123
168 187 89
169 190 0
175 197 89
152 174 89
157 176 123
174 195 89
168 188 89
175 195 0
169 192 123
173 196 89
161 182 0
158 178 0
163 182 89
171 194 0
168 188 89
183 205 168
166 187 89
172 191 123
178 199 123
176 196 89
170 194 0
150 172 89
155 174 0
168 191 0
180 201 123
168 189 123
134 153 89
142 160 123
173 193 148
155 176 0
168 187 89
171 192 123
177 198 89
155 175 0
181 200 123
171 191 123
164 182 123
164 185 148
164 185 0
169 188 148
169 189 123
153 174 0
130 149 0
136 157 89
175 196 89
176 194 123
109 130 0
194 213 148
166 186 89
99 116 0
139 158 0
127 144 89
127 146 148
148 169 89
132 151 89
166 180 89
163 180 89
135 155 0
116 130 89
140 158 89
160 177 123
158 175 123
131 144 89
135 153 0
67 81 0
110 126 0
116 132 89
68 84 0
74 90 0
104 122 108
128 138 148
125 135 148
85 103 123
132 149 108
101 119 123
102 119 123
51 77 108
57 87 89
65 97 148
91 110 123
53 80 123
90 111 136
111 127 136
107 126 123
95 117 136
119 138 158
91 109 123
117 134 148
56 87 108
86 111 123
48 74 89
109 130 148
100 120 65
116 136 123
156 172 123
172 185 0
131 143 0
160 160 0
172 184 0
133 144 0
141 154 108
59 91 89
63 97 89
91 122 158
89 116 123
104 130 89
54 85 65
85 108 65
85 113 108
66 100 136
85 109 89
61 94 89
105 124 65
85 113 89
86 114 108
81 110 123
62 93 136
84 115 89
102 124 108
143 162 0
117 138 108
62 93 65
61 93 108
66 100 123
62 95 65
68 102 136
67 100 65
71 106 136
66 101 108
57 88 89
60 91 65
54 81 65
58 89 89
61 96 0
64 96 123
70 105 136
67 101 136
69 102 89
58 90 65
59 91 65
55 85 65
52 82 65
65 98 123
60 92 108
61 92 89
65 99 89
64 97 148
67 102 123
64 96 108
67 102 123
63 97 108
61 93 89
59 90 108
59 90 65
62 94 65
65 97 123
61 94 108
64 98 108
66 99 123
66 99 148
66 100 89
65 100 89
69 103 123
67 100 123
57 86 123
68 103 123
60 91 108
62 95 123
56 88 89
71 105 123
66 98 108
63 95 108
59 91 0
64 98 89
61 91 0
65 99 123
67 101 136
57 86 89
65 100 89
57 87 65
62 93 89
64 97 123
60 91 123
61 94 65
67 100 123
50 77 65
79 99 65
130 148 0
78 97 0
95 108 0
122 136 0
120 132 0
114 132 0
94 106 0
107 111 0
99 116 0
47 72 0
140 156 0
127 144 0
143 159 0
92 111 0
132 145 0
116 132 0
112 125 0
114 130 0
99 114 0
120 129 0
148 165 0
121 137 0
112 128 0
138 154 0
128 142 0
80 101 0
99 114 0
131 151 0
106 125 0
158 173 0
94 115 0
128 143 0
135 150 0
122 136 0
114 130 0
144 161 0
120 138 0
114 130 0
115 129 0
127 148 0
140 159 0
131 146 0
136 155 0
94 110 0
166 185 0
108 126 0
124 140 0
111 124 0
92 106 0
129 143 0
161 179 0
143 162 0
116 134 0
152 172 0
126 142 0
129 146 0
165 184 0
145 168 0
143 166 0
135 153 0
170 187 0
144 159 0
140 158 0
147 165 0
170 189 0
130 152 0
130 147 0
142 165 0
153 171 0
122 144 0
114 129 0
141 157 0
152 167 0
168 185 0
163 181 0
139 158 0
167 186 0
121 139 0
154 176 0
144 158 0
110 132 0
165 184 0
144 164 0
165 187 0
147 165 0
110 126 0
146 165 0
155 175 0
165 184 0
140 160 0
132 147 0
152 166 0
92 108 0
128 146 0
145 165 0
147 160 0
168 187 0
147 169 0
121 136 0
156 173 0
141 159 0
165 182 0
173 196 0
138 158 0
151 174 0
136 152 0
166 186 0
141 154 0
155 171 0
165 182 0
151 173 0
159 174 0
153 169 0
145 161 0
142 161 0
164 182 0
173 194 0
165 185 0
158 177 0
143 159 0
169 188 0
167 182 0
168 185 0
141 157 0
153 170 0
165 181 0
129 146 0
149 166 0
170 190 0
158 175 0
159 183 0
151 167 0
165 186 0
152 171 0
153 161 0
157 176 0
152 169 0
177 196 0
144 159 0
172 191 0
154 172 0
159 180 0
141 152 0
173 191 0
164 180 0
178 197 0
169 193 0
167 181 0
168 184 0
171 193 0
131 151 0
155 176 0
170 192 0
152 172 0
170 186 0
142 165 0
171 184 0
175 194 0
173 193 0
134 150 0
165 180 0
135 150 0
168 186 0
180 202 0
132 150 0
161 179 0
156 176 0
168 186 0
169 193 0
163 182 0
153 174 0
177 198 0
170 193 0
179 202 0
158 179 0
170 193 0
177 193 0
168 186 0
170 190 0
174 193 0
177 201 0
177 194 0
173 191 0
170 188 0
163 179 0
170 185 0
161 183 0
168 192 0
155 175 0
178 198 0
162 184 0
171 193 0
183 206 123
166 189 123
175 201 89
173 195 0
134 152 0
175 196 168
158 177 0
162 184 89
165 185 89
178 200 148
151 170 89
178 198 123
186 207 168
169 189 89
172 196 89
148 170 123
174 198 123
160 182 123
161 183 0
171 193 0
169 189 89
156 177 89
172 192 123
167 188 89
136 158 0
161 183 123
159 178 89
152 176 89
163 183 123
187 211 168
169 190 123
162 181 89
169 191 123
183 206 123
170 193 0
150 167 0
158 178 148
132 150 0
174 196 123
180 202 148
174 194 148
163 182 123
173 193 123
158 178 89
143 164 0
142 163 0
154 172 123
177 196 89
178 198 89
160 180 89
144 161 0
133 148 89
179 200 123
152 172 89
163 183 148
173 193 123
177 198 123
171 190 89
172 193 123
172 191 89
181 198 123
163 182 123
153 174 0
172 191 148
112 129 89
147 167 123
181 199 168
144 162 89
164 182 123
149 164 148
140 159 0
170 187 148
189 208 168
158 175 89
158 179 89
149 168 0
177 193 123
159 176 148
145 164 89
128 144 89
123 138 0
141 158 0
135 153 123
99 112 0
116 132 89
160 177 89
105 122 0
139 152 0
85 97 0
110 129 65
43 66 65
91 110 136
100 113 89
91 111 136
121 136 136
89 106 89
116 135 123
112 132 148
134 152 136
58 88 108
104 122 123
87 104 123
117 134 168
119 140 123
63 96 136
121 139 136
91 111 136
92 112 123
88 104 108
97 120 168
136 160 108
109 130 136
82 110 123
81 105 89
91 109 136
151 159 0
168 184 0
165 179 0
150 160 65
147 150 0
130 134 0
160 176 0
94 120 89
116 138 89
66 100 123
98 128 108
59 90 89
85 114 123
100 122 65
66 98 136
78 103 89
88 106 108
55 84 123
86 112 123
82 108 123
62 94 123
63 96 89
64 97 108
59 92 89
72 93 65
118 136 0
57 88 0
81 109 89
66 99 108
62 96 89
60 90 123
59 91 89
63 95 65
51 80 65
60 94 65
61 93 89
59 88 89
61 94 0
57 87 0
54 82 65
67 102 123
57 87 65
56 87 89
55 84 0
60 92 108
61 94 65
65 98 108
59 91 65
62 96 65
54 84 0
58 88 89
55 86 65
64 98 89
59 91 108
62 93 89
63 96 65
60 92 89
63 97 89
66 100 89
62 94 148
66 100 89
63 96 65
65 99 123
64 97 89
60 93 89
65 98 108
70 104 123
63 96 123
61 93 108
55 85 65
66 99 108
61 93 0
61 93 89
59 91 65
68 103 123
56 86 65
60 91 65
55 84 89
62 94 89
59 90 89
63 97 89
61 92 123
61 94 89
66 99 123
63 95 108
57 87 89
48 76 65
66 100 123
99 118 89
79 94 65
76 92 0
111 129 0
100 114 0
93 107 0
91 107 0
76 89 0
107 119 0
97 111 0
96 104 0
75 95 0
111 130 0
111 121 0
137 154 0
94 113 0
95 107 0
89 105 0
132 143 0
151 166 0
75 95 0
108 126 0
147 161 0
94 108 0
104 115 0
126 141 0
124 142 0
127 143 0
135 152 0
118 130 0
126 140 0
137 153 0
149 169 0
128 147 0
109 127 0
124 138 0
123 141 0
136 153 0
136 155 0
137 155 0
100 116 0
95 111 0
93 111 0
122 143 0
92 113 0
164 182 0
112 134 0
145 162 0
133 155 0
123 140 0
152 166 0
127 140 0
148 164 0
112 132 0
135 154 0
160 179 0
108 127 0
133 148 0
138 154 0
127 146 0
130 149 0
165 183 0
94 108 0
148 166 0
115 131 0
149 173 0
143 159 0
152 173 0
139 157 0
115 129 0
166 187 0
141 154 0
119 136 0
151 170 0
162 179 0
150 164 0
159 181 0
129 150 0
133 151 0
132 151 0
143 159 0
150 160 0
159 179 0
159 182 0
173 195 0
158 176 0
169 193 0
149 166 0
123 142 0
155 172 0
158 178 0
158 175 0
149 167 0
144 162 0
153 175 0
121 140 0
165 185 0
141 163 0
122 140 0
169 191 0
169 192 0
150 168 0
131 151 0
153 175 0
158 177 0
159 172 0
152 170 0
111 132 0
175 190 0
150 172 0
134 152 0
151 168 0
143 163 0
158 172 0
143 163 0
161 179 0
156 176 0
146 166 0
141 155 0
166 180 0
171 189 0
144 160 0
172 190 0
145 165 0
132 151 0
145 161 0
142 161 0
159 177 0
147 166 0
156 175 0
163 182 0
128 146 0
174 189 0
161 176 0
172 193 0
168 187 0
181 203 0
148 167 0
146 164 0
159 177 0
136 154 0
132 153 0
163 180 0
163 181 0
172 193 0
155 176 0
162 179 0
175 196 0
176 197 0
131 153 0
184 201 0
151 171 0
150 171 0
161 177 0
162 183 0
155 174 0
152 170 0
139 161 0
146 162 0
164 183 0
157 173 0
151 167 0
140 153 0
169 191 0
164 181 0
143 163 0
160 182 0
162 181 0
175 197 0
160 174 0
160 182 0
165 183 0
175 189 0
148 170 0
175 196 0
172 190 0
152 172 0
176 196 0
158 178 0
170 192 0
173 190 0
175 195 0
157 173 0
153 172 0
158 174 0
173 196 0
165 183 0
173 186 0
169 188 0
155 175 0
176 194 0
169 188 0
155 175 0
169 192 0
167 187 0
172 193 0
167 190 0
175 197 123
175 195 0
177 201 0
189 207 168
172 193 148
178 200 123
186 204 148
167 188 0
165 185 89
183 206 123
144 166 0
177 198 89
176 197 0
177 198 123
175 199 148
175 197 89
178 201 89
152 175 89
157 179 89
156 175 89
150 172 123
169 190 89
160 180 89
181 200 123
165 187 89
182 201 89
175 196 168
163 183 123
168 185 123
164 185 89
152 174 0
155 176 89
154 176 89
165 186 0
161 183 0
134 156 0
177 199 123
172 193 0
145 167 0
156 176 89
174 194 123
179 199 89
149 172 123
171 193 123
163 181 123
170 191 123
146 167 89
159 173 123
163 183 148
154 173 89
172 192 148
176 199 123
177 196 148
167 186 148
153 169 89
179 201 123
160 178 89
155 175 123
174 194 148
160 179 123
184 206 89
185 203 123
134 154 89
178 195 186
186 205 148
153 176 123
129 145 89
169 187 148
137 152 0
154 174 89
155 170 89
146 164 123
169 185 168
164 182 89
150 168 89
149 167 89
173 190 148
130 147 89
126 142 0
107 127 0
126 143 89
169 188 123
155 173 123
135 149 123
111 130 0
97 110 89
140 155 89
131 146 89
124 136 123
129 143 0
117 131 123
81 107 123
115 135 136
84 99 123
62 93 148
125 144 158
128 147 158
83 94 89
149 166 186
131 153 108
47 70 89
75 98 65
78 105 136
92 113 136
137 154 178
90 107 89
80 98 89
44 69 89
110 130 108
51 77 108
93 113 136
56 84 108
83 107 108
158 174 168
156 173 136
138 151 0
181 193 123
139 154 0
165 174 0
170 182 0
140 148 0
107 117 0
166 186 0
79 107 89
63 97 108
68 104 136
57 88 108
66 99 123
82 110 65
68 103 148
90 108 89
70 106 148
86 117 123
56 87 89
61 92 89
79 98 89
84 109 89
62 95 65
53 82 0
55 83 65
129 149 89
99 120 89
70 105 136
61 91 123
56 87 89
54 82 65
67 101 89
59 89 108
64 97 89
65 100 89
68 103 108
61 93 89
61 94 65
58 88 89
61 93 89
66 100 123
65 99 123
54 84 0
60 91 123
63 97 108
62 95 65
66 101 108
67 102 136
70 104 123
64 98 108
54 82 89
60 92 89
63 95 123
67 99 123
57 88 89
58 89 108
61 93 89
58 88 89
58 89 108
55 85 65
70 105 136
59 89 89
66 101 108
67 102 108
61 92 108
68 103 123
61 95 65
53 82 89
64 98 108
65 99 108
61 92 89
50 80 0
55 85 65
60 93 108
56 87 0
56 86 65
51 79 0
57 87 89
64 96 89
60 91 65
64 97 89
58 88 108
61 93 89
64 96 89
64 97 108
50 78 0
77 96 0
111 128 0
23 37 0
96 116 0
94 109 0
89 100 0
75 92 0
73 84 0
117 132 0
53 80 0
99 115 0
90 99 0
134 149 0
69 79 0
107 123 0
109 120 0
75 93 0
78 90 0
111 126 0
126 140 0
74 92 0
105 122 0
125 141 0
102 113 0
126 142 0
143 157 0
143 160 0
107 118 0
115 131 0
92 109 0
142 160 0
125 144 0
120 134 0
92 111 0
71 86 0
148 168 0
150 165 0
105 120 0
139 158 0
140 157 0
110 127 0
154 174 0
138 155 0
107 126 0
133 148 0
111 126 0
119 138 0
117 135 0
160 179 0
114 131 0
130 142 0
121 141 0
114 132 0
124 135 0
90 106 0
166 187 0
143 165 0
138 155 0
122 144 0
153 174 0
137 156 0
148 167 0
110 132 0
164 184 0
130 149 0
115 132 0
143 155 0
104 123 0
156 174 0
143 151 0
130 150 0
151 174 0
152 169 0
148 168 0
130 138 0
131 152 0
145 164 0
172 190 0
163 180 0
127 145 0
141 162 0
160 179 0
144 164 0
158 176 0
159 174 0
135 153 0
115 132 0
158 177 0
145 162 0
136 156 0
131 153 0
151 169 0
163 184 0
149 166 0
157 174 0
155 171 0
160 181 0
172 186 0
172 194 0
168 186 0
142 164 0
131 150 0
161 183 0
158 175 0
133 150 0
142 159 0
145 164 0
169 188 0
136 154 0
132 151 0
128 148 0
174 194 0
148 162 0
159 179 0
140 160 0
161 171 0
150 167 0
149 170 0
168 192 0
159 178 0
137 155 0
135 150 0
164 177 0
157 177 0
159 170 0
168 184 0
158 176 0
150 172 0
175 192 0
158 180 0
122 141 0
162 180 0
177 197 0
150 173 0
152 169 0
163 182 0
154 172 0
161 184 0
132 144 0
174 193 0
141 149 0
163 182 0
141 162 0
152 173 0
163 184 0
167 183 0
149 164 0
166 185 0
164 185 0
160 175 0
126 141 0
147 167 0
177 196 0
151 167 0
172 195 0
168 188 0
161 180 0
164 180 0
154 175 0
151 168 0
170 191 0
162 182 0
167 188 0
130 140 0
173 190 0
178 201 0
159 179 0
160 180 0
158 176 0
134 151 0
164 179 0
179 198 0
147 166 0
169 189 0
140 158 0
171 189 0
152 171 0
174 196 0
162 183 0
134 150 0
159 177 0
143 166 0
174 192 0
172 194 0
161 176 0
154 170 0
166 184 0
159 174 0
171 189 0
171 192 0
160 182 0
171 186 0
174 194 0
171 193 0
170 189 0
178 198 0
162 178 0
159 178 0
170 192 0
179 202 0
167 189 89
188 211 168
181 204 123
173 195 0
170 190 89
182 206 123
168 190 123
187 209 148
158 178 0
163 184 0
162 178 89
165 187 123
159 181 0
174 195 0
150 172 0
180 200 123
182 206 123
157 178 89
166 185 123
147 169 89
181 203 148
182 203 0
163 187 89
181 199 0
171 191 148
182 203 148
150 170 89
158 180 0
188 208 89
170 190 89
140 161 89
155 172 123
173 198 123
143 163 0
167 187 0
185 204 123
174 197 123
179 202 148
178 198 89
162 181 108
157 178 89
168 187 148
136 157 89
149 169 89
173 192 89
178 198 168
146 166 0
151 170 123
158 177 89
165 188 123
153 168 89
153 172 123
195 216 186
176 194 123
169 188 89
165 185 0
163 181 148
151 166 89
178 198 123
141 154 89
161 181 123
163 182 89
157 176 89
132 153 0
154 174 0
161 180 123
164 182 123
159 177 148
140 159 123
171 189 148
152 170 123
135 151 0
124 142 89
171 187 148
140 162 0
149 166 0
158 176 89
111 127 0
139 157 0
95 109 0
112 129 0
142 158 89
140 157 89
156 169 89
137 151 148
159 171 89
119 134 0
112 127 0
126 137 0
80 88 89
80 92 89
84 113 123
76 96 65
100 122 123
104 121 108
91 111 108
88 107 108
112 130 123
120 140 108
67 82 0
116 130 136
86 115 123
107 124 108
86 103 108
107 128 148
77 95 65
85 114 123
100 122 123
103 127 123
82 108 136
130 147 136
82 107 123
73 90 65
46 70 89
108 122 65
165 182 0
176 190 0
152 167 0
139 152 65
115 129 65
139 154 0
161 181 0
149 164 0
61 94 65
69 104 123
66 101 108
98 123 108
83 112 89
62 92 65
75 98 123
95 116 65
68 102 108
93 110 0
81 102 89
74 94 123
61 89 123
80 106 65
85 111 89
126 142 65
102 121 65
133 151 89
86 111 89
53 81 65
56 86 65
58 87 123
58 89 89
57 86 65
63 96 89
60 92 108
61 91 89
62 95 65
55 85 65
64 97 108
55 84 89
62 94 89
63 97 89
64 97 108
52 81 65
68 101 123
52 83 0
56 86 89
66 99 108
58 91 65
56 87 65
44 69 0
68 102 136
59 91 65
54 83 89
57 88 89
65 99 108
66 99 123
60 91 65
68 102 89
64 99 89
57 87 65
57 88 89
62 94 108
55 82 89
56 86 65
57 89 89
57 88 89
62 95 65
58 89 89
61 92 108
56 86 108
60 91 123
62 93 89
57 88 89
64 98 108
46 74 0
59 89 108
47 73 0
55 86 65
54 82 89
57 88 65
51 80 89
46 72 0
114 131 0
94 106 0
41 64 0
93 103 0
73 90 0
116 133 0
109 124 0
140 158 0
78 99 0
102 114 0
74 87 0
95 109 0
26 42 0
129 147 0
105 113 0
98 116 0
126 141 0
85 97 0
100 112 0
129 146 0
67 73 0
93 107 0
129 146 0
138 155 0
93 108 0
107 124 0
127 145 0
127 146 0
151 165 0
97 120 0
132 145 0
126 148 0
106 122 0
88 99 0
147 163 0
110 120 0
154 173 0
109 125 0
40 60 0
129 146 0
119 136 0
139 160 0
129 140 0
128 147 0
157 174 0
141 156 0
122 139 0
77 98 0
130 148 0
95 113 0
104 116 0
163 179 0
177 197 0
126 142 0
144 161 0
107 129 0
116 134 0
159 178 0
136 157 0
148 167 0
132 152 0
141 155 0
77 94 0
155 176 0
172 191 0
162 184 0
125 145 0
121 140 0
119 135 0
129 146 0
132 151 0
140 158 0
111 131 0
108 128 0
122 136 0
127 143 0
148 165 0
122 141 0
141 157 0
149 167 0
135 157 0
157 180 0
140 162 0
146 162 0
148 168 0
128 146 0
159 179 0
127 143 0
150 171 0
152 168 0
185 202 0
142 163 0
170 188 0
166 186 0
166 183 0
158 177 0
132 154 0
145 165 0
170 191 0
147 167 0
155 175 0
161 184 0
153 164 0
164 185 0
172 188 0
105 124 0
133 151 0
170 193 0
157 177 0
174 191 0
177 201 0
126 144 0
161 180 0
161 179 0
171 189 0
165 182 0
142 158 0
165 185 0
95 112 0
164 187 0
155 175 0
147 161 0
159 183 0
144 164 0
164 181 0
142 162 0
157 175 0
167 186 0
145 158 0
164 186 0
177 194 0
147 171 0
174 195 0
169 187 0
159 174 0
162 184 0
135 156 0
151 169 0
164 185 0
149 168 0
138 160 0
166 183 0
155 172 0
134 152 0
166 184 0
174 196 0
124 137 0
160 178 0
143 164 0
155 175 0
159 184 0
156 174 0
176 197 0
155 172 0
168 189 0
171 186 0
160 174 0
162 184 0
170 185 0
175 197 0
138 158 0
178 198 0
145 163 0
172 193 0
166 185 0
154 176 0
160 182 0
141 161 0
173 196 0
171 189 0
146 162 0
145 164 0
151 171 0
172 190 0
168 189 0
173 193 0
161 183 0
155 164 0
148 163 0
171 192 0
174 196 0
165 186 0
160 182 0
172 190 0
168 191 0
174 196 0
168 185 0
175 193 0
168 184 0
162 179 0
165 185 0
183 201 0
170 193 0
174 195 0
171 194 0
179 199 0
159 181 0
162 180 0
173 195 0
173 195 0
169 189 0
160 174 0
174 195 0
178 201 148
187 208 123
177 198 89
161 183 89
176 196 0
160 176 123
167 186 89
179 197 168
173 196 123
163 186 123
177 198 123
162 185 0
177 197 186
185 210 168
180 202 0
164 188 89
172 193 0
170 189 89
176 199 148
182 203 168
186 208 123
165 188 89
153 172 123
173 195 0
168 190 123
186 207 89
180 204 89
148 169 89
164 187 148
151 174 0
160 182 123
172 190 123
183 207 148
133 150 0
145 168 0
155 173 123
172 195 89
174 194 148
152 175 123
178 201 148
143 163 89
171 194 148
166 183 123
164 185 0
155 172 123
134 153 0
163 183 123
167 187 89
120 141 0
173 195 89
161 181 89
150 167 123
136 158 89
118 137 89
150 169 123
155 171 89
119 138 0
186 207 168
145 161 123
158 177 0
168 186 123
167 185 123
174 187 148
164 181 89
133 147 89
147 167 89
182 198 148
163 183 123
164 183 123
179 199 89
175 195 148
118 137 89
145 160 89
127 145 0
177 193 123
118 134 89
129 146 89
151 168 89
136 157 0
163 180 148
134 152 0
129 145 89
140 154 0
138 156 0
141 160 89
125 140 0
143 161 89
138 154 89
112 124 89
141 155 89
147 159 89
130 146 89
139 156 136
102 119 89
101 121 65
74 94 65
111 128 123
93 114 148
82 106 108
92 110 123
98 123 148
111 121 123
104 121 136
70 90 89
53 82 89
36 56 0
131 152 123
131 152 123
111 134 136
133 151 123
110 129 65
61 93 108
99 123 108
79 104 89
107 120 0
177 194 0
158 167 0
149 157 0
149 164 0
128 125 0
157 173 0
131 139 0
145 163 0
100 116 89
62 95 89
102 122 108
63 95 123
64 98 123
79 105 0
62 96 108
104 131 108
77 101 108
83 105 65
87 113 89
100 125 89
84 110 65
96 115 0
56 87 0
78 99 0
98 120 0
131 150 65
83 104 65
48 75 65
52 81 65
75 94 0
62 95 89
56 87 89
64 97 89
66 101 89
59 91 65
61 94 89
60 91 89
64 96 136
66 101 89
63 96 123
59 90 108
61 93 89
51 78 65
48 75 65
47 74 0
60 93 89
66 99 108
64 97 89
60 92 65
64 98 0
64 96 123
56 87 0
67 101 89
58 88 89
58 89 89
60 92 123
56 86 0
60 93 108
61 92 108
67 101 89
58 90 0
53 83 89
61 94 108
56 86 108
60 92 65
61 94 89
52 81 65
61 93 65
51 78 89
61 92 108
59 91 65
57 88 0
61 93 89
52 81 65
61 91 108
63 97 108
80 99 0
43 67 0
96 111 0
70 86 0
124 136 0
69 78 0
96 112 0
70 87 0
72 89 0
139 156 0
110 125 0
78 90 0
92 108 0
81 101 0
110 129 0
127 139 0
108 122 0
109 122 0
110 126 0
107 124 0
107 121 0
111 127 0
126 141 0
103 122 0
111 126 0
123 137 0
114 127 0
129 147 0
97 114 0
73 87 0
133 147 0
146 167 0
102 121 0
121 141 0
122 137 0
135 153 0
114 132 0
116 137 0
132 150 0
108 130 0
111 129 0
146 167 0
94 116 0
139 156 0
96 118 0
124 145 0
115 129 0
127 145 0
137 158 0
115 128 0
144 162 0
114 131 0
148 166 0
126 146 0
115 131 0
137 154 0
132 151 0
126 145 0
129 145 0
153 173 0
132 153 0
145 164 0
108 124 0
146 164 0
142 163 0
141 163 0
137 152 0
135 151 0
152 170 0
128 144 0
147 165 0
129 144 0
122 134 0
141 157 0
128 147 0
128 148 0
132 146 0
161 178 0
148 166 0
120 135 0
135 151 0
138 155 0
131 152 0
149 169 0
172 194 0
122 133 0
156 175 0
131 153 0
134 151 0
148 170 0
134 154 0
148 162 0
164 185 0
129 145 0
163 183 0
162 183 0
150 169 0
154 176 0
157 174 0
172 190 0
124 144 0
147 170 0
172 190 0
152 174 0
134 147 0
163 177 0
150 160 0
175 194 0
170 185 0
145 160 0
161 179 0
158 177 0
138 157 0
125 139 0
145 163 0
165 180 0
144 159 0
160 183 0
167 181 0
162 174 0
146 165 0
174 194 0
169 191 0
164 184 0
159 175 0
159 175 0
164 184 0
164 179 0
122 138 0
144 166 0
140 160 0
145 160 0
162 183 0
168 182 0
149 165 0
136 156 0
171 193 0
154 175 0
166 188 0
166 184 0
155 174 0
120 139 0
162 179 0
152 175 0
166 188 0
161 182 0
168 191 0
157 173 0
155 173 0
148 167 0
160 183 0
150 169 0
158 165 0
168 191 0
153 171 0
171 191 0
166 186 0
168 183 0
149 167 0
167 186 0
147 167 0
154 177 0
176 200 0
160 174 0
152 166 0
179 198 0
177 197 0
154 172 0
161 183 0
139 156 0
150 169 0
177 198 0
175 197 0
175 196 0
150 163 0
157 177 0
173 192 0
136 150 0
166 183 0
168 190 0
177 198 0
144 163 0
143 162 0
155 174 0
152 168 0
164 184 0
142 161 0
180 199 0
172 193 0
150 168 0
157 176 0
162 182 0
164 182 0
165 184 0
171 193 0
174 191 0
145 169 0
170 193 0
173 194 0
166 186 0
163 179 0
167 189 0
155 173 0
162 177 0
167 184 0
171 187 0
176 195 0
167 188 0
154 172 0
183 206 123
154 175 89
163 185 89
188 210 148
165 187 89
177 198 123
178 200 123
179 199 89
175 198 123
161 181 89
167 189 123
177 197 148
168 188 89
184 207 123
164 188 123
174 195 148
165 186 89
180 204 89
176 199 148
178 202 148
174 197 89
168 193 89
176 197 89
148 170 186
161 182 89
158 177 89
175 194 0
153 172 89
175 197 123
163 187 89
161 182 89
154 174 0
194 213 168
166 186 0
177 196 168
168 189 123
161 182 89
152 170 123
173 195 89
153 173 148
128 147 89
160 182 89
188 209 123
158 180 123
156 179 89
159 179 0
142 164 0
170 191 123
171 190 89
169 191 0
168 190 89
124 141 0
156 176 123
146 164 123
167 186 148
175 194 148
175 192 89
180 198 89
167 184 123
88 108 0
171 186 148
169 189 123
160 180 89
130 149 89
143 162 123
81 100 0
173 189 148
159 181 89
155 173 148
131 148 89
129 148 89
145 162 123
152 169 89
153 171 123
139 157 0
109 127 0
171 191 0
111 127 0
135 152 0
122 143 0
157 171 123
124 138 123
137 156 123
108 130 0
119 137 0
130 143 89
129 142 89
134 150 123
124 135 123
135 153 0
121 135 123
145 158 89
134 145 123
128 147 0
54 83 89
104 118 108
94 118 148
111 125 136
77 98 89
122 144 136
118 138 136
60 91 108
57 87 89
111 126 65
71 93 0
45 68 65
93 113 123
99 127 123
119 140 123
50 76 89
121 144 136
106 129 123
109 127 108
61 92 136
111 131 65
148 163 0
181 200 0
152 162 0
145 158 0
152 159 0
153 173 0
161 178 0
161 180 0
129 144 0
121 138 89
65 100 108
87 114 148
84 106 89
80 106 65
83 108 65
84 108 108
85 109 89
77 101 89
109 134 123
56 86 89
101 125 108
84 112 89
54 80 65
100 116 0
97 109 0
112 134 65
104 130 89
80 95 0
49 73 0
92 108 0
78 93 0
100 119 0
98 118 0
86 107 65
54 82 65
57 87 65
55 82 89
53 81 65
56 86 65
59 90 65
54 83 89
60 89 108
53 81 65
61 92 108
54 83 89
61 92 89
57 88 0
63 97 89
58 89 89
61 93 89
64 96 65
56 84 108
54 84 0
57 88 89
65 99 108
64 95 123
62 93 123
48 75 65
57 89 0
57 86 89
68 104 136
59 91 108
57 88 89
59 88 123
59 90 65
65 98 108
64 97 108
60 92 65
50 78 65
53 82 65
85 107 65
83 105 89
45 70 0
72 87 0
70 81 0
105 118 0
95 108 0
95 110 0
80 95 0
92 109 0
68 82 0
59 67 0
93 107 0
91 103 0
71 84 0
90 95 0
79 92 0
94 104 0
42 64 0
96 115 0
113 130 0
122 138 0
109 126 0
150 166 0
96 112 0
124 141 0
126 139 0
109 121 0
95 108 0
138 150 0
92 109 0
113 126 0
114 131 0
90 107 0
105 121 0
75 90 0
127 143 0
121 137 0
148 165 0
153 168 0
122 140 0
96 110 0
112 127 0
125 142 0
146 161 0
170 188 0
137 155 0
124 140 0
115 134 0
100 113 0
150 160 0
107 122 0
119 139 0
159 177 0
154 175 0
100 116 0
140 158 0
86 103 0
143 159 0
133 149 0
105 125 0
152 173 0
127 147 0
115 132 0
151 164 0
108 120 0
96 116 0
120 137 0
137 152 0
121 137 0
114 131 0
154 175 0
143 156 0
136 156 0
120 132 0
120 136 0
130 145 0
178 196 0
155 175 0
139 162 0
163 183 0
158 178 0
144 163 0
143 157 0
157 171 0
157 176 0
169 188 0
144 162 0
150 164 0
137 155 0
151 168 0
159 181 0
147 164 0
142 159 0
167 187 0
152 166 0
141 156 0
139 161 0
150 171 0
141 156 0
149 172 0
109 126 0
138 150 0
142 163 0
133 154 0
155 173 0
131 154 0
146 162 0
152 170 0
173 194 0
166 183 0
162 181 0
175 195 0
137 160 0
155 175 0
146 162 0
168 179 0
164 182 0
154 174 0
159 180 0
150 171 0
158 178 0
164 186 0
123 140 0
163 179 0
147 160 0
164 183 0
160 183 0
146 167 0
177 198 0
164 183 0
164 185 0
144 162 0
180 199 0
163 184 0
178 198 0
137 158 0
164 182 0
149 164 0
125 143 0
169 188 0
161 182 0
177 201 0
161 183 0
156 176 0
162 180 0
165 186 0
168 187 0
147 162 0
172 191 0
156 173 0
146 167 0
133 148 0
161 181 0
132 150 0
167 189 0
156 176 0
155 168 0
157 177 0
160 177 0
161 182 0
152 170 0
165 186 0
151 173 0
136 154 0
171 187 0
162 181 0
164 186 0
149 163 0
170 190 0
163 185 0
166 190 0
154 171 0
174 192 0
165 183 0
144 166 0
161 181 0
182 203 0
167 188 0
148 166 0
176 192 0
186 203 0
163 181 0
155 177 0
180 202 0
158 172 0
170 193 0
171 189 0
164 185 0
169 190 0
174 195 0
167 184 0
161 178 0
162 183 0
160 183 0
168 192 0
179 195 0
149 168 0
153 171 0
173 194 0
172 188 0
173 187 0
161 184 0
179 202 0
179 202 0
168 187 0
177 198 0
166 184 0
170 188 0
177 198 0
159 181 0
174 196 0
167 184 0
171 191 0
164 185 89
164 186 123
174 192 89
177 199 123
166 188 89
169 193 89
184 207 123
175 196 89
179 199 123
172 196 186
167 186 168
164 186 89
173 198 123
146 168 123
168 188 89
179 199 123
178 200 148
174 195 89
175 197 89
166 187 123
193 213 148
159 178 89
162 183 89
140 159 89
159 178 89
169 188 123
155 174 89
174 196 148
163 183 123
149 168 123
151 171 0
173 192 123
162 182 89
164 184 0
186 207 123
157 177 89
142 163 0
164 187 123
169 186 0
180 205 186
170 191 89
137 158 89
175 196 89
153 173 0
153 173 123
152 170 89
167 184 123
168 187 89
147 168 89
126 145 0
177 198 89
145 166 0
164 185 89
144 161 89
165 187 89
170 190 89
144 162 0
164 183 0
155 176 89
163 183 89
155 170 123
183 203 123
183 201 123
156 174 0
167 189 89
158 178 89
155 172 89
133 150 89
161 178 89
179 198 89
124 141 0
138 155 0
160 179 123
163 180 123
149 167 89
163 180 89
142 162 0
158 174 123
137 156 89
150 167 123
150 168 89
142 157 89
137 150 0
172 190 148
133 148 89
163 181 89
138 153 89
139 157 0
141 156 89
123 138 0
146 160 123
131 147 89
127 139 0
141 152 123
166 177 148
95 109 65
73 95 89
40 63 65
41 62 65
106 123 108
78 101 108
72 93 65
125 140 136
84 96 123
74 94 65
90 108 123
50 76 89
79 102 108
82 110 123
91 109 123
63 93 136
97 120 108
53 82 89
51 77 108
91 114 89
109 130 65
135 150 65
154 165 0
170 185 0
145 151 0
139 153 0
149 167 0
164 172 0
150 161 0
111 126 0
141 154 0
113 138 108
58 91 89
82 110 108
75 96 108
79 103 89
89 117 89
93 118 108
107 132 136
86 106 89
80 107 89
119 142 108
52 78 65
129 145 0
99 115 89
99 117 65
102 122 0
104 126 123
157 174 0
116 130 0
115 132 0
92 104 0
95 105 0
95 110 0
99 112 0
106 119 0
128 145 0
73 88 0
104 121 0
52 80 65
81 104 0
81 104 65
56 86 65
78 99 0
45 71 65
54 83 89
57 87 65
63 96 65
58 88 89
52 81 65
59 89 108
59 89 89
56 87 89
40 63 0
58 89 89
63 95 65
66 98 108
62 93 108
60 90 0
58 90 108
61 94 108
62 94 108
67 100 123
64 99 65
54 85 0
102 121 65
49 76 0
89 113 123
116 133 89
95 112 65
97 110 0
98 111 0
140 156 0
40 61 0
111 123 0
114 131 0
115 128 0
22 36 0
30 49 0
92 104 0
111 127 0
111 122 0
114 129 0
141 157 0
111 127 0
95 108 0
94 108 0
91 109 0
100 116 0
93 106 0
138 153 0
114 127 0
131 149 0
133 150 0
40 62 0
141 157 0
143 162 0
125 139 0
93 111 0
125 140 0
151 169 0
97 112 0
110 126 0
142 155 0
92 105 0
137 156 0
152 168 0
113 129 0
96 104 0
101 116 0
138 149 0
90 107 0
123 143 0
122 139 0
82 99 0
111 132 0
106 120 0
115 131 0
123 144 0
148 166 0
150 167 0
112 134 0
136 157 0
137 153 0
127 137 0
93 107 0
165 181 0
136 152 0
94 111 0
114 131 0
131 154 0
106 120 0
123 138 0
149 170 0
138 151 0
125 148 0
165 181 0
128 146 0
125 143 0
113 127 0
135 156 0
168 188 0
134 150 0
177 197 0
157 176 0
117 131 0
150 171 0
133 154 0
143 164 0
90 111 0
135 155 0
167 187 0
123 140 0
152 171 0
139 158 0
159 175 0
154 173 0
124 145 0
155 172 0
117 139 0
138 157 0
181 197 0
138 159 0
150 168 0
132 149 0
163 185 0
156 170 0
127 146 0
157 177 0
141 160 0
136 157 0
171 193 0
156 176 0
152 167 0
139 157 0
153 164 0
150 165 0
139 159 0
152 173 0
156 174 0
145 166 0
142 159 0
126 143 0
133 147 0
168 185 0
146 167 0
143 161 0
149 170 0
148 166 0
167 184 0
161 179 0
156 174 0
122 135 0
149 163 0
153 175 0
167 188 0
161 180 0
156 177 0
165 187 0
159 176 0
148 165 0
147 164 0
161 183 0
155 172 0
154 167 0
161 185 0
138 156 0
178 197 0
144 164 0
182 203 0
162 185 0
166 181 0
172 191 0
159 182 0
153 174 0
166 187 0
157 178 0
153 175 0
158 177 0
164 184 0
171 187 0
158 176 0
144 163 0
153 165 0
159 181 0
155 171 0
169 189 0
182 200 0
173 192 0
166 186 0
169 190 0
170 188 0
152 172 0
170 183 0
141 153 0
176 195 0
124 142 0
160 183 0
178 198 0
174 191 0
171 195 0
172 189 0
148 167 0
152 174 0
150 172 0
167 185 0
163 184 0
172 191 0
168 183 0
182 200 0
162 185 0
173 196 0
161 180 0
172 194 0
170 188 0
150 170 0
172 193 0
164 186 0
151 164 0
160 180 0
157 177 0
159 181 0
180 202 0
154 174 0
150 165 0
159 178 0
183 200 0
163 182 0
158 179 0
162 174 0
153 175 0
157 168 0
173 195 0
166 183 0
159 179 0
169 193 0
164 183 0
173 192 0
169 177 0
159 181 0
151 174 0
159 177 0
144 161 0
171 189 0
168 186 0
182 205 123
180 202 148
171 192 89
182 205 123
167 186 89
173 192 123
183 200 89
177 196 148
172 193 123
183 207 148
165 189 123
165 185 89
161 182 123
143 165 89
176 199 123
166 190 123
188 208 89
162 182 123
161 182 0
172 192 89
160 180 89
173 195 0
168 190 89
164 185 89
148 171 0
161 184 89
158 181 89
165 183 89
152 167 89
163 185 0
152 175 0
181 203 148
178 200 123
184 206 123
173 195 0
180 201 148
153 173 123
155 178 89
149 168 0
141 160 89
159 179 123
152 172 123
143 161 123
152 172 123
171 190 123
180 203 89
171 190 89
190 210 123
157 179 89
171 191 89
165 185 123
192 212 148
163 182 89
107 128 0
165 186 89
180 199 168
191 210 123
159 182 123
186 204 148
156 175 0
158 179 89
161 179 89
158 177 148
143 164 0
175 194 148
158 176 148
167 187 89
171 193 123
135 151 0
152 171 123
133 149 89
152 173 89
159 174 123
115 131 0
129 147 0
160 180 123
138 155 0
156 172 123
131 146 123
135 153 0
97 117 89
171 189 89
159 176 123
139 155 89
173 191 89
118 132 89
133 148 89
95 107 0
127 143 0
139 153 89
140 157 0
118 131 89
111 127 0
138 150 123
141 158 89
135 148 123
119 134 0
79 96 0
129 148 108
141 155 148
110 122 136
43 65 89
105 126 123
113 127 123
107 129 65
107 126 123
94 116 123
74 90 65
92 122 158
85 114 123
113 133 89
109 128 123
97 121 89
83 105 108
53 81 89
68 86 0
151 168 0
157 171 0
167 186 0
132 147 0
159 177 0
119 135 0
113 134 0
150 168 0
151 166 0
144 165 0
129 150 0
118 138 65
61 94 89
85 110 89
54 82 89
65 97 136
97 121 65
74 96 65
67 90 65
95 118 65
98 124 123
78 102 0
117 132 0
129 144 65
102 121 65
116 137 89
115 138 108
111 126 0
93 111 0
78 93 0
71 87 0
114 127 0
124 139 0
30 47 0
97 109 0
76 92 0
73 85 0
94 104 0
117 131 0
113 125 0
131 142 0
115 127 0
72 85 0
70 82 0
44 67 0
123 141 0
78 94 65
51 77 0
96 111 0
60 89 89
99 113 0
76 94 65
47 72 89
21 30 0
49 76 65
98 115 0
49 75 0
102 119 65
79 99 65
94 106 0
43 68 0
97 109 0
73 86 0
80 83 0
72 86 0
112 125 0
96 111 0
67 81 0
124 141 0
96 110 0
15 32 0
37 57 0
62 72 0
112 126 0
101 114 0
76 91 0
109 120 0
119 135 0
40 63 0
98 114 0
115 133 0
27 45 0
126 141 0
77 94 0
97 109 0
112 129 0
126 143 0
127 144 0
131 146 0
108 125 0
94 108 0
125 140 0
82 96 0
131 150 0
110 129 0
90 104 0
133 136 0
142 160 0
119 137 0
131 149 0
123 137 0
145 160 0
126 146 0
110 124 0
116 130 0
91 107 0
141 160 0
127 146 0
155 170 0
179 195 0
126 144 0
102 119 0
110 130 0
106 128 0
119 137 0
112 126 0
139 157 0
95 112 0
108 128 0
153 174 0
76 89 0
96 114 0
133 151 0
112 128 0
135 155 0
136 155 0
104 119 0
155 176 0
136 154 0
136 154 0
131 150 0
136 154 0
131 144 0
147 169 0
141 160 0
163 185 0
148 168 0
130 151 0
109 126 0
152 172 0
133 151 0
148 166 0
156 177 0
140 156 0
103 119 0
164 184 0
146 163 0
148 167 0
128 150 0
107 128 0
142 162 0
157 176 0
155 172 0
125 145 0
125 144 0
156 173 0
130 147 0
114 135 0
145 159 0
144 156 0
146 167 0
115 135 0
105 114 0
146 165 0
150 170 0
157 171 0
144 164 0
158 176 0
124 145 0
131 144 0
119 136 0
143 164 0
155 173 0
152 171 0
156 176 0
131 152 0
114 133 0
157 178 0
160 183 0
155 175 0
152 169 0
146 163 0
156 177 0
149 168 0
123 144 0
152 173 0
140 154 0
136 149 0
146 163 0
172 193 0
143 160 0
155 172 0
122 142 0
141 163 0
157 176 0
151 168 0
159 178 0
140 158 0
147 168 0
133 146 0
153 174 0
136 152 0
170 192 0
136 145 0
160 178 0
146 162 0
146 163 0
130 145 0
160 180 0
155 173 0
144 161 0
142 163 0
155 173 0
158 176 0
157 177 0
153 171 0
161 182 0
172 192 0
169 186 0
160 184 0
151 170 0
159 178 0
146 162 0
158 178 0
149 164 0
142 163 0
173 194 0
154 175 0
162 183 0
177 195 0
166 187 0
170 193 0
166 188 0
135 154 0
169 190 0
164 186 0
157 178 0
144 163 0
146 164 0
161 175 0
175 200 0
153 167 0
162 180 0
176 195 0
141 160 0
172 195 0
167 185 0
144 164 0
159 177 0
158 172 0
173 190 0
164 185 0
170 190 0
173 192 0
169 193 0
164 184 0
165 186 0
175 193 0
171 190 0
172 188 0
179 193 0
170 189 0
181 200 0
173 190 0
175 195 0
156 177 0
168 192 0
170 190 0
166 183 0
163 181 0
171 191 0
180 202 0
155 175 0
172 194 0
162 183 0
147 163 0
176 194 0
167 189 0
178 201 0
181 203 0
174 189 0
168 188 0
158 180 0
159 182 0
189 209 123
176 195 168
178 201 148
171 195 89
165 185 0
178 201 148
168 190 89
176 198 123
175 197 186
150 171 89
182 202 123
178 201 148
180 201 123
177 199 123
170 189 89
180 204 89
170 191 89
169 190 123
174 197 123
170 192 0
169 190 123
164 184 0
173 195 89
172 193 123
169 192 168
154 176 89
181 202 148
152 170 123
128 148 89
175 197 89
151 171 123
157 175 123
178 200 123
144 165 89
181 201 123
157 178 89
153 176 89
156 177 89
153 177 89
168 188 89
161 179 123
172 192 123
174 196 89
182 203 0
170 189 123
156 178 123
130 148 123
179 200 148
141 165 0
189 211 148
147 168 89
185 203 123
194 213 148
181 200 89
166 188 123
161 182 123
148 168 89
170 189 89
158 178 0
156 178 89
176 195 123
157 175 123
150 168 89
149 167 89
163 180 89
171 189 168
156 173 89
184 206 89
172 192 123
151 170 89
153 168 89
160 178 89
157 177 0
166 186 0
160 175 148
138 158 89
162 181 123
102 125 0
160 174 123
108 124 0
134 147 123
132 144 89
134 149 123
119 134 89
126 140 89
115 135 0
138 153 123
135 147 123
137 153 89
149 165 123
101 116 89
146 162 89
137 154 89
161 178 123
167 183 168
108 119 123
121 135 89
125 139 0
103 121 108
80 99 89
114 131 136
94 115 108
78 104 89
100 121 89
87 104 108
96 121 136
56 85 108
116 143 123
108 129 65
95 118 108
124 144 108
114 138 158
124 141 89
120 139 158
113 135 89
95 106 65
139 154 0
161 180 65
129 142 0
151 159 0
164 181 0
132 147 0
162 179 0
128 146 0
135 149 0
148 168 0
130 146 0
118 133 65
117 139 89
82 101 89
81 108 136
96 123 108
89 117 89
54 82 65
80 109 89
97 120 65
99 119 108
77 103 65
120 131 0
92 100 0
118 136 89
129 153 89
116 136 0
108 123 0
95 108 0
130 143 0
21 35 0
73 88 0
114 130 0
95 108 0
98 113 0
113 125 0
129 142 0
74 85 0
110 124 0
99 112 0
113 128 0
90 104 0
94 110 0
90 105 0
114 125 0
94 108 0
101 118 0
75 88 0
96 109 0
74 88 0
127 142 0
74 89 0
130 144 0
96 109 0
75 89 0
92 103 0
34 53 0
109 120 0
115 128 0
96 111 0
73 84 0
113 127 0
112 125 0
36 55 0
100 115 0
97 112 0
87 104 0
114 130 0
97 109 0
124 135 0
139 156 0
35 53 0
71 86 0
34 52 0
95 113 0
66 66 0
92 104 0
93 110 0
110 125 0
40 63 0
111 127 0
136 151 0
117 135 0
111 125 0
96 111 0
112 125 0
113 130 0
74 86 0
118 130 0
92 110 0
102 120 0
97 106 0
72 88 0
111 126 0
92 111 0
107 126 0
119 136 0
144 156 0
113 129 0
147 164 0
101 113 0
100 119 0
146 163 0
103 117 0
125 141 0
110 126 0
95 110 0
71 90 0
139 157 0
80 100 0
135 154 0
126 144 0
109 126 0
128 145 0
105 124 0
123 143 0
107 122 0
115 130 0
140 154 0
146 164 0
103 117 0
124 144 0
140 157 0
109 128 0
97 116 0
99 115 0
147 166 0
114 133 0
119 135 0
119 138 0
156 176 0
137 153 0
148 162 0
128 146 0
112 135 0
119 136 0
120 136 0
130 146 0
124 139 0
134 153 0
112 131 0
138 153 0
155 175 0
136 153 0
150 168 0
152 168 0
168 186 0
146 168 0
147 166 0
151 166 0
160 184 0
146 162 0
151 170 0
100 119 0
163 181 0
115 130 0
156 174 0
154 173 0
149 168 0
142 162 0
120 142 0
132 152 0
145 161 0
144 156 0
150 174 0
152 175 0
151 171 0
151 170 0
155 176 0
125 144 0
133 151 0
169 184 0
157 176 0
153 170 0
133 153 0
167 184 0
132 151 0
152 174 0
123 143 0
165 185 0
150 169 0
146 162 0
143 164 0
147 167 0
146 164 0
164 183 0
153 173 0
150 172 0
173 195 0
153 172 0
142 165 0
147 164 0
140 164 0
141 157 0
149 171 0
152 168 0
141 157 0
156 174 0
162 184 0
146 164 0
177 194 0
148 165 0
162 185 0
167 187 0
143 159 0
164 182 0
161 183 0
149 170 0
116 129 0
160 179 0
179 202 0
162 178 0
172 193 0
169 191 0
153 169 0
151 172 0
155 172 0
163 186 0
130 143 0
149 169 0
141 163 0
152 174 0
133 148 0
173 194 0
171 194 0
155 173 0
147 165 0
151 171 0
162 183 0
170 186 0
180 202 0
163 186 0
171 189 0
165 183 0
163 183 0
133 151 0
180 202 0
137 156 0
169 189 0
169 190 0
134 152 0
176 197 0
174 199 0
167 189 0
179 199 0
142 161 0
158 179 0
178 198 0
183 204 0
168 187 0
164 180 0
170 193 0
168 187 0
160 181 0
159 179 0
154 174 0
145 167 0
160 179 0
155 172 0
176 197 0
175 193 0
154 174 0
170 187 0
150 166 0
154 174 0
145 165 0
167 187 0
167 188 0
137 155 0
172 193 0
165 184 0
162 180 0
165 182 0
163 183 0
171 193 0
163 181 0
183 201 0
166 186 0
184 204 0
173 187 0
177 195 0
153 174 0
176 193 0
167 187 0
184 208 148
164 186 89
189 209 123
177 201 168
177 198 123
176 195 168
184 205 0
192 213 168
179 198 0
183 206 123
189 212 168
156 174 0
157 177 89
184 205 89
169 189 89
162 184 0
181 201 123
163 182 123
169 191 0
180 203 89
161 182 136
171 194 168
176 199 123
180 200 123
168 190 123
180 202 148
168 188 123
148 168 0
177 199 123
168 190 123
175 197 123
177 201 0
136 158 89
167 186 89
154 172 123
178 198 89
175 196 89
152 172 0
172 195 89
157 177 89
146 167 0
187 207 89
157 177 0
152 173 89
144 166 0
147 168 123
169 186 123
159 178 0
162 182 148
143 162 0
152 169 89
164 182 123
180 201 148
181 203 168
138 156 89
151 170 89
168 187 89
146 166 89
181 197 148
190 210 186
149 169 89
134 153 0
172 190 89
170 191 123
170 187 148
146 166 0
151 169 89
181 198 0
144 161 89
159 175 123
141 156 89
125 142 89
142 160 89
178 194 168
151 170 0
149 170 89
124 141 89
167 181 168
160 177 89
152 168 89
129 145 89
166 184 0
149 170 89
110 127 0
155 176 123
153 169 89
155 170 89
133 147 89
138 153 123
158 174 123
125 140 0
169 182 186
134 147 89
143 157 89
130 147 0
119 131 89
91 104 0
110 123 0
130 142 89
139 148 123
113 126 123
38 60 65
124 138 136
116 134 158
110 132 89
112 136 123
126 150 89
100 120 89
90 108 108
85 115 136
95 116 136
105 123 108
75 96 89
118 134 148
51 78 65
105 118 0
131 149 0
147 162 0
151 164 0
161 172 0
120 134 0
151 172 65
151 169 0
169 188 0
136 155 0
141 161 0
140 163 0
147 166 0
113 117 0
98 119 65
82 103 89
57 89 65
86 116 136
64 97 108
100 125 65
94 116 65
64 97 65
140 160 65
71 79 0
122 136 0
149 166 0
130 146 89
110 134 65
132 146 0
76 98 0
137 151 0
97 111 0
138 153 0
111 127 0
98 113 0
113 129 0
134 149 0
107 122 0
96 109 0
128 146 0
93 108 0
125 141 0
94 108 0
96 108 0
72 82 0
38 57 0
109 123 0
129 142 0
28 47 0
31 49 0
126 141 0
72 90 0
74 91 0
95 107 0
97 113 0
71 86 0
113 123 0
79 96 0
108 118 0
94 111 0
111 124 0
113 129 0
113 129 0
113 123 0
106 116 0
117 133 0
118 133 0
45 68 0
81 99 0
135 153 0
97 112 0
129 143 0
76 89 0
152 167 0
126 141 0
90 100 0
97 112 0
76 93 0
96 111 0
107 123 0
93 110 0
111 125 0
148 164 0
40 59 0
121 135 0
104 113 0
117 133 0
111 126 0
76 93 0
115 132 0
100 119 0
130 148 0
118 128 0
126 141 0
114 130 0
127 141 0
126 142 0
115 130 0
129 146 0
107 123 0
109 119 0
128 145 0
96 118 0
114 133 0
113 128 0
98 112 0
100 115 0
122 136 0
115 131 0
100 117 0
91 108 0
106 124 0
123 139 0
118 134 0
166 187 0
132 152 0
95 113 0
135 153 0
143 161 0
119 136 0
126 145 0
142 163 0
93 109 0
117 135 0
134 152 0
152 168 0
113 132 0
126 145 0
167 186 0
135 151 0
136 154 0
142 158 0
156 176 0
155 172 0
130 152 0
150 168 0
157 174 0
153 174 0
138 154 0
122 143 0
119 134 0
154 172 0
146 163 0
151 163 0
139 153 0
122 143 0
145 166 0
134 154 0
159 177 0
128 148 0
134 153 0
141 160 0
80 97 0
119 138 0
149 162 0
109 128 0
170 191 0
165 186 0
125 147 0
119 140 0
171 191 0
146 167 0
150 167 0
127 147 0
139 159 0
154 173 0
145 167 0
136 154 0
117 133 0
155 175 0
147 164 0
147 164 0
153 175 0
141 158 0
151 172 0
134 153 0
132 149 0
152 172 0
156 177 0
124 142 0
146 162 0
142 165 0
154 171 0
150 174 0
156 174 0
151 168 0
151 173 0
154 172 0
167 188 0
138 159 0
146 159 0
169 193 0
161 180 0
143 163 0
107 123 0
163 181 0
143 159 0
154 174 0
127 144 0
151 171 0
170 188 0
170 192 0
149 172 0
142 163 0
166 183 0
159 177 0
170 190 0
160 181 0
145 166 0
163 184 0
138 155 0
119 138 0
174 194 0
157 176 0
172 193 0
159 179 0
159 179 0
177 196 0
165 182 0
158 176 0
143 162 0
155 172 0
140 158 0
154 170 0
184 205 0
151 168 0
155 177 0
168 181 0
158 175 0
159 179 0
172 194 0
169 187 0
149 165 0
157 180 0
180 199 0
161 181 0
149 173 0
157 172 0
158 181 0
169 188 0
172 193 0
166 184 0
165 184 0
179 201 0
180 193 0
139 160 0
157 179 0
165 180 0
174 196 0
171 190 0
179 202 0
159 179 0
142 158 0
158 175 0
175 196 0
156 167 0
171 189 0
180 202 0
140 159 0
153 159 0
171 193 0
140 153 0
152 170 0
170 189 0
174 191 0
161 183 0
161 182 0
174 193 0
156 167 0
165 179 0
161 171 0
177 193 0
171 185 0
151 169 0
182 200 0
166 187 0
157 178 0
160 178 0
185 205 0
153 172 0
175 200 0
163 186 0
156 177 0
168 189 0
165 183 0
173 197 123
177 198 89
148 168 89
171 191 89
185 209 148
166 190 123
178 197 0
171 192 123
170 192 123
168 188 123
166 187 89
187 206 148
184 208 148
159 181 89
166 187 0
180 202 148
174 198 148
181 200 123
172 194 89
154 178 0
178 197 89
164 187 89
147 168 89
178 199 123
173 192 123
163 185 123
180 200 123
181 203 0
157 180 0
166 186 0
167 186 148
158 181 89
165 187 123
175 193 148
179 199 123
166 186 0
155 178 148
177 195 148
179 199 89
176 193 89
142 160 89
166 187 89
156 177 123
182 203 168
170 189 123
142 163 123
175 197 89
154 175 89
158 177 89
175 198 123
190 212 168
181 201 148
121 140 0
192 214 186
158 175 148
181 200 123
153 173 0
163 183 0
139 155 89
137 156 0
185 205 168
174 195 148
173 195 89
168 187 0
123 142 89
181 199 148
127 145 0
168 189 89
166 185 148
132 149 89
152 167 0
141 156 89
169 189 123
133 149 89
166 184 123
128 145 89
150 165 148
181 201 123
147 163 123
157 173 0
112 128 89
118 129 89
141 156 89
130 147 0
151 169 89
138 155 89
158 174 123
105 124 89
118 134 0
146 164 0
82 92 89
122 135 0
156 172 123
134 147 89
88 99 0
123 138 0
115 125 0
137 154 0
109 117 123
131 142 148
101 113 89
98 108 89
135 153 148
70 90 65
70 79 0
123 143 123
83 105 89
113 126 136
98 119 89
98 115 0
121 143 123
88 106 0
49 74 65
66 82 0
111 127 65
126 134 0
90 109 65
153 164 0
165 179 0
123 138 65
165 179 0
151 161 0
167 187 0
131 152 0
161 179 0
143 164 0
123 145 0
113 126 0
130 145 0
108 119 0
112 128 0
113 132 65
75 99 65
52 80 65
75 98 65
110 130 89
76 97 0
116 132 0
109 123 0
50 76 0
128 142 0
113 133 0
96 120 89
77 94 65
81 105 0
112 130 0
94 110 0
96 108 0
129 145 0
79 96 0
111 127 0
129 143 0
32 51 0
138 153 0
124 139 0
108 120 0
70 85 0
43 67 0
118 136 0
130 148 0
77 93 0
92 109 0
77 93 0
77 90 0
142 158 0
42 64 0
111 129 0
92 108 0
141 157 0
96 109 0
107 124 0
98 112 0
76 91 0
128 143 0
77 91 0
72 89 0
130 146 0
78 98 0
69 76 0
93 104 0
110 122 0
95 111 0
94 110 0
79 99 0
134 153 0
76 95 0
79 95 0
94 107 0
97 116 0
95 112 0
92 104 0
128 143 0
118 135 0
93 105 0
69 79 0
74 92 0
74 93 0
95 115 0
113 131 0
122 139 0
122 139 0
74 90 0
99 114 0
95 108 0
134 148 0
125 139 0
134 149 0
95 115 0
119 137 0
74 94 0
95 110 0
95 111 0
128 139 0
96 112 0
129 143 0
77 91 0
120 137 0
107 123 0
138 160 0
143 159 0
137 154 0
124 143 0
109 129 0
109 129 0
107 122 0
119 136 0
139 153 0
124 144 0
128 146 0
144 157 0
134 149 0
169 187 0
95 110 0
121 141 0
162 178 0
114 132 0
135 149 0
165 185 0
124 138 0
125 146 0
127 146 0
132 146 0
164 181 0
119 137 0
112 130 0
92 110 0
127 149 0
105 120 0
117 131 0
136 153 0
106 119 0
154 173 0
147 167 0
146 167 0
151 170 0
163 183 0
146 166 0
132 153 0
133 152 0
160 180 0
121 135 0
158 179 0
97 116 0
143 163 0
124 142 0
136 158 0
131 150 0
121 142 0
131 149 0
140 158 0
120 136 0
152 170 0
162 182 0
155 175 0
127 143 0
141 161 0
145 163 0
144 160 0
123 145 0
135 150 0
127 141 0
124 143 0
159 182 0
145 163 0
153 171 0
149 166 0
151 169 0
155 176 0
159 179 0
164 180 0
137 156 0
164 186 0
164 183 0
141 161 0
130 144 0
137 154 0
158 175 0
136 153 0
156 176 0
145 165 0
149 168 0
140 160 0
163 183 0
149 169 0
146 166 0
143 164 0
179 199 0
167 182 0
127 142 0
125 142 0
164 184 0
151 173 0
160 183 0
147 164 0
170 189 0
161 182 0
164 183 0
148 173 0
147 167 0
156 175 0
147 168 0
137 155 0
171 193 0
167 187 0
171 193 0
160 180 0
163 186 0
163 183 0
168 187 0
162 184 0
176 197 0
158 176 0
169 182 0
161 182 0
151 170 0
145 165 0
158 178 0
146 169 0
161 181 0
180 200 0
161 180 0
157 175 0
148 167 0
171 193 0
160 178 0
161 178 0
163 183 0
171 192 0
154 171 0
148 167 0
170 190 0
162 184 0
157 168 0
163 184 0
137 151 0
156 174 0
178 189 0
148 167 0
160 174 0
168 185 0
152 171 0
154 174 0
161 184 0
160 180 0
171 194 0
174 191 0
161 180 0
177 198 0
171 190 0
152 171 0
151 167 0
160 181 0
157 179 0
171 192 0
154 169 0
177 201 0
160 183 0
167 187 0
168 192 0
159 182 0
160 177 0
170 192 0
133 149 0
171 192 0
168 186 0
174 191 0
161 182 0
170 193 0
169 189 0
159 181 0
159 178 0
150 174 0
177 194 0
172 190 0
167 186 0
163 181 0
165 179 0
163 180 0
171 193 0
158 176 0
178 199 123
169 189 89
160 181 0
180 202 148
172 196 123
159 179 123
164 185 0
171 195 89
170 192 123
186 208 123
181 204 168
174 197 123
168 190 89
174 195 89
175 195 0
160 179 123
135 151 89
162 184 89
159 179 89
165 186 0
151 175 0
149 167 0
180 206 148
180 202 0
189 212 168
184 208 148
144 164 89
179 199 123
169 190 0
169 189 89
182 206 123
160 180 123
153 173 0
168 190 89
169 192 0
176 198 123
153 173 0
153 175 89
160 177 89
163 185 0
173 196 89
178 200 148
179 200 123
182 204 89
180 202 148
149 170 89
179 199 123
155 176 89
161 179 123
173 195 89
121 139 0
141 158 123
178 200 148
171 193 148
152 172 0
155 174 0
161 182 0
171 190 123
177 198 168
168 188 89
173 194 148
170 191 123
178 195 148
166 184 148
168 187 123
131 149 0
187 208 123
186 204 186
131 150 123
171 188 123
139 158 0
171 194 89
143 161 89
131 147 123
168 184 148
140 159 89
163 180 123
156 175 123
157 173 123
158 177 0
138 156 0
154 166 148
129 146 89
112 125 0
136 155 0
168 185 123
148 163 123
135 150 123
131 149 89
124 139 0
148 166 0
139 156 0
123 139 0
130 143 89
102 117 89
74 88 0
123 136 0
83 93 89
111 125 0
131 139 148
140 149 123
123 134 123
145 157 148
89 106 65
87 103 108
93 115 89
98 123 158
117 138 89
118 138 123
100 120 65
119 137 108
144 159 158
53 80 89
95 121 65
95 113 65
75 90 0
130 144 0
165 187 0
138 150 0
163 179 0
157 175 0
160 184 65
130 148 89
123 143 0
149 166 0
150 169 0
132 150 0
139 157 0
162 181 0
117 130 0
125 140 0
95 111 0
74 92 65
81 105 65
113 134 65
93 111 0
109 123 65
131 150 0
109 127 0
96 110 0
111 129 0
110 126 0
110 122 0
107 125 0
96 114 0
123 141 0
99 113 0
98 112 0
95 111 0
139 155 0
136 153 0
128 143 0
24 42 0
93 108 0
95 110 0
125 139 0
156 173 0
141 157 0
110 124 0
92 111 0
94 111 0
93 107 0
138 154 0
95 108 0
113 124 0
109 124 0
125 143 0
96 108 0
97 112 0
70 86 0
38 60 0
152 167 0
76 92 0
129 144 0
75 95 0
71 88 0
116 133 0
77 92 0
100 113 0
126 141 0
131 146 0
132 149 0
123 137 0
148 165 0
92 110 0
96 112 0
93 110 0
96 111 0
69 82 0
42 65 0
97 111 0
138 154 0
109 121 0
25 43 0
93 112 0
71 92 0
62 75 0
95 112 0
87 99 0
124 140 0
99 114 0
111 126 0
107 123 0
100 120 0
125 145 0
96 114 0
137 156 0
108 124 0
109 125 0
94 110 0
126 142 0
94 112 0
125 139 0
98 118 0
112 131 0
60 71 0
142 161 0
123 139 0
104 120 0
72 84 0
149 166 0
163 181 0
144 164 0
95 113 0
85 104 0
101 111 0
102 119 0
101 121 0
105 120 0
135 150 0
112 125 0
138 158 0
137 152 0
107 124 0
120 137 0
108 123 0
132 145 0
120 138 0
111 132 0
117 132 0
123 142 0
143 159 0
143 163 0
135 156 0
104 125 0
137 153 0
154 171 0
133 153 0
142 163 0
92 112 0
146 165 0
132 152 0
120 140 0
150 169 0
144 160 0
129 144 0
146 165 0
156 178 0
138 150 0
118 136 0
143 164 0
134 154 0
137 156 0
134 155 0
153 175 0
154 176 0
133 154 0
125 142 0
163 186 0
143 160 0
172 192 0
155 174 0
149 167 0
140 152 0
133 153 0
134 155 0
153 172 0
161 176 0
134 150 0
111 133 0
145 166 0
162 186 0
154 176 0
151 169 0
161 185 0
128 143 0
132 155 0
157 176 0
161 178 0
151 174 0
143 164 0
173 193 0
175 188 0
152 167 0
123 140 0
117 138 0
158 180 0
156 163 0
143 160 0
155 176 0
139 157 0
133 156 0
126 146 0
153 164 0
134 153 0
145 166 0
163 185 0
162 183 0
161 185 0
163 180 0
162 176 0
168 184 0
153 174 0
128 148 0
153 169 0
163 177 0
172 193 0
159 182 0
161 179 0
167 190 0
165 186 0
175 193 0
146 167 0
163 184 0
127 142 0
171 192 0
164 183 0
168 191 0
180 202 0
174 192 0
166 182 0
149 164 0
149 169 0
165 183 0
163 180 0
155 174 0
177 196 0
149 169 0
133 152 0
174 196 0
178 198 0
151 171 0
159 178 0
166 186 0
171 194 0
157 175 0
155 172 0
166 184 0
152 173 0
141 155 0
162 184 0
144 164 0
178 195 0
181 194 0
148 167 0
173 194 0
158 181 0
163 183 0
176 194 0
158 179 0
150 168 0
151 172 0
155 175 0
175 193 0
174 195 0
174 192 0
161 178 0
148 165 0
156 169 0
153 173 0
162 184 0
175 196 0
174 199 0
182 203 0
180 199 0
177 194 0
141 158 0
169 192 0
169 190 0
154 175 0
152 172 0
169 192 0
155 178 0
163 181 0
149 170 0
156 178 0
166 186 0
156 173 0
164 187 0
141 159 0
174 193 0
154 175 0
164 183 0
161 182 0
161 185 0
168 192 0
180 202 0
163 181 0
171 195 0
158 176 0
154 175 89
183 204 0
166 187 89
153 173 0
179 202 0
173 194 0
174 197 123
153 173 89
172 195 89
188 209 123
122 141 0
180 201 148
182 205 89
171 192 0
157 177 89
164 186 89
177 201 0
164 185 0
186 207 168
164 182 148
175 196 89
155 177 0
171 190 123
158 178 89
173 192 89
177 196 0
183 206 123
173 193 0
167 188 89
180 202 0
169 194 89
159 177 0
161 183 0
134 152 0
173 192 123
182 203 89
185 207 123
142 164 89
159 176 0
149 170 89
177 198 123
153 173 0
156 175 0
175 198 108
166 187 89
176 199 148
164 185 123
183 203 148
146 164 89
163 187 89
169 189 0
137 155 0
161 181 89
178 200 186
173 192 123
181 202 148
166 190 123
123 138 0
144 163 123
182 206 123
148 166 89
166 185 123
155 172 0
182 202 148
145 166 89
165 184 148
141 159 89
177 197 0
160 178 89
141 157 89
175 195 123
153 172 0
142 161 89
92 108 0
146 163 89
142 162 89
164 180 89
146 162 123
145 160 123
125 140 123
158 174 148
156 173 123
134 151 89
170 190 89
142 159 123
154 171 123
151 168 89
145 162 0
148 164 123
80 88 89
148 166 0
134 149 89
73 91 0
101 113 89
41 61 0
116 132 89
131 146 123
108 122 0
134 148 89
133 148 0
134 147 89
90 105 0
150 165 89
96 105 0
100 117 65
78 101 0
78 101 89
108 127 65
51 79 0
79 99 65
54 83 65
102 123 108
94 116 108
106 118 89
118 132 0
121 135 0
124 138 0
148 158 0
125 138 0
141 156 0
162 179 0
136 154 0
144 165 0
152 166 65
161 179 0
110 131 0
150 165 0
124 142 0
159 178 0
154 171 0
106 125 0
136 153 0
137 151 0
72 87 0
81 94 0
85 92 0
94 110 0
69 77 0
130 144 0
131 149 0
116 132 0
126 145 0
122 142 0
75 97 0
134 151 0
110 126 0
96 113 0
115 133 0
101 117 0
123 139 0
91 109 0
100 117 0
97 115 0
114 129 0
93 106 0
44 68 0
92 107 0
140 157 0
138 153 0
98 114 0
78 98 0
94 107 0
112 127 0
137 153 0
89 107 0
116 130 0
94 110 0
129 142 0
129 140 0
131 144 0
77 95 0
29 47 0
99 117 0
41 63 0
97 118 0
106 122 0
114 129 0
112 128 0
110 123 0
114 129 0
142 158 0
131 147 0
77 93 0
125 139 0
111 128 0
95 109 0
112 123 0
117 135 0
98 110 0
129 144 0
117 133 0
109 128 0
149 166 0
125 142 0
94 113 0
95 108 0
115 133 0
73 91 0
99 116 0
112 130 0
112 127 0
113 132 0
98 115 0
158 168 0
137 152 0
90 107 0
74 96 0
87 107 0
142 156 0
95 112 0
119 132 0
113 129 0
115 131 0
127 148 0
139 159 0
76 97 0
107 125 0
110 122 0
94 114 0
95 113 0
134 152 0
146 162 0
97 107 0
71 91 0
137 157 0
107 127 0
131 142 0
140 159 0
145 161 0
74 95 0
111 129 0
114 129 0
136 157 0
112 131 0
136 149 0
111 128 0
137 159 0
122 140 0
119 139 0
141 156 0
123 141 0
108 122 0
132 150 0
155 176 0
157 176 0
138 156 0
116 134 0
135 155 0
149 169 0
134 155 0
123 145 0
149 162 0
126 142 0
142 158 0
146 160 0
150 166 0
125 142 0
154 173 0
124 144 0
144 163 0
153 175 0
131 143 0
147 168 0
154 173 0
142 161 0
144 164 0
162 181 0
138 156 0
115 134 0
141 159 0
145 163 0
165 186 0
155 174 0
134 153 0
141 161 0
163 181 0
150 166 0
147 168 0
179 197 0
147 157 0
145 162 0
154 173 0
155 170 0
167 188 0
164 182 0
153 175 0
161 184 0
147 168 0
172 193 0
151 173 0
132 154 0
117 136 0
153 172 0
160 180 0
143 160 0
105 126 0
144 165 0
177 197 0
181 200 0
157 172 0
149 171 0
182 200 0
146 168 0
169 193 0
148 166 0
146 166 0
164 186 0
142 163 0
136 150 0
162 181 0
152 167 0
156 174 0
137 155 0
159 178 0
160 178 0
146 163 0
162 184 0
170 188 0
154 176 0
171 194 0
155 176 0
158 174 0
140 157 0
176 195 0
148 165 0
165 185 0
179 199 0
165 182 0
147 159 0
160 178 0
161 182 0
157 172 0
146 164 0
166 186 0
181 196 0
180 199 0
167 185 0
162 185 0
151 171 0
129 145 0
153 172 0
160 179 0
162 178 0
171 191 0
176 197 0
146 164 0
162 184 0
162 184 0
167 191 0
162 184 0
151 165 0
177 193 0
145 161 0
155 174 0
133 153 0
153 174 0
156 175 0
127 150 0
174 196 0
153 168 0
169 189 0
175 193 0
160 176 0
173 195 0
140 158 0
153 172 0
166 186 0
172 190 0
160 177 0
157 180 0
157 180 0
155 173 0
175 196 0
168 184 0
148 167 0
173 193 0
160 179 0
166 187 0
163 181 0
176 191 0
152 173 0
155 174 0
168 186 0
166 187 0
171 193 0
121 140 0
167 185 0
176 195 0
164 183 0
185 205 0
168 191 0
162 184 0
160 183 0
159 178 0
157 175 0
181 203 0
172 192 0
177 196 0
159 181 0
155 170 0
166 189 89
181 203 148
163 180 89
167 188 89
154 177 89
177 200 123
145 168 123
163 186 89
174 195 89
176 198 123
174 195 89
177 198 123
172 194 89
162 186 89
174 194 0
160 183 123
155 178 89
170 189 89
184 205 89
177 197 0
175 196 186
182 204 89
176 196 0
180 201 123
181 201 123
168 191 148
168 189 89
152 172 123
147 166 89
153 173 0
141 164 0
153 172 0
167 187 89
181 205 123
167 189 123
135 155 0
148 168 89
153 173 0
156 174 0
182 202 123
159 179 123
177 193 123
158 179 89
163 184 89
170 191 123
166 185 123
167 188 123
163 183 123
137 156 89
163 184 123
154 172 89
136 154 89
171 191 89
161 182 148
129 149 0
180 201 148
131 150 0
154 173 123
176 195 0
162 181 123
159 179 89
184 203 148
156 176 89
152 171 148
141 160 89
172 193 123
175 193 148
159 178 89
171 190 123
167 187 89
145 164 0
157 175 123
174 197 89
109 126 0
147 164 123
146 162 123
174 194 0
166 182 123
141 156 148
143 159 89
143 159 89
162 178 0
160 174 123
111 126 89
122 138 0
138 151 148
126 140 0
102 113 89
157 172 123
173 192 123
144 160 89
133 153 0
134 150 89
149 167 89
161 179 89
101 116 89
96 107 0
132 145 89
144 155 123
61 70 0
123 133 123
161 178 89
133 145 89
110 127 0
94 109 0
130 142 89
95 109 0
75 93 89
44 68 65
80 102 89
102 121 89
95 115 136
103 118 0
123 138 0
142 156 0
94 109 0
108 120 0
117 135 0
166 186 0
163 177 0
167 186 0
141 154 0
130 149 0
135 151 0
142 159 0
123 136 0
153 175 0
119 137 0
156 178 0
106 122 0
110 126 0
136 147 0
109 120 0
37 56 0
112 126 0
114 133 0
119 135 0
142 160 0
71 83 0
70 87 0
121 137 0
120 134 0
168 186 0
71 91 0
95 109 0
84 104 0
126 140 0
139 154 0
92 108 0
109 122 0
112 130 0
125 140 0
77 99 0
138 153 0
110 123 0
89 103 0
128 140 0
89 103 0
99 117 0
146 165 0
128 145 0
110 128 0
114 133 0
63 72 0
112 130 0
115 130 0
42 65 0
159 177 0
93 109 0
96 113 0
90 111 0
152 169 0
91 106 0
76 91 0
95 113 0
93 107 0
112 129 0
78 96 0
73 90 0
126 143 0
93 110 0
114 130 0
109 123 0
116 131 0
153 167 0
113 129 0
67 78 0
98 115 0
69 88 0
29 45 0
110 119 0
90 104 0
111 128 0
138 153 0
74 90 0
73 90 0
104 122 0
99 120 0
109 124 0
124 137 0
127 144 0
124 143 0
138 156 0
116 133 0
90 103 0
109 127 0
127 144 0
131 148 0
112 129 0
123 142 0
114 130 0
88 104 0
93 111 0
115 131 0
130 149 0
125 147 0
115 134 0
114 131 0
114 129 0
127 145 0
83 102 0
74 86 0
137 151 0
138 158 0
115 132 0
118 134 0
139 159 0
114 134 0
121 138 0
98 118 0
116 134 0
162 180 0
116 134 0
121 140 0
136 156 0
109 123 0
128 147 0
139 159 0
119 139 0
163 183 0
130 149 0
152 170 0
144 161 0
116 131 0
110 127 0
87 99 0
145 165 0
109 124 0
154 177 0
145 166 0
150 164 0
156 174 0
106 125 0
133 150 0
116 129 0
143 158 0
150 168 0
145 162 0
169 186 0
131 152 0
133 154 0
106 123 0
133 152 0
139 154 0
150 169 0
133 148 0
130 148 0
170 189 0
155 175 0
143 167 0
130 143 0
130 151 0
140 156 0
161 178 0
142 164 0
139 159 0
130 151 0
157 178 0
146 165 0
149 169 0
124 137 0
167 186 0
143 167 0
164 185 0
152 167 0
156 174 0
167 183 0
165 180 0
141 165 0
161 180 0
134 155 0
144 165 0
174 195 0
152 174 0
166 186 0
157 176 0
139 161 0
122 139 0
141 156 0
149 166 0
146 167 0
166 184 0
140 159 0
141 164 0
154 176 0
167 186 0
142 161 0
166 184 0
136 152 0
139 158 0
140 163 0
165 184 0
180 198 0
141 156 0
160 183 0
155 174 0
140 159 0
157 173 0
157 179 0
159 173 0
170 192 0
158 180 0
141 156 0
156 179 0
146 166 0
168 188 0
142 162 0
129 147 0
168 183 0
162 181 0
170 192 0
155 175 0
150 172 0
168 184 0
170 193 0
167 182 0
139 150 0
167 187 0
147 169 0
184 201 0
142 162 0
153 172 0
162 181 0
181 203 0
180 199 0
178 198 0
157 174 0
165 186 0
174 195 0
171 193 0
156 176 0
151 172 0
140 161 0
159 177 0
150 169 0
179 199 0
155 175 0
161 183 0
155 173 0
149 173 0
154 173 0
159 182 0
147 164 0
174 194 0
165 185 0
166 185 0
143 162 0
157 180 0
160 179 0
160 181 0
154 169 0
168 189 0
160 180 0
148 172 0
162 177 0
175 191 0
168 184 0
167 184 0
157 177 0
166 186 0
155 173 0
171 191 0
166 190 0
166 188 0
149 167 0
174 196 0
172 195 0
167 186 0
161 175 0
173 195 0
177 197 0
172 193 0
171 190 0
176 197 0
177 193 0
181 200 0
151 170 0
150 173 0
162 180 0
173 194 0
154 175 89
181 204 89
175 197 123
168 188 0
165 189 123
189 212 168
190 212 168
131 149 0
166 190 148
182 204 148
158 179 89
168 188 89
147 167 89
172 197 148
183 204 148
145 168 89
155 175 0
157 179 89
183 205 168
170 193 89
171 193 123
159 179 89
161 183 89
146 165 0
161 181 123
158 176 123
173 192 148
139 157 89
178 198 89
175 197 89
159 181 123
138 160 123
169 191 123
155 176 0
151 171 0
186 208 123
174 194 148
167 189 123
182 202 148
168 186 0
147 166 0
177 197 89
167 186 0
173 192 148
162 183 0
161 184 0
173 195 168
158 177 148
163 183 89
177 197 89
154 175 123
147 167 0
148 168 89
162 180 0
157 177 89
168 187 148
154 175 0
167 187 123
165 184 123
152 173 123
174 196 148
148 165 0
163 180 89
174 191 186
154 174 0
172 192 123
157 176 89
112 137 0
140 158 0
146 160 123
163 180 89
152 168 123
129 145 89
145 160 89
114 132 0
159 175 148
180 200 123
162 184 123
159 176 148
123 141 0
159 175 123
137 155 0
129 146 89
122 136 89
181 195 123
160 174 123
107 118 0
159 178 89
136 151 89
148 163 123
154 171 123
113 125 0
123 136 123
98 112 89
109 122 0
139 157 0
131 142 89
131 142 89
116 126 89
135 151 0
97 106 0
109 127 0
93 107 0
130 144 89
139 155 89
111 121 0
102 113 89
95 107 0
153 169 89
71 82 0
119 134 89
136 154 0
130 146 89
116 131 0
110 126 0
90 100 0
93 106 0
159 181 0
160 177 0
154 175 0
151 170 0
167 188 0
160 178 0
143 163 0
134 151 0
161 177 0
135 156 0
132 152 0
134 147 0
110 126 0
140 157 0
82 93 0
113 130 0
40 62 0
124 138 0
92 104 0
113 124 0
96 107 0
109 124 0
120 131 0
110 123 0
74 94 0
135 155 0
118 136 0
118 136 0
111 124 0
123 143 0
149 166 0
132 150 0
132 147 0
112 126 0
98 119 0
93 108 0
65 74 0
68 81 0
114 129 0
157 174 0
108 122 0
117 132 0
127 143 0
94 111 0
127 143 0
129 142 0
122 140 0
108 123 0
96 117 0
108 120 0
86 99 0
111 127 0
74 91 0
71 86 0
98 113 0
137 154 0
115 126 0
110 125 0
114 127 0
113 131 0
100 118 0
108 128 0
98 114 0
110 123 0
101 118 0
109 127 0
76 97 0
96 111 0
114 128 0
131 145 0
115 129 0
98 114 0
122 139 0
103 118 0
109 122 0
128 144 0
78 97 0
32 51 0
124 139 0
93 108 0
126 140 0
159 177 0
114 132 0
96 106 0
95 108 0
125 144 0
97 116 0
71 86 0
104 120 0
126 142 0
94 110 0
135 157 0
77 97 0
129 147 0
126 146 0
126 144 0
109 125 0
154 170 0
122 145 0
124 143 0
130 148 0
154 171 0
94 115 0
157 176 0
137 155 0
72 92 0
136 156 0
143 160 0
147 168 0
158 174 0
146 162 0
122 140 0
137 155 0
120 140 0
145 167 0
127 145 0
119 136 0
124 144 0
138 159 0
124 142 0
122 140 0
121 136 0
128 146 0
132 153 0
106 125 0
148 167 0
132 147 0
135 150 0
111 131 0
136 157 0
160 179 0
131 149 0
134 153 0
150 173 0
136 156 0
155 173 0
109 124 0
129 147 0
94 116 0
143 160 0
131 147 0
165 186 0
161 179 0
157 175 0
135 151 0
164 179 0
125 140 0
138 158 0
119 135 0
171 190 0
171 192 0
125 142 0
141 156 0
141 164 0
97 111 0
166 187 0
116 139 0
153 168 0
135 157 0
136 157 0
144 162 0
138 158 0
131 151 0
163 183 0
152 171 0
168 184 0
160 180 0
160 183 0
149 168 0
170 190 0
147 167 0
159 180 0
157 176 0
158 174 0
123 143 0
142 158 0
129 151 0
136 155 0
162 184 0
125 143 0
145 164 0
166 184 0
153 171 0
156 171 0
167 184 0
156 170 0
159 181 0
137 159 0
148 170 0
148 162 0
171 194 0
151 168 0
164 181 0
149 172 0
144 160 0
161 182 0
171 189 0
169 192 0
165 185 0
162 183 0
161 181 0
141 162 0
163 180 0
151 171 0
156 178 0
163 182 0
146 165 0
159 177 0
149 166 0
174 192 0
167 186 0
182 203 0
135 155 0
170 189 0
168 184 0
167 184 0
179 196 0
159 174 0
164 182 0
139 156 0
169 189 0
163 178 0
176 195 0
164 185 0
162 182 0
174 194 0
170 188 0
168 192 0
163 181 0
174 189 0
175 192 0
133 152 0
151 168 0
172 194 0
159 178 0
178 196 0
142 162 0
162 177 0
158 179 0
152 170 0
168 184 0
175 197 0
173 193 0
144 167 0
168 191 0
176 200 0
159 177 0
166 184 0
153 169 0
131 142 0
165 185 0
156 176 0
176 189 0
140 153 0
163 175 0
151 168 0
173 194 0
168 189 0
156 175 0
180 202 0
163 181 0
164 182 0
160 183 0
163 180 0
157 180 0
166 187 0
152 173 0
156 172 0
166 186 0
159 183 0
162 181 0
161 176 0
170 191 0
165 186 0
186 205 0
153 175 0
171 189 0
160 179 0
178 198 0
178 192 0
168 186 0
166 184 0
171 193 0
171 190 89
164 184 89
175 196 89
187 208 123
168 188 89
154 174 0
172 193 0
159 178 89
168 190 89
163 186 0
164 185 123
176 195 148
158 177 123
174 194 0
158 179 89
145 168 89
181 204 89
188 210 148
158 177 0
168 190 123
169 190 123
168 190 123
164 188 123
174 195 89
175 196 0
167 189 123
171 194 123
172 195 0
159 178 89
190 211 148
144 165 89
151 175 0
167 190 123
149 168 89
163 185 0
155 176 0
158 178 0
158 177 89
157 180 89
161 177 0
170 192 0
187 207 186
177 198 89
156 177 89
172 190 123
170 188 89
157 177 123
178 199 123
153 173 89
158 178 89
155 174 0
160 178 89
182 203 148
162 184 89
156 176 0
172 189 123
161 179 123
148 168 0
157 177 89
179 196 0
174 193 123
141 159 89
160 182 123
150 168 89
156 174 89
164 183 123
141 163 0
154 174 0
157 174 123
168 184 148
165 182 123
152 168 168
142 159 89
143 161 89
134 148 89
158 173 123
130 151 89
147 161 123
171 191 89
128 146 89
158 173 123
170 187 186
149 164 123
148 168 89
164 182 123
141 157 89
138 152 0
160 174 168
164 180 89
159 174 123
136 152 0
103 114 89
171 186 123
114 131 89
152 167 89
128 145 0
128 144 89
126 141 123
109 125 0
73 80 0
93 109 0
94 101 0
110 121 0
151 166 148
99 109 89
134 149 0
114 128 0
30 47 0
119 132 89
132 143 89
135 150 0
63 78 0
111 124 0
94 109 0
127 144 0
89 104 0
154 171 0
145 162 0
177 198 0
150 169 0
162 178 0
149 167 0
156 164 0
148 170 0
144 161 0
154 175 0
122 143 0
140 155 0
164 184 0
113 131 0
109 123 0
166 185 0
35 54 0
113 131 0
97 110 0
115 131 0
117 128 0
127 143 0
113 128 0
93 107 0
117 131 0
75 92 0
102 121 0
106 124 0
110 123 0
101 120 0
69 85 0
96 112 0
129 145 0
101 117 0
101 123 0
98 116 0
115 129 0
99 117 0
108 124 0
74 85 0
99 114 0
149 165 0
138 153 0
118 134 0
92 111 0
37 57 0
141 155 0
89 106 0
127 140 0
67 80 0
91 105 0
77 93 0
113 133 0
71 88 0
126 144 0
38 60 0
106 121 0
153 171 0
122 135 0
68 83 0
132 148 0
98 111 0
130 148 0
142 157 0
92 109 0
112 128 0
123 138 0
118 137 0
107 123 0
71 84 0
132 150 0
108 125 0
148 165 0
93 107 0
121 137 0
124 141 0
128 142 0
125 141 0
119 132 0
124 139 0
127 143 0
96 109 0
136 152 0
94 114 0
155 172 0
99 115 0
123 136 0
96 116 0
138 155 0
95 112 0
137 158 0
88 102 0
115 130 0
123 134 0
143 159 0
130 146 0
100 121 0
153 170 0
85 101 0
139 157 0
138 155 0
133 151 0
124 141 0
111 133 0
96 117 0
125 141 0
93 114 0
132 149 0
124 139 0
121 140 0
134 152 0
95 116 0
140 157 0
128 136 0
150 167 0
134 148 0
136 155 0
112 132 0
120 139 0
143 160 0
110 130 0
146 167 0
134 156 0
129 145 0
91 108 0
105 127 0
106 124 0
122 137 0
127 140 0
104 118 0
159 175 0
140 157 0
123 143 0
142 163 0
161 178 0
149 167 0
133 148 0
147 168 0
146 163 0
152 171 0
131 150 0
147 167 0
146 164 0
133 155 0
162 184 0
159 177 0
135 158 0
144 157 0
126 143 0
155 177 0
142 164 0
146 166 0
157 172 0
126 144 0
153 175 0
129 147 0
137 155 0
142 160 0
132 153 0
158 179 0
144 165 0
141 154 0
160 181 0
149 167 0
173 193 0
157 179 0
162 180 0
155 177 0
147 167 0
132 151 0
98 113 0
155 168 0
153 171 0
170 190 0
155 176 0
157 176 0
123 143 0
161 184 0
162 183 0
154 175 0
121 130 0
149 169 0
170 189 0
129 153 0
127 142 0
153 177 0
170 192 0
162 183 0
147 158 0
144 165 0
166 190 0
174 195 0
153 177 0
162 184 0
165 187 0
162 184 0
152 175 0
165 187 0
129 145 0
156 175 0
144 160 0
153 171 0
154 174 0
154 175 0
164 186 0
134 156 0
158 176 0
161 183 0
168 187 0
156 177 0
176 194 0
169 188 0
174 193 0
167 192 0
155 176 0
174 195 0
159 182 0
145 156 0
150 168 0
151 170 0
170 190 0
167 189 0
155 171 0
166 183 0
171 191 0
171 193 0
164 183 0
162 181 0
141 156 0
181 203 0
160 177 0
165 183 0
173 194 0
170 184 0
157 177 0
164 185 0
166 186 0
160 184 0
165 188 0
168 192 0
160 176 0
168 189 0
173 194 0
160 181 0
173 191 0
158 177 0
174 192 0
144 166 0
166 183 0
147 164 0
135 153 0
169 188 0
154 175 0
170 194 0
170 193 0
152 171 0
181 199 0
177 201 0
176 197 0
175 196 0
177 201 0
178 198 0
156 179 0
178 201 0
179 202 0
178 198 0
168 187 0
178 198 0
158 174 0
148 163 0
172 190 0
176 193 0
176 196 0
166 183 0
172 190 0
172 188 0
155 173 0
172 191 0
161 183 0
172 193 0
160 175 0
161 178 0
160 177 0
171 192 0
169 190 148
176 196 0
177 198 123
166 188 0
167 189 123
168 188 123
161 184 89
143 164 0
183 206 123
148 167 89
187 208 123
170 191 123
189 212 168
166 187 123
178 201 0
170 193 0
168 193 148
159 179 89
146 170 89
166 185 0
144 164 0
173 195 89
178 200 148
177 198 123
172 196 168
163 184 0
176 198 123
178 197 89
174 195 89
139 157 89
170 191 123
172 193 0
154 176 89
146 165 89
177 200 148
156 176 0
161 181 123
164 185 148
144 164 0
178 200 123
158 177 89
142 158 123
156 178 89
178 197 89
162 185 89
172 192 89
150 167 89
179 198 89
175 196 89
175 199 123
182 203 168
171 189 89
177 199 123
164 185 89
151 170 89
144 167 89
176 196 89
181 204 89
175 195 168
177 196 148
163 184 148
152 174 0
164 185 123
153 170 89
121 140 0
164 182 123
163 181 148
160 180 123
170 189 89
157 173 148
151 168 89
145 165 0
170 187 148
153 170 89
170 185 123
148 162 148
132 150 0
137 157 89
107 121 123
137 154 0
151 170 89
173 188 148
173 193 123
149 170 89
185 203 123
136 153 0
135 148 123
150 162 123
154 173 89
177 195 148
149 165 123
168 183 123
106 120 89
98 108 89
135 149 123
172 189 89
147 162 89
139 156 0
162 176 123
108 124 0
153 173 0
161 178 0
72 89 0
112 125 0
136 154 0
90 99 0
115 132 89
121 130 89
122 139 0
172 188 123
112 122 0
127 144 89
110 125 0
123 136 0
126 141 0
109 123 0
157 169 0
105 122 0
160 177 0
160 182 0
177 196 0
132 149 0
133 151 0
162 181 0
128 145 0
162 183 0
150 167 0
155 173 0
101 117 0
146 166 0
109 129 0
117 131 0
74 84 0
124 135 0
113 128 0
93 109 0
109 123 0
156 175 0
114 131 0
126 142 0
112 128 0
134 150 0
92 109 0
134 150 0
141 160 0
129 148 0
73 93 0
139 153 0
96 115 0
112 125 0
76 98 0
115 129 0
139 154 0
126 144 0
109 126 0
109 125 0
97 114 0
103 120 0
162 179 0
43 65 0
97 114 0
75 87 0
103 120 0
128 146 0
43 66 0
76 94 0
137 154 0
111 124 0
78 100 0
137 153 0
111 127 0
125 144 0
93 112 0
94 109 0
110 129 0
94 110 0
111 127 0
68 87 0
115 131 0
95 111 0
111 125 0
108 124 0
74 89 0
98 110 0
121 137 0
96 118 0
99 119 0
139 154 0
128 145 0
70 88 0
118 135 0
111 132 0
114 133 0
99 117 0
102 118 0
109 125 0
148 168 0
78 91 0
110 122 0
123 141 0
114 128 0
98 117 0
128 147 0
91 108 0
95 114 0
98 117 0
149 166 0
124 139 0
124 143 0
92 113 0
134 155 0
125 145 0
134 154 0
81 104 0
112 127 0
107 123 0
94 110 0
124 140 0
138 154 0
113 132 0
84 103 0
108 126 0
115 130 0
142 161 0
112 135 0
132 151 0
89 106 0
94 112 0
124 145 0
110 126 0
139 157 0
125 146 0
120 140 0
114 131 0
135 158 0
110 128 0
136 154 0
110 128 0
147 166 0
137 154 0
142 155 0
136 154 0
155 172 0
144 165 0
118 138 0
157 176 0
145 166 0
118 138 0
148 163 0
132 152 0
133 153 0
101 122 0
147 167 0
116 130 0
142 167 0
134 151 0
147 166 0
116 137 0
159 179 0
144 162 0
124 146 0
133 155 0
164 186 0
116 137 0
138 156 0
173 190 0
156 178 0
110 129 0
147 165 0
133 155 0
148 168 0
161 184 0
125 141 0
139 158 0
135 153 0
168 187 0
133 151 0
146 160 0
159 181 0
156 172 0
147 166 0
150 167 0
160 178 0
134 151 0
155 173 0
144 164 0
147 169 0
174 195 0
153 173 0
159 177 0
158 181 0
147 159 0
127 144 0
171 191 0
146 163 0
130 144 0
121 142 0
158 174 0
132 153 0
138 155 0
136 151 0
135 156 0
169 187 0
172 191 0
146 165 0
173 190 0
167 187 0
158 180 0
162 184 0
140 163 0
142 164 0
169 189 0
148 166 0
156 178 0
163 179 0
163 184 0
170 188 0
147 167 0
151 170 0
159 178 0
174 195 0
175 194 0
151 175 0
170 193 0
144 163 0
145 160 0
153 172 0
145 162 0
152 171 0
147 167 0
162 182 0
165 186 0
167 190 0
167 185 0
170 191 0
159 182 0
128 141 0
153 174 0
162 184 0
151 161 0
156 174 0
153 171 0
156 175 0
180 202 0
182 203 0
158 178 0
145 164 0
150 168 0
165 183 0
142 156 0
167 182 0
162 181 0
149 168 0
169 189 0
163 181 0
178 196 0
165 187 0
168 192 0
172 193 0
171 189 0
180 199 0
147 169 0
159 179 0
179 201 0
166 183 0
166 187 0
162 183 0
148 163 0
158 178 0
176 195 0
175 196 0
154 174 0
145 164 0
150 173 0
168 191 0
169 187 0
180 196 0
169 189 0
180 202 0
175 195 0
177 200 0
167 187 0
173 195 0
137 154 0
168 188 0
156 177 0
168 189 0
163 181 0
164 185 0
152 169 0
171 192 0
150 165 0
151 173 0
156 174 0
181 200 0
180 199 0
169 182 0
160 179 0
158 181 0
171 191 0
185 206 168
174 196 123
173 196 89
177 198 89
164 185 0
165 187 0
171 195 89
146 167 0
178 200 123
147 166 0
184 204 0
152 173 148
170 191 123
187 208 123
165 186 89
173 196 89
177 199 89
175 199 123
175 196 0
176 198 89
167 189 123
168 189 148
165 185 0
120 138 0
169 188 0
180 199 123
156 182 0
156 175 0
149 169 89
162 185 0
179 199 123
163 180 123
151 174 0
159 179 123
179 201 148
158 176 89
165 186 65
157 177 89
172 193 148
159 177 0
181 201 148
168 188 89
164 185 89
162 183 0
145 163 123
172 192 123
170 185 89
156 174 0
144 163 89
184 203 168
155 177 89
172 193 123
173 191 123
173 194 148
182 204 89
144 164 123
147 168 89
163 182 123
160 180 123
161 184 0
134 154 0
162 182 123
165 184 148
154 173 0
149 170 0
151 171 123
150 171 0
176 195 168
122 139 89
159 178 89
187 206 168
162 181 123
154 171 123
164 185 123
149 170 89
173 192 123
163 183 0
130 145 0
183 199 89
157 174 0
140 156 89
170 189 0
95 105 89
147 160 123
92 103 0
175 192 123
126 141 89
124 143 0
124 139 0
167 183 89
117 130 89
135 151 89
124 138 0
136 152 0
129 144 0
110 120 123
157 171 123
115 132 89
117 132 89
115 131 89
95 109 0
129 143 89
115 127 89
139 155 89
124 138 0
89 100 0
115 126 89
122 137 0
123 135 0
34 52 0
81 102 0
103 114 89
111 130 0
156 174 0
90 103 0
135 155 0
120 138 0
132 150 0
169 188 0
127 146 0
166 182 0
162 179 0
162 185 0
148 168 0
128 137 0
166 185 0
129 148 0
167 188 0
138 150 0
127 145 0
109 132 0
134 154 0
138 154 0
110 123 0
110 125 0
135 151 0
126 141 0
125 145 0
137 154 0
156 173 0
70 84 0
111 126 0
102 121 0
141 160 0
110 129 0
150 167 0
138 153 0
115 131 0
76 93 0
95 116 0
110 128 0
125 143 0
103 124 0
97 112 0
75 94 0
116 132 0
110 126 0
115 135 0
75 91 0
128 143 0
123 139 0
112 128 0
111 124 0
113 128 0
73 91 0
74 91 0
135 151 0
109 122 0
110 124 0
136 151 0
123 139 0
139 153 0
96 114 0
138 149 0
76 92 0
122 137 0
113 128 0
130 147 0
96 109 0
91 106 0
90 106 0
127 141 0
89 104 0
70 81 0
124 143 0
140 156 0
140 155 0
134 151 0
108 122 0
71 89 0
96 111 0
126 139 0
128 136 0
98 114 0
76 96 0
111 126 0
112 128 0
97 114 0
117 135 0
128 144 0
126 143 0
151 170 0
132 148 0
126 146 0
121 136 0
123 140 0
155 172 0
154 172 0
126 141 0
100 116 0
106 120 0
157 173 0
112 131 0
148 157 0
114 131 0
114 130 0
121 139 0
132 149 0
97 119 0
125 145 0
135 155 0
153 169 0
114 129 0
135 150 0
135 153 0
126 140 0
139 154 0
111 134 0
128 145 0
123 140 0
139 160 0
109 127 0
135 151 0
145 166 0
91 111 0
113 133 0
126 147 0
157 178 0
139 157 0
111 130 0
137 156 0
142 160 0
131 151 0
141 158 0
146 162 0
136 156 0
141 159 0
142 163 0
120 138 0
114 132 0
143 162 0
147 162 0
143 161 0
155 177 0
138 157 0
96 120 0
143 164 0
125 144 0
161 178 0
134 152 0
152 170 0
111 131 0
139 156 0
119 133 0
158 179 0
124 141 0
161 183 0
149 169 0
133 150 0
138 155 0
157 179 0
167 186 0
170 192 0
166 186 0
129 147 0
155 176 0
147 166 0
160 178 0
149 169 0
144 164 0
151 169 0
150 166 0
149 170 0
137 155 0
166 187 0
162 183 0
155 172 0
144 163 0
145 165 0
132 149 0
163 185 0
139 159 0
171 193 0
167 187 0
165 185 0
143 165 0
137 154 0
147 167 0
167 186 0
148 168 0
156 174 0
158 175 0
159 181 0
161 181 0
147 164 0
163 184 0
165 183 0
141 161 0
174 196 0
145 166 0
153 174 0
159 175 0
167 186 0
161 183 0
142 160 0
157 171 0
175 197 0
171 189 0
169 190 0
156 177 0
132 144 0
160 178 0
159 176 0
152 174 0
163 180 0
153 169 0
176 197 0
131 153 0
140 159 0
164 178 0
164 186 0
174 195 0
163 183 0
154 173 0
168 187 0
166 187 0
157 176 0
130 153 0
154 177 0
149 168 0
159 182 0
171 194 0
163 180 0
167 187 0
155 170 0
162 180 0
170 189 0
156 175 0
170 193 0
153 171 0
160 179 0
168 188 0
156 176 0
173 192 0
143 165 0
169 193 0
170 193 0
171 193 0
180 202 0
180 197 0
181 203 0
158 181 0
142 165 0
161 181 0
152 175 0
159 182 0
161 180 0
172 194 0
174 194 0
169 193 0
164 186 0
181 203 0
171 194 0
175 197 0
166 186 0
155 176 0
163 185 0
171 192 0
173 193 0
159 177 0
168 192 0
160 177 0
148 167 0
171 194 0
161 180 0
156 177 0
158 184 0
162 181 0
177 201 0
168 187 0
173 195 0
171 194 0
168 187 0
165 181 0
158 180 0
175 199 0
171 189 0
163 180 0
171 192 0
173 190 0
177 198 123
174 196 89
175 198 123
157 176 89
176 196 89
164 186 89
184 207 123
165 187 89
174 194 0
150 171 89
180 202 0
176 196 89
181 205 123
178 199 123
170 193 89
174 197 89
161 182 0
173 195 89
163 186 89
166 186 148
169 191 148
187 208 123
148 166 89
168 191 148
163 186 89
166 186 89
184 206 123
157 174 0
170 191 89
145 165 89
142 160 0
173 193 123
186 209 148
178 197 89
185 206 89
165 188 89
166 188 123
139 161 89
168 188 0
181 201 123
182 206 123
166 186 89
157 178 123
172 192 0
152 175 89
148 169 89
177 197 89
165 185 148
156 177 89
142 163 89
160 179 123
131 150 0
132 153 0
170 189 123
164 186 89
153 168 89
165 184 148
149 171 0
151 168 89
176 195 168
153 170 123
131 146 89
181 200 123
142 161 123
158 176 148
158 177 89
169 189 123
169 188 89
188 207 89
174 193 123
168 187 89
190 209 168
134 151 89
157 175 123
141 158 123
136 153 89
171 187 168
151 171 0
174 191 168
164 181 123
127 143 89
139 159 89
168 182 168
127 141 89
164 185 0
125 143 0
155 172 123
149 166 148
133 148 89
119 136 0
130 145 89
112 128 0
94 111 0
171 186 123
145 161 0
135 146 89
110 121 0
148 162 123
117 136 89
129 145 0
107 121 0
137 153 0
125 141 0
142 157 123
117 131 89
80 95 0
113 126 0
130 143 89
111 125 0
118 127 89
161 179 0
105 117 0
139 157 0
150 166 0
109 124 0
122 143 0
118 134 0
124 139 0
142 161 0
154 170 0
151 170 0
150 170 0
137 157 0
148 173 0
178 196 0
129 144 0
155 175 0
147 167 0
108 126 0
143 160 0
142 159 0
113 131 0
123 140 0
133 154 0
46 70 0
90 108 0
125 140 0
96 108 0
127 144 0
103 123 0
89 106 0
136 152 0
115 131 0
120 133 0
134 152 0
129 145 0
126 146 0
123 140 0
124 142 0
122 138 0
115 130 0
114 132 0
115 129 0
111 128 0
110 128 0
121 135 0
124 140 0
112 132 0
115 133 0
127 142 0
92 107 0
143 160 0
113 130 0
141 160 0
111 127 0
114 131 0
93 108 0
122 141 0
95 115 0
108 124 0
139 157 0
130 144 0
111 128 0
98 117 0
114 130 0
99 118 0
72 86 0
113 129 0
111 124 0
104 122 0
131 142 0
136 150 0
100 119 0
112 129 0
95 111 0
110 127 0
125 140 0
152 170 0
93 107 0
126 142 0
124 139 0
112 129 0
117 136 0
128 148 0
122 140 0
113 133 0
76 96 0
113 129 0
130 144 0
136 151 0
136 152 0
121 140 0
143 162 0
147 167 0
114 131 0
122 142 0
125 144 0
141 157 0
134 154 0
156 175 0
159 178 0
122 142 0
113 130 0
149 168 0
112 129 0
123 139 0
93 110 0
111 130 0
151 166 0
101 118 0
112 128 0
77 94 0
116 134 0
145 165 0
154 171 0
135 156 0
154 174 0
144 166 0
98 116 0
125 142 0
81 102 0
149 167 0
131 150 0
92 105 0
140 151 0
143 162 0
128 145 0
136 158 0
135 152 0
93 113 0
121 138 0
147 168 0
123 143 0
126 145 0
114 131 0
166 185 0
104 118 0
132 152 0
153 175 0
152 172 0
174 191 0
123 132 0
166 187 0
107 124 0
143 165 0
140 160 0
137 156 0
133 153 0
169 186 0
159 177 0
153 171 0
159 177 0
159 182 0
165 187 0
154 174 0
135 158 0
147 168 0
166 183 0
142 163 0
132 155 0
163 184 0
144 162 0
174 195 0
167 185 0
127 145 0
145 166 0
149 168 0
166 187 0
154 173 0
162 179 0
158 178 0
152 175 0
165 181 0
165 187 0
146 166 0
142 158 0
157 176 0
128 146 0
156 176 0
144 166 0
164 184 0
163 183 0
173 192 0
132 148 0
162 180 0
139 161 0
142 162 0
148 167 0
155 176 0
133 155 0
157 177 0
145 166 0
183 201 0
164 185 0
145 166 0
152 175 0
151 173 0
167 192 0
145 162 0
142 161 0
152 170 0
164 186 0
166 187 0
149 165 0
173 191 0
170 190 0
181 203 0
160 183 0
136 155 0
169 189 0
163 180 0
160 179 0
164 185 0
167 183 0
168 187 0
148 168 0
177 197 0
152 169 0
168 188 0
176 196 0
165 185 0
125 149 0
169 188 0
170 189 0
166 184 0
150 170 0
156 175 0
174 195 0
151 171 0
154 170 0
176 197 0
161 181 0
154 173 0
131 142 0
168 188 0
164 185 0
174 195 0
143 164 0
158 176 0
172 191 0
170 193 0
164 185 0
157 179 0
151 168 0
147 167 0
151 171 0
165 191 0
172 184 0
172 194 0
164 181 0
167 187 0
168 188 0
163 184 0
182 194 0
170 192 0
176 195 0
138 158 0
162 184 0
146 163 0
181 200 0
162 183 0
172 196 0
170 189 0
154 177 0
178 201 0
180 202 0
144 154 0
181 203 0
174 195 0
176 197 0
167 186 0
181 196 0
175 197 0
174 189 0
174 194 0
159 178 0
177 197 0
174 196 0
154 169 0
177 197 0
169 191 0
152 172 0
160 181 0
177 197 0
161 175 0
165 187 0
152 174 0
161 184 0
173 190 0
176 194 0
156 177 89
183 200 89
152 174 89
182 203 168
188 211 168
172 194 89
168 186 0
180 201 148
165 188 89
158 181 123
172 193 0
190 211 148
185 208 148
153 175 0
176 200 0
164 185 89
160 181 0
178 199 89
171 193 148
179 200 89
167 189 89
185 206 89
186 208 123
143 164 0
156 177 0
169 189 123
177 198 123
150 169 123
151 172 0
150 167 89
154 175 0
171 194 89
164 186 89
173 195 168
150 169 89
145 164 89
161 182 0
172 193 148
167 186 89
159 180 89
154 176 0
162 182 123
174 196 89
167 186 89
178 196 186
177 197 168
181 204 89
152 171 0
134 151 0
162 181 123
158 179 89
185 206 168
164 187 89
190 212 168
151 171 89
144 164 89
165 187 89
144 164 0
159 175 0
169 193 0
166 182 89
166 183 148
123 143 89
140 157 89
146 165 89
91 108 0
145 165 0
153 171 123
168 184 148
171 190 89
166 185 148
165 182 89
139 157 89
177 196 148
171 191 89
179 198 89
150 167 89
179 195 148
165 182 89
136 152 0
173 191 123
149 165 123
143 159 89
174 191 148
139 156 89
134 151 89
155 171 123
154 171 123
162 180 89
142 158 89
137 153 89
147 160 89
183 199 148
94 110 0
151 164 123
165 181 89
125 137 123
149 166 123
114 129 89
146 162 0
141 160 0
95 111 0
123 140 89
139 153 0
126 140 89
109 124 0
109 123 0
117 132 89
115 130 89
95 113 0
119 138 89
113 129 0
82 98 0
113 127 0
128 144 0
118 134 0
144 163 0
151 166 0
172 194 0
157 178 0
172 193 0
175 193 0
155 173 0
136 157 0
163 182 0
147 166 0
130 147 0
160 181 0
150 167 0
151 168 0
143 162 0
147 166 0
141 157 0
108 123 0
133 152 0
109 124 0
111 128 0
147 164 0
90 107 0
122 137 0
113 131 0
127 144 0
111 130 0
130 149 0
91 103 0
137 156 0
97 118 0
111 128 0
151 166 0
109 127 0
108 124 0
111 125 0
113 133 0
101 120 0
100 118 0
110 129 0
111 127 0
78 102 0
111 124 0
97 114 0
95 110 0
110 125 0
116 132 0
140 156 0
121 139 0
151 165 0
111 126 0
74 90 0
114 131 0
111 128 0
111 125 0
128 145 0
113 129 0
100 114 0
112 128 0
113 128 0
116 135 0
69 87 0
150 166 0
111 127 0
132 148 0
144 160 0
113 126 0
110 128 0
110 127 0
110 127 0
126 143 0
124 143 0
132 149 0
90 107 0
133 153 0
127 142 0
106 122 0
113 130 0
77 97 0
109 125 0
125 141 0
137 156 0
109 124 0
97 113 0
124 139 0
140 158 0
112 127 0
137 155 0
142 158 0
137 155 0
112 128 0
122 139 0
126 143 0
108 123 0
133 152 0
140 158 0
155 176 0
114 130 0
110 131 0
124 145 0
125 143 0
104 118 0
125 145 0
164 186 0
114 130 0
123 143 0
136 155 0
148 166 0
147 164 0
142 162 0
128 146 0
137 159 0
136 156 0
111 130 0
123 142 0
72 82 0
135 157 0
136 153 0
107 122 0
115 127 0
145 158 0
138 157 0
134 149 0
160 176 0
122 144 0
165 184 0
167 185 0
132 143 0
76 99 0
137 154 0
146 166 0
123 145 0
147 168 0
176 196 0
127 146 0
137 155 0
159 176 0
124 147 0
130 145 0
157 179 0
126 146 0
135 157 0
154 176 0
133 153 0
145 166 0
165 183 0
154 175 0
155 174 0
149 168 0
136 153 0
165 180 0
145 164 0
137 156 0
136 158 0
135 145 0
142 156 0
154 173 0
135 154 0
130 146 0
169 189 0
171 194 0
146 168 0
160 180 0
157 174 0
173 195 0
156 176 0
164 181 0
145 165 0
132 151 0
163 181 0
147 169 0
145 160 0
166 179 0
157 178 0
149 167 0
151 174 0
152 170 0
173 194 0
160 180 0
147 168 0
168 188 0
165 187 0
172 195 0
155 174 0
158 178 0
150 169 0
164 186 0
164 183 0
153 168 0
169 188 0
174 196 0
172 191 0
146 161 0
176 195 0
162 184 0
175 195 0
143 158 0
153 173 0
159 181 0
141 159 0
158 176 0
158 179 0
115 135 0
138 156 0
180 202 0
158 179 0
160 180 0
159 178 0
150 170 0
163 183 0
177 198 0
162 184 0
158 178 0
152 172 0
161 179 0
161 182 0
121 143 0
150 171 0
138 156 0
174 196 0
176 200 0
166 186 0
167 187 0
167 192 0
167 187 0
159 179 0
152 174 0
170 190 0
169 189 0
140 160 0
149 164 0
173 193 0
157 177 0
164 185 0
161 181 0
170 193 0
143 158 0
164 177 0
168 193 0
169 188 0
170 194 0
161 183 0
181 198 0
177 201 0
154 168 0
171 190 0
160 180 0
180 199 0
152 169 0
169 190 0
166 184 0
181 203 0
164 180 0
173 194 0
146 164 0
161 179 0
162 182 0
181 203 0
167 188 0
161 184 0
174 193 0
177 198 0
161 182 0
169 192 0
170 193 0
168 188 0
158 182 0
159 175 0
181 203 0
171 193 0
169 189 0
168 186 0
169 185 0
163 185 0
176 197 0
168 188 0
168 188 0
165 187 0
162 184 0
148 167 0
169 188 0
174 193 0
153 172 0
181 200 0
187 210 148
191 214 186
172 192 148
168 189 89
182 202 148
154 174 0
182 204 89
170 194 123
176 200 148
167 187 123
166 186 89
160 183 0
143 164 0
184 207 123
171 195 123
156 177 89
167 190 148
179 202 168
176 198 89
166 184 0
180 201 123
168 187 0
168 188 89
153 172 0
168 187 89
175 197 123
178 198 123
129 147 123
160 177 89
169 189 123
164 185 0
152 173 0
177 200 123
168 187 89
187 208 123
189 211 148
143 164 89
172 194 89
169 190 123
181 200 123
176 195 168
156 173 0
154 171 148
162 182 0
168 188 123
155 179 89
156 176 0
175 196 186
166 185 0
156 176 89
160 178 0
167 186 89
152 170 89
173 192 148
189 208 168
151 169 123
140 162 0
183 205 89
150 169 89
150 169 89
165 184 123
128 145 89
152 166 0
159 174 123
114 132 89
159 179 89
156 173 123
182 201 123
137 152 0
161 181 89
168 187 89
180 195 186
188 208 168
174 189 168
138 157 89
105 124 0
133 152 0
125 141 89
161 179 89
176 193 123
171 190 89
147 165 89
132 144 89
152 166 123
160 176 89
168 187 123
169 185 123
169 186 123
134 148 89
168 184 123
170 188 89
177 193 168
73 87 0
126 141 89
160 177 89
161 177 0
105 120 0
133 148 89
108 123 0
110 125 0
133 148 0
125 138 0
129 142 0
112 126 0
150 164 123
129 144 89
128 138 123
154 171 89
139 155 0
128 141 89
112 124 0
74 91 0
113 134 0
121 139 0
93 113 0
136 154 0
119 134 0
130 147 0
149 167 0
171 189 0
174 189 0
148 162 0
154 173 0
164 182 0
141 166 0
147 166 0
132 151 0
153 173 0
130 150 0
160 172 0
147 163 0
115 128 0
134 150 0
134 151 0
129 141 0
94 116 0
106 121 0
121 137 0
131 151 0
152 169 0
72 89 0
162 176 0
145 162 0
86 103 0
76 98 0
125 142 0
159 175 0
129 148 0
153 169 0
122 137 0
98 113 0
140 158 0
130 147 0
113 129 0
109 124 0
155 170 0
108 125 0
116 136 0
93 106 0
121 137 0
130 147 0
131 148 0
71 88 0
106 123 0
128 146 0
111 129 0
93 111 0
116 130 0
128 143 0
50 76 0
130 147 0
98 109 0
91 108 0
111 125 0
128 146 0
122 138 0
111 126 0
130 145 0
95 114 0
125 143 0
95 111 0
98 119 0
115 132 0
129 146 0
111 130 0
118 134 0
111 130 0
116 136 0
93 109 0
90 109 0
114 134 0
128 144 0
125 149 0
122 141 0
119 137 0
73 93 0
126 145 0
131 149 0
114 133 0
112 125 0
109 127 0
136 151 0
112 128 0
144 164 0
135 152 0
176 196 0
140 159 0
156 170 0
141 158 0
94 116 0
131 150 0
139 156 0
108 121 0
125 142 0
158 176 0
137 153 0
127 145 0
137 153 0
106 121 0
136 155 0
108 126 0
110 119 0
138 158 0
142 161 0
146 166 0
126 144 0
128 147 0
136 153 0
138 158 0
110 126 0
146 167 0
136 154 0
113 130 0
156 178 0
145 165 0
150 172 0
122 135 0
135 153 0
136 155 0
141 156 0
137 151 0
150 170 0
147 165 0
142 160 0
123 139 0
140 158 0
141 157 0
118 136 0
143 158 0
124 139 0
144 166 0
146 161 0
125 140 0
119 137 0
132 148 0
121 141 0
120 133 0
140 158 0
172 194 0
145 163 0
157 175 0
137 159 0
167 186 0
145 163 0
182 203 0
170 191 0
164 186 0
148 168 0
145 166 0
141 161 0
168 188 0
139 154 0
114 133 0
158 179 0
135 154 0
150 168 0
143 165 0
159 181 0
175 195 0
132 152 0
142 164 0
154 174 0
164 181 0
135 153 0
158 176 0
130 146 0
156 177 0
176 196 0
157 176 0
117 132 0
166 185 0
135 152 0
154 174 0
153 171 0
146 166 0
159 178 0
148 165 0
164 186 0
147 165 0
152 169 0
164 185 0
162 184 0
155 176 0
176 200 0
158 176 0
158 178 0
170 189 0
164 186 0
152 176 0
145 167 0
142 158 0
160 179 0
161 180 0
156 176 0
154 167 0
161 183 0
166 182 0
163 185 0
163 180 0
163 177 0
170 193 0
177 201 0
172 194 0
156 176 0
167 189 0
154 171 0
162 185 0
172 194 0
160 175 0
150 169 0
166 178 0
136 156 0
150 174 0
142 159 0
160 178 0
157 177 0
167 189 0
155 176 0
158 178 0
143 163 0
145 166 0
152 171 0
171 194 0
162 182 0
161 177 0
175 196 0
166 188 0
173 192 0
158 178 0
155 176 0
152 172 0
166 183 0
164 180 0
163 180 0
158 176 0
141 157 0
168 188 0
181 196 0
171 194 0
151 171 0
163 184 0
141 163 0
174 189 0
145 164 0
183 204 0
172 188 0
151 173 0
161 181 0
184 204 0
150 167 0
175 195 0
169 190 0
164 183 0
170 189 0
159 183 0
162 185 0
158 171 0
172 190 0
165 182 0
137 158 0
180 196 0
175 193 0
156 171 0
161 179 0
170 189 0
152 174 0
163 182 0
162 182 0
167 187 0
177 200 0
171 194 0
146 166 0
171 191 0
154 174 0
166 183 0
172 190 0
169 190 0
174 189 0
171 191 0
149 167 0
182 204 123
186 205 0
167 189 123
146 167 89
167 188 123
183 205 89
188 210 148
185 207 123
159 183 0
164 184 89
158 177 0
174 196 123
179 199 89
179 201 123
164 184 89
181 203 168
178 197 0
170 192 123
162 184 89
166 186 89
161 182 123
170 192 148
171 191 148
177 197 89
188 209 123
179 200 123
161 183 0
156 179 0
159 180 123
181 200 123
154 176 0
168 187 0
147 168 123
164 185 148
170 192 0
161 180 89
164 186 89
149 171 0
168 192 148
156 176 89
166 187 123
167 188 123
159 180 89
164 186 89
170 191 148
164 184 148
148 166 0
164 184 123
140 158 89
161 180 148
174 194 148
141 157 89
164 184 0
134 151 0
119 137 0
158 176 148
182 203 148
184 204 148
152 173 0
154 172 123
163 182 123
161 180 89
171 189 89
90 108 0
184 203 148
155 175 89
159 177 89
163 183 123
148 166 0
166 185 0
152 168 89
147 166 0
157 181 0
102 123 0
138 157 89
142 160 123
179 197 168
138 156 89
145 163 123
179 198 123
166 181 123
128 141 89
165 183 89
165 181 148
153 172 89
142 160 89
138 157 89
109 127 0
151 166 89
159 173 123
115 127 89
134 149 0
73 84 0
156 172 123
154 169 123
101 116 0
119 134 89
94 107 0
125 140 0
126 145 0
137 152 0
138 151 0
113 124 89
150 166 0
74 84 0
134 149 0
152 168 89
135 145 89
127 146 0
175 194 0
110 127 0
135 150 0
145 163 0
148 165 89
145 168 0
117 126 0
111 124 0
166 185 0
171 190 0
160 179 0
135 147 0
144 166 0
169 188 0
144 163 0
156 173 0
153 169 0
155 177 0
141 158 0
148 164 0
123 139 0
163 184 0
99 119 0
130 150 0
134 152 0
116 134 0
117 138 0
142 156 0
109 127 0
146 163 0
65 74 0
64 78 0
134 152 0
161 177 0
167 181 0
121 139 0
145 166 0
113 135 0
130 146 0
73 92 0
124 142 0
159 178 0
127 143 0
130 150 0
135 152 0
113 131 0
131 147 0
126 145 0
129 145 0
122 141 0
72 86 0
150 167 0
113 131 0
127 143 0
85 101 0
131 151 0
111 126 0
127 141 0
98 118 0
129 151 0
122 139 0
96 111 0
150 167 0
140 156 0
138 153 0
91 108 0
95 114 0
113 131 0
127 141 0
138 156 0
103 114 0
111 125 0
78 98 0
107 121 0
113 132 0
72 87 0
149 164 0
133 150 0
115 131 0
149 164 0
114 134 0
94 113 0
114 131 0
152 170 0
127 144 0
132 150 0
126 144 0
135 155 0
120 137 0
111 133 0
162 181 0
125 145 0
98 115 0
97 118 0
138 156 0
114 132 0
147 166 0
157 177 0
109 131 0
121 139 0
98 116 0
146 165 0
139 157 0
137 151 0
103 122 0
143 161 0
123 145 0
120 137 0
127 142 0
124 145 0
162 180 0
130 147 0
122 139 0
136 154 0
146 167 0
149 168 0
147 165 0
138 156 0
122 140 0
93 115 0
146 165 0
147 169 0
132 151 0
137 154 0
133 154 0
144 158 0
147 167 0
109 130 0
167 188 0
140 160 0
162 179 0
126 144 0
123 144 0
148 167 0
159 180 0
117 133 0
150 169 0
107 125 0
127 142 0
150 165 0
120 138 0
136 155 0
168 184 0
126 147 0
149 166 0
97 112 0
176 196 0
153 174 0
164 186 0
136 156 0
151 173 0
135 151 0
177 198 0
114 132 0
152 174 0
139 159 0
147 168 0
145 164 0
136 156 0
177 196 0
133 155 0
157 177 0
149 168 0
169 187 0
168 191 0
147 170 0
161 185 0
150 162 0
142 161 0
134 157 0
126 144 0
134 153 0
173 195 0
155 177 0
170 193 0
134 155 0
178 198 0
155 177 0
118 137 0
166 182 0
149 168 0
164 184 0
149 169 0
161 185 0
139 155 0
151 171 0
161 184 0
166 183 0
120 138 0
145 164 0
178 201 0
153 175 0
166 184 0
164 185 0
174 192 0
161 181 0
136 153 0
138 155 0
153 170 0
172 191 0
165 186 0
169 192 0
157 175 0
151 170 0
170 185 0
164 180 0
152 170 0
160 178 0
182 200 0
146 164 0
161 179 0
131 150 0
142 161 0
144 167 0
166 184 0
182 197 0
160 183 0
164 186 0
161 180 0
148 168 0
170 186 0
144 162 0
150 170 0
162 186 0
166 185 0
163 181 0
152 170 0
164 185 0
171 194 0
175 196 0
146 168 0
168 184 0
162 178 0
167 186 0
170 192 0
174 196 0
173 194 0
156 172 0
183 201 0
175 196 0
165 180 0
170 189 0
161 183 0
142 164 0
174 197 0
165 186 0
159 180 0
170 190 0
164 180 0
143 160 0
177 201 0
144 164 0
161 182 0
154 173 0
168 184 0
146 167 0
169 191 0
170 193 0
168 191 0
164 185 0
165 184 0
179 198 0
169 187 0
135 154 0
152 174 0
174 195 0
172 194 0
172 194 0
165 183 0
171 193 0
170 191 0
165 186 0
152 176 0
166 184 0
181 203 0
175 200 0
156 180 0
167 188 0
149 169 0
173 195 0
169 183 0
161 179 0
169 189 0
158 180 0
171 190 0
179 202 0
155 176 0
168 185 0
148 168 0
175 196 0
178 201 0
175 198 148
179 200 148
152 175 89
164 186 89
150 170 123
184 206 123
171 192 148
153 175 89
156 174 0
176 196 89
184 204 0
179 200 123
169 189 89
170 192 123
170 193 89
160 181 123
178 198 89
168 187 89
176 198 123
157 178 123
175 196 89
172 190 89
174 196 89
160 178 0
154 172 0
172 193 123
177 198 123
160 182 89
158 176 0
146 168 89
181 200 123
174 194 168
125 141 0
178 199 123
162 182 148
156 177 148
178 198 89
176 198 168
173 195 168
173 195 89
163 183 89
183 204 168
161 179 123
153 172 148
168 191 123
160 180 123
163 183 123
154 173 123
153 175 0
175 193 148
179 199 123
136 154 89
176 195 148
175 196 0
158 178 89
164 185 123
155 176 0
135 156 0
175 196 89
161 182 123
160 180 89
152 168 89
163 182 123
166 181 123
183 203 123
172 190 168
157 176 0
172 190 123
153 170 123
166 183 123
174 194 123
134 151 0
169 185 148
144 162 0
162 182 0
188 205 148
152 171 123
172 191 123
159 177 123
143 159 123
146 164 0
165 183 123
141 159 0
144 157 89
174 196 89
165 180 168
185 201 168
153 168 89
152 168 89
143 164 0
124 142 0
155 171 123
131 148 89
122 135 0
158 175 0
133 150 89
107 127 0
165 181 89
150 168 89
148 163 0
106 122 0
94 106 0
134 153 0
106 122 0
108 124 0
120 132 89
109 124 0
154 170 89
129 144 89
78 92 0
157 175 0
146 165 0
122 138 0
113 125 0
135 151 0
126 143 0
111 123 0
126 140 0
152 169 0
142 160 0
170 193 0
153 176 0
166 185 0
151 171 0
180 202 0
132 151 0
129 151 0
146 163 0
147 166 0
133 153 0
134 154 0
120 134 0
125 145 0
114 134 0
93 112 0
98 113 0
137 156 0
169 186 0
114 128 0
121 136 0
148 165 0
148 166 0
151 168 0
138 159 0
135 152 0
109 128 0
127 142 0
128 146 0
111 130 0
113 128 0
127 145 0
128 144 0
129 148 0
112 129 0
93 110 0
122 139 0
99 115 0
126 144 0
90 106 0
154 172 0
110 131 0
113 131 0
73 90 0
105 124 0
113 132 0
114 132 0
133 147 0
54 66 0
79 99 0
97 113 0
127 143 0
124 140 0
132 150 0
124 141 0
97 111 0
141 159 0
123 142 0
160 177 0
75 90 0
100 119 0
110 130 0
115 134 0
93 109 0
114 132 0
134 150 0
121 136 0
92 112 0
139 157 0
141 158 0
160 179 0
113 130 0
113 132 0
129 144 0
111 130 0
166 185 0
123 141 0
150 166 0
74 95 0
96 116 0
124 143 0
95 117 0
114 132 0
130 147 0
170 189 0
124 141 0
125 143 0
131 150 0
136 155 0
109 127 0
135 157 0
93 115 0
124 142 0
146 162 0
75 95 0
125 145 0
157 176 0
156 177 0
133 149 0
128 146 0
148 166 0
106 127 0
121 141 0
141 162 0
137 155 0
135 149 0
182 200 0
137 156 0
114 133 0
163 184 0
105 125 0
113 126 0
133 156 0
124 144 0
136 158 0
142 163 0
132 150 0
150 168 0
113 125 0
136 153 0
147 166 0
119 141 0
128 147 0
143 164 0
143 165 0
162 180 0
165 186 0
139 158 0
125 142 0
134 156 0
133 155 0
161 180 0
155 176 0
120 140 0
155 177 0
121 137 0
139 157 0
159 177 0
126 149 0
156 176 0
147 168 0
116 136 0
146 167 0
149 170 0
170 187 0
123 139 0
136 148 0
151 173 0
127 149 0
163 182 0
143 158 0
149 171 0
150 168 0
146 160 0
143 166 0
141 163 0
145 164 0
131 151 0
160 180 0
144 165 0
170 193 0
153 175 0
160 177 0
155 173 0
174 196 0
158 174 0
168 183 0
148 168 0
141 161 0
170 193 0
163 181 0
164 185 0
152 172 0
152 174 0
157 174 0
152 172 0
163 183 0
165 186 0
167 188 0
143 164 0
138 150 0
165 187 0
150 165 0
150 168 0
150 168 0
169 190 0
147 168 0
159 178 0
148 166 0
153 173 0
175 193 0
163 182 0
136 157 0
169 193 0
145 165 0
153 174 0
153 171 0
154 173 0
174 193 0
162 178 0
168 191 0
159 176 0
143 164 0
162 184 0
170 193 0
130 150 0
156 177 0
157 177 0
163 182 0
142 162 0
166 187 0
172 190 0
176 197 0
165 186 0
173 191 0
138 158 0
171 194 0
142 163 0
157 177 0
160 183 0
143 165 0
162 184 0
149 167 0
159 181 0
163 181 0
144 161 0
168 191 0
178 198 0
171 188 0
155 175 0
174 194 0
160 180 0
170 193 0
180 202 0
177 200 0
162 185 0
149 167 0
177 196 0
128 148 0
167 187 0
159 180 0
153 172 0
168 191 0
165 186 0
154 174 0
157 177 0
163 184 0
170 190 0
162 184 0
163 183 0
182 203 0
152 161 0
173 195 0
165 181 0
175 195 0
178 201 0
172 188 0
153 174 0
173 193 0
154 176 0
177 201 0
148 168 0
160 179 0
173 191 0
152 174 0
166 188 0
168 191 0
137 156 0
153 174 0
181 203 0
175 194 0
167 185 0
166 190 0
171 194 0
167 186 0
176 196 0
160 182 0
164 184 0
171 189 0
167 184 0
175 200 0
170 192 0
160 183 148
179 203 89
166 187 123
176 197 123
175 198 123
161 181 89
156 176 123
173 196 89
176 198 123
174 194 0
158 176 0
169 189 89
182 203 186
184 207 123
172 195 0
175 198 89
184 206 89
161 183 0
174 197 89
181 203 148
165 183 0
180 202 0
161 184 148
170 190 123
176 198 123
149 170 0
140 159 123
180 202 148
166 186 89
170 191 123
170 189 89
150 172 0
165 187 123
167 186 148
179 202 148
151 171 123
157 177 89
167 187 168
150 169 89
153 174 148
154 174 123
171 188 89
160 180 123
159 178 89
151 168 89
177 199 123
175 195 89
139 155 0
137 156 89
172 195 89
175 197 89
150 167 89
177 197 0
123 138 0
181 199 123
167 188 89
142 160 89
170 192 0
160 180 89
147 165 89
148 166 89
145 162 89
174 195 148
160 180 0
180 197 148
163 182 89
169 189 123
172 190 123
143 161 0
116 130 0
162 179 89
180 200 123
166 183 123
161 175 148
141 155 148
167 186 148
126 144 0
158 173 148
182 201 148
140 153 148
135 149 0
168 187 89
144 163 123
146 160 89
136 151 123
162 179 123
120 134 0
172 187 148
179 197 148
153 171 89
155 172 123
144 156 148
154 170 0
151 163 123
134 147 89
125 142 0
156 168 168
107 121 0
111 123 0
140 155 89
69 79 0
128 141 89
144 158 89
117 132 89
150 168 0
123 144 0
86 99 89
91 108 0
150 166 0
158 178 0
135 154 0
119 134 0
95 114 0
134 154 0
143 162 0
128 146 0
142 159 0
169 193 0
155 173 0
156 177 0
141 161 0
155 176 0
144 165 0
158 178 0
150 172 0
163 181 0
137 159 0
145 162 0
149 163 0
137 154 0
150 170 0
136 152 0
131 148 0
131 150 0
142 162 0
82 99 0
159 177 0
134 156 0
121 135 0
112 132 0
124 140 0
113 128 0
145 163 0
138 155 0
142 162 0
121 139 0
155 173 0
138 158 0
122 139 0
133 155 0
124 142 0
148 166 0
101 120 0
116 130 0
94 114 0
109 124 0
156 175 0
81 106 0
139 154 0
110 128 0
123 138 0
139 158 0
91 112 0
144 163 0
110 124 0
149 167 0
126 145 0
132 149 0
154 171 0
124 142 0
176 195 0
114 131 0
149 164 0
134 150 0
140 157 0
39 62 0
148 168 0
111 127 0
70 84 0
117 131 0
131 151 0
109 128 0
124 144 0
151 169 0
96 115 0
138 158 0
73 91 0
124 141 0
128 145 0
126 147 0
124 140 0
152 175 0
87 94 0
163 183 0
138 158 0
111 125 0
100 119 0
95 116 0
147 167 0
117 136 0
162 181 0
78 97 0
148 165 0
147 164 0
107 124 0
149 169 0
145 163 0
125 140 0
109 130 0
137 157 0
78 104 0
121 142 0
120 136 0
126 146 0
173 195 0
128 150 0
138 153 0
110 130 0
124 143 0
146 166 0
144 161 0
122 137 0
148 168 0
146 163 0
111 122 0
140 157 0
122 138 0
141 161 0
125 139 0
152 168 0
147 164 0
122 144 0
138 158 0
134 154 0
152 170 0
114 136 0
144 165 0
178 197 0
122 137 0
107 118 0
158 173 0
113 132 0
131 150 0
165 186 0
131 152 0
137 158 0
110 129 0
133 152 0
140 158 0
168 185 0
122 140 0
156 178 0
145 161 0
157 177 0
148 166 0
129 148 0
123 143 0
130 142 0
139 158 0
158 179 0
127 147 0
123 143 0
135 154 0
142 159 0
147 170 0
155 177 0
165 185 0
157 181 0
139 160 0
144 159 0
138 158 0
163 185 0
157 171 0
166 187 0
143 166 0
144 165 0
160 181 0
141 162 0
157 177 0
161 182 0
104 117 0
162 181 0
144 165 0
163 179 0
142 164 0
151 170 0
146 169 0
180 199 0
158 178 0
150 168 0
161 181 0
153 173 0
151 175 0
150 174 0
132 153 0
172 196 0
151 173 0
149 169 0
152 176 0
160 183 0
156 178 0
182 203 0
152 169 0
160 179 0
155 176 0
163 186 0
171 184 0
149 169 0
162 183 0
145 162 0
156 177 0
133 151 0
145 165 0
127 143 0
159 179 0
148 167 0
175 196 0
172 194 0
150 170 0
156 173 0
165 186 0
142 161 0
123 140 0
166 186 0
170 192 0
143 164 0
164 183 0
165 187 0
154 176 0
156 172 0
161 180 0
163 184 0
160 180 0
171 189 0
176 200 0
149 171 0
173 194 0
154 175 0
168 186 0
175 196 0
181 203 0
154 176 0
165 186 0
159 182 0
164 186 0
150 167 0
165 185 0
159 181 0
179 198 0
174 195 0
165 186 0
169 193 0
164 182 0
176 200 0
155 172 0
166 188 0
155 175 0
160 182 0
164 179 0
165 187 0
164 178 0
178 201 0
155 177 0
169 189 0
152 173 0
157 176 0
161 182 0
153 169 0
152 173 0
165 187 0
174 192 0
162 183 0
167 189 0
153 176 0
175 189 0
158 179 0
182 203 0
171 194 0
155 176 0
162 183 0
174 192 0
180 202 0
176 196 0
161 181 0
163 185 0
178 201 0
154 174 0
168 185 0
174 194 0
163 178 0
150 170 0
159 179 0
176 197 0
170 189 0
151 168 0
171 194 0
177 198 0
179 199 0
178 198 0
183 205 89
159 178 123
169 189 89
156 177 123
189 210 148
165 185 89
165 186 0
174 197 123
180 201 148
164 183 123
167 189 123
180 200 89
177 199 123
179 201 123
183 205 89
144 164 89
164 185 89
162 182 123
146 167 89
174 195 89
177 202 89
161 182 148
181 204 168
159 178 0
160 185 89
148 168 89
161 178 89
141 165 0
160 181 123
153 172 0
172 191 89
167 189 89
172 192 148
143 161 123
139 160 0
136 154 0
185 203 148
167 185 0
159 180 123
143 160 0
168 187 0
175 196 89
134 153 0
185 205 168
169 191 123
179 197 89
162 182 123
187 208 123
169 192 0
157 177 89
138 151 0
167 189 89
174 195 0
178 196 89
149 169 89
166 185 168
168 188 89
113 126 89
157 177 89
179 198 89
158 178 0
130 147 123
144 164 0
172 190 123
167 186 148
179 199 89
156 175 0
165 186 89
166 180 0
144 164 0
136 149 89
174 190 89
179 197 148
150 169 89
172 189 148
145 163 0
162 182 0
150 172 0
177 196 148
143 157 89
134 150 0
140 158 0
175 193 148
166 185 123
161 178 89
161 175 148
122 141 0
128 148 0
179 194 123
156 171 89
147 164 89
146 164 0
144 156 89
162 177 123
105 122 0
111 125 0
142 157 0
159 176 0
144 164 0
154 168 89
149 167 0
139 156 0
107 121 0
124 138 0
86 101 0
128 142 89
132 148 0
120 133 89
110 124 0
130 145 89
88 102 0
144 165 0
123 140 0
134 153 0
138 156 0
144 162 0
137 156 0
135 154 0
162 184 0
157 177 0
138 155 0
148 164 0
174 192 0
166 187 0
160 181 0
156 177 0
142 161 0
147 162 0
162 180 0
143 156 0
148 167 0
167 187 0
86 100 0
121 140 0
107 125 0
110 126 0
94 110 0
115 132 0
153 169 0
89 107 0
146 165 0
127 147 0
155 169 0
152 173 0
134 150 0
148 168 0
112 125 0
143 160 0
128 148 0
140 154 0
154 169 0
75 92 0
97 118 0
142 159 0
148 166 0
130 148 0
95 107 0
118 137 0
141 160 0
107 124 0
98 117 0
56 83 0
111 129 0
139 156 0
138 154 0
151 169 0
115 135 0
146 164 0
91 106 0
72 88 0
129 141 0
154 172 0
148 167 0
120 137 0
137 156 0
112 128 0
96 114 0
115 133 0
125 143 0
138 153 0
97 119 0
126 145 0
122 138 0
151 168 0
148 167 0
114 130 0
98 117 0
82 100 0
155 173 0
122 141 0
109 127 0
122 140 0
111 131 0
133 150 0
108 125 0
133 152 0
111 129 0
124 144 0
155 173 0
117 137 0
138 157 0
117 138 0
146 167 0
124 143 0
120 137 0
154 167 0
109 130 0
132 150 0
127 146 0
119 137 0
66 85 0
140 157 0
146 165 0
156 173 0
136 154 0
123 144 0
133 145 0
133 154 0
145 163 0
127 143 0
138 158 0
158 175 0
116 135 0
136 155 0
126 142 0
137 157 0
122 137 0
138 158 0
147 167 0
142 160 0
110 131 0
152 172 0
128 148 0
156 173 0
151 169 0
107 125 0
92 114 0
100 110 0
156 176 0
125 147 0
147 169 0
96 117 0
136 153 0
170 190 0
155 173 0
132 148 0
157 176 0
107 126 0
163 186 0
152 170 0
158 180 0
136 159 0
125 146 0
142 162 0
132 154 0
131 154 0
143 162 0
165 187 0
153 173 0
139 153 0
170 193 0
137 158 0
132 152 0
156 176 0
160 179 0
165 186 0
168 189 0
155 171 0
157 176 0
130 151 0
142 163 0
159 180 0
126 141 0
170 190 0
180 202 0
169 188 0
163 186 0
158 176 0
172 195 0
173 192 0
149 167 0
160 184 0
166 186 0
148 165 0
166 191 0
172 194 0
158 178 0
148 168 0
150 171 0
164 177 0
134 155 0
162 178 0
151 172 0
105 126 0
168 192 0
162 184 0
158 179 0
156 177 0
176 195 0
152 170 0
173 194 0
140 156 0
164 180 0
123 144 0
145 168 0
142 161 0
165 186 0
160 182 0
143 164 0
148 165 0
154 164 0
156 176 0
170 192 0
156 179 0
174 194 0
162 180 0
172 194 0
166 186 0
152 171 0
167 187 0
147 166 0
168 192 0
167 180 0
159 176 0
157 176 0
167 186 0
166 185 0
150 174 0
149 170 0
159 179 0
174 194 0
136 159 0
154 174 0
162 185 0
144 166 0
167 185 0
176 197 0
163 184 0
164 181 0
167 186 0
161 184 0
175 197 0
157 173 0
164 185 0
179 198 0
161 176 0
173 194 0
171 194 0
140 158 0
161 181 0
178 201 0
172 190 0
170 189 0
170 188 0
167 185 0
173 195 0
174 197 0
164 180 0
160 178 0
173 194 0
157 178 0
154 172 0
171 194 0
163 183 0
179 202 0
159 180 0
173 187 0
163 185 0
176 190 0
157 175 0
178 198 0
177 198 0
172 190 0
173 191 0
160 180 0
170 191 0
178 201 0
157 178 0
165 184 0
168 191 0
167 187 0
166 189 0
169 188 0
178 198 0
157 172 0
183 204 0
150 167 0
176 194 0
171 190 0
153 175 0
165 186 0
162 184 0
175 190 0
155 175 0
177 201 0
164 183 0
162 184 0
168 188 0
171 190 0
176 197 0
183 205 89
175 197 123
172 194 89
167 189 123
174 195 89
174 196 186
166 188 123
173 192 89
192 211 123
183 205 89
154 175 89
150 170 0
167 189 123
181 202 168
180 199 0
174 195 89
175 196 89
180 204 89
157 177 0
184 206 89
138 153 89
171 189 89
153 175 89
153 172 148
185 205 89
164 186 148
158 181 123
155 176 123
160 182 148
152 173 0
163 183 123
144 163 89
185 206 89
170 192 0
159 180 89
178 198 123
159 178 123
167 189 89
162 182 89
178 197 89
166 189 89
154 174 0
162 181 89
160 180 123
181 199 89
157 176 89
136 152 0
154 175 89
172 192 123
150 167 0
147 165 89
183 204 148
149 167 89
161 180 89
177 197 89
181 201 123
149 170 89
167 187 89
155 173 123
166 182 123
169 187 89
161 179 123
139 156 89
171 191 123
176 195 168
170 188 89
127 142 89
153 172 0
185 204 123
153 172 123
168 188 89
146 165 89
156 173 0
144 161 0
154 169 89
159 175 148
177 196 148
167 184 123
91 109 0
120 132 123
186 204 148
137 155 0
137 152 0
165 179 168
156 175 89
136 147 123
114 129 89
153 168 89
105 119 0
149 166 123
137 156 89
115 128 89
153 170 89
173 189 148
123 139 0
153 171 89
144 162 0
165 185 89
123 140 0
135 151 0
114 127 0
124 140 0
135 151 0
126 144 89
112 126 0
105 119 0
157 175 0
114 128 89
140 154 0
145 163 123
136 156 0
143 164 0
135 153 0
139 155 0
138 153 0
106 122 0
152 169 0
165 184 0
148 169 0
162 182 0
142 164 0
172 193 0
169 192 0
156 169 0
156 175 0
160 177 0
153 177 0
132 151 0
164 185 0
147 168 0
135 153 0
120 141 0
146 165 0
151 169 0
137 156 0
134 154 0
144 164 0
148 165 0
123 142 0
137 151 0
135 152 0
93 109 0
122 141 0
136 156 0
119 134 0
98 116 0
124 142 0
131 148 0
133 149 0
127 144 0
147 161 0
127 143 0
111 131 0
136 157 0
142 160 0
148 164 0
150 169 0
100 116 0
73 88 0
93 114 0
125 143 0
137 156 0
127 145 0
146 164 0
117 133 0
117 134 0
112 127 0
96 114 0
91 109 0
149 165 0
142 160 0
95 114 0
102 117 0
110 128 0
133 150 0
66 82 0
109 125 0
109 126 0
106 123 0
140 160 0
103 119 0
129 147 0
129 148 0
134 152 0
113 131 0
124 140 0
124 146 0
112 128 0
93 112 0
126 147 0
104 123 0
126 141 0
148 168 0
125 145 0
118 132 0
122 140 0
162 180 0
139 153 0
136 154 0
138 156 0
101 121 0
162 180 0
143 157 0
138 156 0
112 133 0
125 141 0
79 102 0
155 175 0
178 197 0
145 162 0
150 168 0
114 132 0
87 101 0
141 154 0
131 147 0
147 166 0
115 134 0
157 179 0
140 159 0
166 186 0
135 155 0
142 161 0
143 161 0
150 169 0
108 129 0
107 129 0
140 159 0
147 166 0
128 147 0
171 193 0
112 131 0
109 127 0
146 167 0
146 167 0
145 166 0
121 142 0
131 151 0
158 175 0
153 175 0
150 171 0
125 145 0
113 131 0
146 167 0
140 160 0
154 174 0
140 159 0
124 146 0
126 145 0
145 167 0
156 176 0
149 168 0
150 166 0
147 168 0
137 154 0
149 170 0
150 170 0
151 165 0
147 168 0
143 161 0
154 167 0
143 164 0
134 153 0
158 178 0
159 180 0
163 181 0
111 132 0
144 165 0
158 173 0
119 140 0
151 172 0
136 157 0
145 164 0
131 153 0
143 164 0
146 167 0
159 176 0
152 171 0
155 173 0
159 183 0
154 174 0
154 174 0
172 193 0
137 157 0
137 158 0
159 178 0
165 185 0
162 184 0
149 169 0
148 169 0
170 189 0
156 177 0
157 178 0
144 167 0
173 195 0
152 167 0
168 188 0
161 181 0
165 184 0
163 186 0
155 178 0
167 188 0
158 182 0
164 183 0
146 166 0
164 183 0
151 170 0
174 195 0
169 189 0
150 170 0
161 181 0
138 159 0
157 175 0
153 174 0
161 181 0
152 171 0
174 196 0
150 164 0
160 182 0
147 168 0
173 184 0
153 175 0
169 188 0
153 173 0
148 171 0
149 169 0
159 178 0
173 195 0
155 173 0
162 184 0
163 179 0
164 186 0
166 191 0
175 196 0
161 178 0
169 191 0
150 172 0
166 186 0
170 192 0
162 180 0
158 177 0
166 187 0
172 194 0
167 187 0
160 182 0
171 189 0
135 156 0
157 176 0
159 178 0
152 174 0
175 193 0
174 193 0
165 180 0
151 169 0
172 193 0
169 189 0
170 188 0
171 193 0
155 177 0
168 189 0
156 177 0
165 187 0
162 185 0
171 193 0
179 199 0
168 186 0
177 197 0
173 194 0
159 183 0
160 177 0
162 179 0
164 187 0
177 198 0
176 197 0
174 192 0
175 196 0
169 192 0
158 180 0
157 180 0
158 177 0
178 194 0
176 197 0
156 177 0
167 187 0
160 183 0
173 199 0
151 171 0
174 194 0
169 192 0
165 186 0
180 199 0
165 182 0
157 177 0
179 202 0
178 198 0
165 182 0
178 201 0
157 175 0
172 193 0
167 189 0
161 183 0
176 195 89
174 197 89
176 199 123
180 203 89
176 197 123
151 172 0
177 200 0
168 188 123
159 182 89
180 201 148
174 197 123
179 202 168
160 180 0
166 187 123
145 166 89
151 172 0
170 188 0
170 190 89
162 180 123
162 180 89
148 168 89
140 157 148
176 196 168
186 208 123
175 198 123
150 167 123
159 179 123
154 175 89
181 203 168
185 206 89
157 176 0
143 166 148
183 205 89
174 196 123
132 151 89
163 182 123
174 195 89
164 182 123
175 196 148
146 168 89
170 193 123
160 179 0
167 188 89
148 170 0
160 178 89
159 177 0
149 166 89
156 173 148
143 163 0
161 180 89
178 200 123
167 187 89
173 193 148
128 146 89
153 173 123
182 201 123
166 181 123
174 194 123
152 172 0
157 174 89
146 164 0
173 194 123
179 199 123
171 190 148
179 197 168
164 184 148
160 178 89
168 189 89
157 177 89
122 139 89
152 169 89
157 174 123
140 158 89
167 184 123
141 158 89
132 151 0
155 168 89
170 185 148
180 197 148
129 144 89
177 195 148
168 187 0
143 161 0
168 184 148
147 163 123
157 177 0
164 181 123
156 173 123
153 169 89
167 184 123
138 153 123
129 144 89
164 183 123
151 165 123
167 188 89
164 181 148
128 145 0
138 154 0
130 148 89
149 167 0
128 139 123
132 147 89
77 92 0
132 148 0
122 137 0
118 135 0
132 151 0
104 122 0
142 159 89
94 110 0
142 163 0
141 161 89
111 129 0
159 178 0
150 168 0
156 173 0
117 133 0
136 155 0
166 186 0
172 191 0
164 179 0
172 193 0
160 172 0
131 149 0
151 170 0
148 164 0
143 164 0
150 170 0
147 167 0
143 163 0
126 146 0
147 167 0
164 185 0
126 142 0
107 124 0
133 153 0
95 107 0
105 120 0
120 138 0
124 144 0
125 141 0
116 135 0
167 186 0
105 120 0
80 98 0
151 171 0
135 152 0
142 159 0
139 157 0
142 161 0
148 169 0
126 141 0
139 154 0
114 134 0
126 144 0
131 148 0
114 133 0
132 148 0
140 156 0
126 143 0
117 135 0
123 141 0
76 96 0
159 176 0
150 169 0
147 166 0
73 94 0
148 167 0
129 148 0
126 141 0
116 135 0
121 141 0
107 127 0
112 131 0
123 138 0
128 147 0
112 125 0
126 143 0
125 139 0
42 65 0
94 113 0
137 155 0
148 166 0
117 137 0
146 165 0
128 145 0
145 162 0
110 129 0
125 140 0
155 175 0
74 96 0
135 153 0
99 116 0
151 168 0
108 122 0
111 129 0
153 174 0
153 174 0
145 165 0
116 135 0
130 146 0
151 167 0
111 130 0
124 145 0
141 157 0
154 170 0
145 166 0
136 158 0
153 169 0
96 115 0
124 143 0
131 152 0
145 165 0
110 131 0
130 145 0
129 148 0
132 150 0
141 163 0
141 159 0
150 169 0
110 124 0
124 142 0
126 147 0
115 138 0
112 128 0
145 163 0
132 152 0
126 148 0
146 162 0
156 174 0
126 147 0
108 128 0
135 154 0
144 163 0
136 157 0
120 142 0
141 157 0
139 158 0
155 173 0
140 159 0
113 131 0
152 171 0
165 184 0
128 149 0
152 169 0
147 171 0
150 170 0
149 175 0
97 114 0
127 139 0
123 140 0
179 195 0
139 158 0
137 158 0
148 171 0
158 178 0
143 165 0
138 158 0
137 157 0
136 154 0
169 192 0
146 165 0
147 168 0
136 157 0
138 159 0
136 153 0
131 152 0
166 186 0
146 165 0
139 160 0
176 195 0
142 164 0
146 168 0
160 182 0
134 155 0
157 177 0
125 145 0
172 188 0
158 173 0
148 169 0
162 184 0
165 186 0
144 167 0
144 165 0
163 184 0
157 179 0
176 196 0
150 172 0
166 187 0
173 195 0
151 174 0
173 188 0
157 177 0
167 187 0
158 178 0
167 188 0
127 142 0
150 170 0
168 186 0
171 193 0
156 177 0
155 173 0
157 172 0
156 179 0
165 187 0
144 161 0
138 158 0
168 191 0
166 187 0
161 178 0
140 164 0
149 168 0
152 175 0
179 198 0
151 176 0
160 183 0
152 175 0
146 167 0
170 188 0
177 194 0
164 187 0
184 204 0
172 191 0
146 157 0
160 177 0
165 185 0
170 192 0
178 194 0
157 178 0
142 163 0
173 194 0
132 155 0
162 184 0
155 174 0
165 186 0
176 200 0
153 176 0
175 196 0
154 168 0
158 182 0
153 175 0
161 178 0
172 194 0
145 163 0
150 169 0
175 192 0
163 186 0
151 166 0
176 197 0
154 172 0
163 183 0
171 191 0
160 181 0
170 190 0
176 196 0
136 155 0
175 199 0
170 192 0
174 192 0
173 195 0
162 183 0
171 194 0
166 182 0
149 166 0
171 192 0
145 167 0
173 199 0
180 199 0
168 186 0
163 185 0
165 186 0
161 178 0
177 197 0
162 184 0
154 173 0
166 185 0
165 187 0
145 167 0
178 201 0
162 182 0
174 195 0
176 196 0
177 197 0
168 181 0
177 198 0
162 185 0
170 191 0
171 194 0
177 201 0
171 194 0
174 192 0
178 201 0
180 199 0
166 185 0
180 202 0
165 184 0
178 201 0
160 179 0
167 187 0
180 202 0
174 195 89
175 198 148
172 192 123
165 187 123
187 211 168
171 195 89
177 199 123
181 200 123
187 210 148
168 189 148
164 185 89
173 199 0
172 194 148
146 166 89
177 200 123
165 185 0
157 177 123
179 200 148
180 203 89
168 189 89
166 187 123
144 164 89
178 200 148
136 157 89
183 202 148
182 206 123
174 195 168
156 177 89
156 177 148
154 177 89
148 168 89
176 196 89
175 198 123
154 177 89
177 200 148
168 188 148
159 179 123
143 159 89
163 184 89
189 210 148
167 188 89
167 187 89
144 159 148
151 171 0
176 198 89
177 197 89
157 177 0
178 198 89
134 154 0
157 176 89
143 166 0
174 194 148
177 200 0
148 171 89
183 204 0
169 190 89
164 183 89
158 175 0
158 181 89
133 150 123
161 177 89
164 181 123
147 163 123
197 217 186
159 178 0
157 176 89
178 197 148
173 192 123
135 152 0
163 181 89
157 177 0
182 201 123
138 153 0
115 130 89
162 179 89
157 176 0
167 183 148
162 181 89
159 178 89
159 178 89
168 185 0
141 160 89
171 190 123
138 153 89
136 153 0
141 160 89
160 176 123
146 166 0
132 149 89
170 183 168
161 181 89
176 194 123
161 179 89
94 104 0
145 161 89
146 163 89
97 112 0
130 152 0
132 147 89
182 199 89
112 129 0
142 158 89
143 164 0
109 119 123
163 182 89
132 147 0
133 152 0
169 188 0
110 126 0
134 154 0
107 123 0
108 125 0
132 155 0
134 154 0
151 168 0
92 113 0
111 133 0
135 146 0
162 180 0
142 162 0
163 181 0
158 177 0
164 186 0
164 185 0
156 175 0
129 144 0
145 167 0
159 176 0
144 160 0
147 163 0
152 169 0
128 142 0
126 145 0
159 177 0
119 134 0
136 155 0
112 130 0
160 179 0
144 160 0
122 141 0
146 164 0
101 117 0
146 169 0
89 104 0
109 124 0
95 115 0
122 135 0
132 154 0
150 171 0
95 110 0
128 147 0
128 146 0
155 173 0
133 152 0
127 146 0
128 148 0
164 184 0
112 128 0
124 145 0
132 151 0
139 156 0
123 145 0
98 117 0
141 157 0
149 168 0
97 116 0
115 126 0
123 143 0
105 121 0
100 117 0
147 166 0
125 143 0
114 130 0
135 150 0
148 167 0
154 175 0
130 149 0
123 143 0
117 136 0
138 155 0
151 168 0
132 151 0
77 92 0
112 135 0
108 129 0
127 147 0
166 187 0
123 140 0
142 157 0
120 139 0
97 115 0
130 145 0
123 142 0
110 128 0
110 129 0
113 130 0
138 158 0
143 164 0
108 126 0
148 167 0
137 156 0
124 139 0
141 155 0
138 158 0
111 131 0
161 180 0
155 175 0
148 169 0
141 158 0
149 169 0
131 147 0
144 164 0
133 152 0
156 176 0
110 121 0
140 157 0
145 166 0
129 142 0
139 157 0
137 154 0
142 155 0
130 147 0
160 180 0
132 155 0
139 156 0
144 163 0
132 151 0
142 162 0
124 143 0
147 166 0
146 166 0
132 150 0
111 131 0
147 161 0
160 179 0
137 158 0
153 175 0
99 115 0
150 169 0
131 151 0
153 173 0
144 166 0
155 175 0
154 174 0
125 144 0
152 172 0
159 177 0
163 181 0
134 158 0
159 178 0
119 139 0
156 177 0
138 158 0
145 164 0
144 162 0
144 164 0
142 164 0
132 146 0
158 179 0
167 188 0
133 155 0
151 170 0
168 188 0
163 186 0
166 187 0
137 160 0
157 179 0
148 167 0
143 158 0
140 159 0
141 161 0
152 175 0
142 163 0
154 175 0
162 180 0
149 171 0
160 179 0
158 181 0
168 185 0
151 174 0
157 181 0
138 157 0
155 175 0
149 170 0
169 189 0
132 152 0
163 184 0
145 166 0
171 194 0
123 142 0
141 157 0
174 195 0
168 188 0
161 185 0
148 168 0
137 157 0
132 149 0
150 173 0
164 186 0
161 185 0
167 186 0
147 162 0
166 183 0
166 186 0
160 183 0
158 178 0
184 201 0
142 160 0
152 174 0
176 192 0
171 192 0
157 172 0
146 164 0
154 173 0
165 184 0
152 176 0
145 162 0
152 171 0
155 179 0
166 186 0
168 187 0
175 196 0
160 181 0
172 194 0
180 199 0
164 186 0
147 161 0
175 194 0
172 194 0
163 180 0
143 162 0
163 180 0
172 194 0
161 183 0
143 162 0
168 191 0
154 172 0
176 197 0
172 193 0
142 158 0
166 184 0
162 180 0
152 170 0
162 184 0
170 189 0
175 193 0
157 177 0
165 188 0
159 183 0
177 201 0
184 201 0
163 184 0
164 184 0
149 167 0
151 173 0
154 175 0
141 157 0
161 183 0
151 173 0
171 189 0
160 182 0
150 172 0
170 192 0
169 190 0
172 193 0
179 202 0
172 193 0
159 181 0
155 172 0
171 189 0
149 164 0
153 173 0
174 199 0
180 202 0
160 181 0
158 180 0
172 192 0
181 202 0
176 195 0
178 198 0
166 186 0
181 203 0
154 175 0
159 183 0
177 194 0
167 186 0
166 190 0
176 200 0
170 193 0
168 194 0
173 195 0
165 184 0
170 188 0
167 184 0
165 184 0
155 174 0
179 198 0
170 190 0
149 171 0
177 192 0
